; generated by PrusaSlicer 2.6.1+win64 on 2023-10-12 at 07:14:28 UTC


;
;

;
;

;
;
; 

; external perimeters extrusion width = 0.45mm
; perimeters extrusion width = 0.45mm
; infill extrusion width = 0.45mm
; solid infill extrusion width = 0.45mm
; top infill extrusion width = 0.40mm
; first layer extrusion width = 0.50mm

; external perimeters extrusion width = 0.45mm
; perimeters extrusion width = 0.45mm
; infill extrusion width = 0.45mm
; solid infill extrusion width = 0.45mm
; top infill extrusion width = 0.40mm
; first layer extrusion width = 0.50mm

; external perimeters extrusion width = 0.45mm
; perimeters extrusion width = 0.45mm
; infill extrusion width = 0.45mm
; solid infill extrusion width = 0.45mm
; top infill extrusion width = 0.40mm
; first layer extrusion width = 0.50mm

; external perimeters extrusion width = 0.45mm
; perimeters extrusion width = 0.45mm
; infill extrusion width = 0.45mm
; solid infill extrusion width = 0.45mm
; top infill extrusion width = 0.40mm
; first layer extrusion width = 0.50mm

M73 P0 R208
M201 X2500 Y2500 Z200 E2500 ; sets maximum accelerations, mm/sec^2
M203 X200 Y200 Z40 E100 ; sets maximum feedrates, mm / sec
M204 P2000 R1200 T2000 ; sets acceleration (P, T) and retract acceleration (R), mm/sec^2
M205 X8.00 Y8.00 Z2.00 E10.00 ; sets the jerk limits, mm/sec
M205 S0 T0 ; sets the minimum extruding and travel feed rate, mm/sec
;TYPE:Custom
M17 ; enable steppers
M862.3 P "MK4" ; printer model check
M862.1 P0.4 ; nozzle diameter check
M555 X14.083 Y4.74955 W222.191 H195.037

G90 ; use absolute coordinates
M83 ; extruder relative mode

M140 S100 ; set bed temp

M104 S170 ; set extruder temp for bed leveling
M109 R170 ; wait for temp


M84 E ; turn off E motor

G28 ; home all without mesh bed level

G1 X42 Y-4 Z5 F4800

M302 S160 ; lower cold extrusion limit to 160C


G1 E-2 F2400 ; retraction


M84 E ; turn off E motor

G29 P9 X10 Y-4 W32 H4



G0 Z40 F10000

M190 S100 ; wait for bed temp

M107

;
; MBL
;
M84 E ; turn off E motor
G29 P1 ; invalidate mbl & probe print area
G29 P1 X0 Y0 W50 H20 C ; probe near purge place
G29 P3.2 ; interpolate mbl probes
G29 P3.13 ; extrapolate mbl outside probe area
G29 A ; activate mbl

; prepare for purge
M104 S255
G0 X0 Y-4 Z15 F4800 ; move away and ready for the purge
M109 S255

G92 E0
M569 S0 E ; set spreadcycle mode for extruder

;
; Extrude purge line
;
G92 E0 ; reset extruder position
G1 E2 F2400 ; deretraction after the initial one before nozzle cleaning
G0 E7 X15 Z0.2 F500 ; purge
G0 X25 E4 F500 ; purge
G0 X35 E4 F650 ; purge
G0 X45 E4 F800 ; purge
G0 X48 Z0.05 F8000 ; wipe, move close to the bed
G0 X51 Z0.2 F8000 ; wipe, move quickly away from the bed

G92 E0
M221 S100 ; set flow to 100%
G21 ; set units to millimeters
G90 ; use absolute coordinates
M83 ; use relative distances for extrusion
M900 K0.04 ; Filament gcode



M142 S40 ; set heatbreak target temp
M107
;LAYER_CHANGE
;Z:0.2
;HEIGHT:0.2
;BEFORE_LAYER_CHANGE
G92 E0.0
;0.2


G1 E-.8 F2100
G1 Z.2 F720
;AFTER_LAYER_CHANGE
;0.2
; printing object bottom.stl id:0 copy 0
G1 Z.4
G1 X167.474 Y92.683 F12000
G1 Z.2 F720
G1 E.8 F1500
M204 P600
;TYPE:Perimeter
;WIDTH:0.499999
G1 F1200
G1 X167.57 Y92.706 E.00375
G1 X171.013 Y92.706 E.13086
G1 X171.196 Y92.681 E.00702
G1 X171.469 Y92.533 E.0118
G1 X171.639 Y92.301 E.01093
G1 X171.699 Y92.02 E.01092
G1 X171.699 Y89.706 E.08795
G1 X225.885 Y89.706 E2.05941
G1 X225.885 Y92.02 E.08795
G1 X225.904 Y92.182 E.0062
G1 X226.036 Y92.45 E.01135
G1 X226.269 Y92.636 E.01133
G1 X226.57 Y92.706 E.01175
G1 X230.013 Y92.706 E.13086
G1 X230.148 Y92.693 E.00515
G1 X230.454 Y92.546 E.0129
G1 X230.627 Y92.327 E.01061
G1 X230.699 Y92.02 E.01198
G1 X230.699 Y89.706 E.08795
G1 X234.885 Y89.706 E.15909
G1 X234.885 Y93.892 E.15909
G1 X232.792 Y93.892 E.07955
G1 X232.436 Y93.905 E.01354
G1 X232.13 Y94.052 E.0129
G1 X231.957 Y94.271 E.01061
G1 X231.885 Y94.577 E.01195
G1 X231.885 Y98.02 E.13086
G1 X231.91 Y98.203 E.00702
G1 X232.058 Y98.476 E.0118
G1 X232.29 Y98.646 E.01093
G1 X232.57 Y98.706 E.01088
G1 X234.885 Y98.706 E.08798
G1 X234.885 Y125.559 E1.02058
G1 X232.57 Y125.559 E.08798
G1 X232.409 Y125.578 E.00616
G1 X232.141 Y125.709 E.01134
G1 X231.956 Y125.94 E.01125
G1 X231.885 Y126.244 E.01186
G1 X231.885 Y129.687 E.13086
G1 X231.91 Y129.871 E.00706
G1 X232.063 Y130.148 E.01203
G1 X232.296 Y130.315 E.0109
G1 X232.57 Y130.373 E.01064
G1 X234.885 Y130.373 E.08798
G1 X234.885 Y157.225 E1.02054
G1 X232.57 Y157.225 E.08798
G1 X232.412 Y157.244 E.00605
G1 X232.147 Y157.372 E.01119
G1 X231.951 Y157.617 E.01192
G1 X231.885 Y157.911 E.01145
G1 X231.885 Y161.354 E.13086
G1 X231.911 Y161.541 E.00718
G1 X232.062 Y161.813 E.01182
G1 X232.294 Y161.981 E.01089
G1 X232.57 Y162.039 E.01072
G1 X234.885 Y162.039 E.08798
G1 X234.885 Y188.892 E1.02058
G1 X232.57 Y188.892 E.08798
G1 X232.409 Y188.911 E.00616
G1 X232.141 Y189.043 E.01135
G1 X231.955 Y189.276 E.01133
G1 X231.885 Y189.578 E.01178
G1 X231.885 Y193.02 E.13082
G1 X231.898 Y193.155 E.00515
G1 X232.045 Y193.461 E.0129
G1 X232.264 Y193.634 E.01061
G1 X232.57 Y193.706 E.01195
G1 X234.885 Y193.706 E.08798
G1 X234.885 Y197.892 E.15909
G1 X230.699 Y197.892 E.15909
G1 X230.699 Y195.799 E.07955
G1 X230.686 Y195.443 E.01354
G1 X230.539 Y195.137 E.0129
G1 X230.32 Y194.964 E.01061
G1 X230.013 Y194.892 E.01198
G1 X226.57 Y194.892 E.13086
G1 X226.387 Y194.917 E.00702
G1 X226.115 Y195.065 E.01177
G1 X225.945 Y195.297 E.01093
G1 X225.885 Y195.578 E.01092
G1 X225.885 Y197.892 E.08795
G1 X201.199 Y197.892 E.93822
G1 X201.199 Y195.578 E.08795
G1 X201.144 Y195.308 E.01047
G1 X201.017 Y195.112 E.00888
G1 X200.801 Y194.955 E.01015
G1 X200.513 Y194.892 E.0112
G1 X197.931 Y194.892 E.09813
G1 X196.875 Y194.92 E.04015
G1 X196.604 Y195.075 E.01187
G1 X196.44 Y195.308 E.01083
G1 X196.385 Y195.578 E.01047
G1 X196.385 Y197.892 E.08795
G1 X171.699 Y197.892 E.93822
G1 X171.699 Y195.578 E.08795
G1 X171.68 Y195.416 E.0062
G1 X171.547 Y195.148 E.01137
G1 X171.315 Y194.962 E.0113
G1 X171.013 Y194.892 E.01178
G1 X167.57 Y194.892 E.13086
G1 X167.436 Y194.905 E.00512
G1 X167.13 Y195.052 E.0129
G1 X166.957 Y195.271 E.01061
G1 X166.885 Y195.578 E.01198
G1 X166.885 Y197.892 E.08795
G1 X162.699 Y197.892 E.15909
G1 X162.699 Y193.706 E.15909
G1 X164.792 Y193.706 E.07955
G1 X165.148 Y193.693 E.01354
G1 X165.454 Y193.546 E.0129
G1 X165.627 Y193.327 E.01061
G1 X165.699 Y193.02 E.01198
G1 X165.699 Y189.578 E.13082
G1 X165.674 Y189.394 E.00706
G1 X165.526 Y189.122 E.01177
G1 X165.294 Y188.952 E.01093
G1 X165.013 Y188.892 E.01092
G1 X162.699 Y188.892 E.08795
G1 X162.699 Y162.039 E1.02058
G1 X165.013 Y162.039 E.08795
G1 X165.172 Y162.021 E.00608
G1 X165.439 Y161.891 E.01129
G1 X165.625 Y161.663 E.01118
G1 X165.699 Y161.358 E.01193
G1 X165.699 Y157.911 E.13101
G1 X165.674 Y157.727 E.00706
G1 X165.521 Y157.45 E.01203
G1 X165.288 Y157.283 E.0109
G1 X165.013 Y157.225 E.01068
G1 X162.699 Y157.225 E.08795
G1 X162.699 Y130.373 E1.02054
G1 X165.013 Y130.373 E.08795
G1 X165.171 Y130.354 E.00605
G1 X165.437 Y130.226 E.01122
G1 X165.633 Y129.981 E.01192
G1 X165.699 Y129.687 E.01145
G1 X165.699 Y126.244 E.13086
G1 X165.672 Y126.055 E.00726
G1 X165.525 Y125.788 E.01158
G1 X165.293 Y125.618 E.01093
G1 X165.013 Y125.559 E.01088
G1 X162.699 Y125.559 E.08795
G1 X162.699 Y98.706 E1.02058
G1 X165.013 Y98.706 E.08795
G1 X165.175 Y98.687 E.0062
G1 X165.443 Y98.555 E.01135
G1 X165.629 Y98.322 E.01133
G1 X165.699 Y98.02 E.01178
G1 X165.699 Y94.577 E.13086
G1 X165.686 Y94.443 E.00512
G1 X165.539 Y94.137 E.0129
G1 X165.32 Y93.964 E.01061
G1 X165.013 Y93.892 E.01198
G1 X162.699 Y93.892 E.08795
G1 X162.699 Y89.706 E.15909
G1 X166.885 Y89.706 E.15909
G1 X166.885 Y91.799 E.07955
G1 X166.898 Y92.155 E.01354
G1 X167.045 Y92.461 E.0129
G1 X167.264 Y92.634 E.01061
G1 X167.416 Y92.669 E.00593
M204 P1000
G1 X167.57 Y92.249 F12000
M204 P600
;TYPE:External perimeter
G1 F1200
G1 X171.013 Y92.249 E.13086
G1 X171.178 Y92.179 E.00681
G1 X171.242 Y92.02 E.00651
G1 X171.242 Y89.249 E.10532
G1 X226.342 Y89.249 E2.09415
G1 X226.342 Y92.02 E.10532
G1 X226.406 Y92.179 E.00651
G1 X226.57 Y92.249 E.00678
G1 X230.013 Y92.249 E.13086
G1 X230.175 Y92.182 E.00666
G1 X230.242 Y92.02 E.00666
G1 X230.242 Y89.249 E.10532
G1 X235.342 Y89.249 E.19383
G1 X235.342 Y94.349 E.19383
G1 X232.57 Y94.349 E.10535
G1 X232.409 Y94.416 E.00663
G1 X232.342 Y94.577 E.00663
G1 X232.342 Y98.02 E.13086
G1 X232.411 Y98.185 E.0068
G1 X232.57 Y98.249 E.00651
G1 X235.342 Y98.249 E.10535
G1 X235.342 Y126.016 E1.05532
G1 X232.57 Y126.016 E.10535
G1 X232.412 Y126.08 E.00648
G1 X232.342 Y126.244 E.00678
G1 X232.342 Y129.687 E.13086
G1 X232.413 Y129.853 E.00686
G1 X232.57 Y129.916 E.00643
G1 X235.342 Y129.916 E.10535
G1 X235.342 Y157.682 E1.05528
G1 X232.57 Y157.682 E.10535
G1 X232.413 Y157.745 E.00643
M73 P0 R207
G1 X232.342 Y157.911 E.00686
G1 X232.342 Y161.354 E.13086
G1 X232.413 Y161.519 E.00683
G1 X232.57 Y161.582 E.00643
G1 X235.342 Y161.582 E.10535
G1 X235.342 Y189.349 E1.05532
G1 X232.57 Y189.349 E.10535
G1 X232.411 Y189.413 E.00651
G1 X232.342 Y189.578 E.0068
G1 X232.342 Y193.02 E.13082
G1 X232.409 Y193.182 E.00666
G1 X232.57 Y193.249 E.00663
G1 X235.342 Y193.249 E.10535
G1 X235.342 Y198.349 E.19383
G1 X230.242 Y198.349 E.19383
G1 X230.242 Y195.578 E.10532
G1 X230.175 Y195.416 E.00666
G1 X230.013 Y195.349 E.00666
G1 X226.57 Y195.349 E.13086
G1 X226.406 Y195.418 E.00676
G1 X226.342 Y195.578 E.00655
G1 X226.342 Y198.349 E.10532
G1 X200.742 Y198.349 E.97296
G1 X200.742 Y195.578 E.10532
G1 X200.669 Y195.41 E.00696
G1 X200.513 Y195.349 E.00637
G1 X197.07 Y195.349 E.13086
G1 X196.915 Y195.41 E.00633
G1 X196.842 Y195.578 E.00696
G1 X196.842 Y198.349 E.10532
G1 X171.242 Y198.349 E.97296
G1 X171.242 Y195.578 E.10532
G1 X171.178 Y195.418 E.00655
G1 X171.013 Y195.349 E.0068
G1 X167.57 Y195.349 E.13086
G1 X167.409 Y195.416 E.00663
G1 X167.342 Y195.578 E.00666
G1 X167.342 Y198.349 E.10532
G1 X162.242 Y198.349 E.19383
G1 X162.242 Y193.249 E.19383
G1 X165.013 Y193.249 E.10532
G1 X165.175 Y193.182 E.00666
G1 X165.242 Y193.02 E.00666
G1 X165.242 Y189.578 E.13082
G1 X165.172 Y189.413 E.00681
G1 X165.013 Y189.349 E.00651
G1 X162.242 Y189.349 E.10532
G1 X162.242 Y161.582 E1.05532
G1 X165.013 Y161.582 E.10532
G1 X165.171 Y161.519 E.00646
G1 X165.242 Y161.357 E.00672
G1 X165.242 Y157.911 E.13097
G1 X165.17 Y157.745 E.00688
G1 X165.013 Y157.682 E.00643
G1 X162.242 Y157.682 E.10532
G1 X162.242 Y129.916 E1.05528
G1 X165.013 Y129.916 E.10532
G1 X165.17 Y129.853 E.00643
G1 X165.242 Y129.687 E.00688
G1 X165.242 Y126.244 E.13086
G1 X165.172 Y126.08 E.00678
G1 X165.013 Y126.016 E.00651
G1 X162.242 Y126.016 E.10532
G1 X162.242 Y98.249 E1.05532
G1 X165.013 Y98.249 E.10532
G1 X165.172 Y98.185 E.00651
G1 X165.242 Y98.02 E.00681
G1 X165.242 Y94.577 E.13086
G1 X165.175 Y94.416 E.00663
G1 X165.013 Y94.349 E.00666
G1 X162.242 Y94.349 E.10532
G1 X162.242 Y89.249 E.19383
G1 X167.342 Y89.249 E.19383
G1 X167.342 Y92.02 E.10532
G1 X167.409 Y92.182 E.00666
G1 X167.515 Y92.226 E.00436
M204 P1000
G1 X167.674 Y92.635 F12000
G1 E-.64 F2100
;WIPE_START
G1 F9600
G1 X168.285 Y92.231 E-.16
;WIPE_END
G1 Z.4 F720
G1 X234.679 Y194.602 F12000
G1 Z.2 F720
G1 E.8 F1500
M204 P600
;TYPE:Solid infill
;WIDTH:0.501493
G1 F1200
G1 X234.194 Y194.117 E.02615
G1 X233.546 Y194.117 E.02471
G1 X234.473 Y195.045 E.05002
G1 X234.473 Y195.693 E.02471
G1 X232.692 Y193.912 E.09604
M204 P1000
G1 E-.64 F2100
;WIPE_START
G1 F9600
G1 X233.236 Y194.456 E-.16
;WIPE_END
G1 Z.4 F720
G1 X234.679 Y162.825 F12000
G1 Z.2 F720
G1 E.8 F1500
M204 P600
G1 F1200
G1 X234.305 Y162.451 E.02017
G1 X233.657 Y162.451 E.02471
G1 X234.473 Y163.267 E.044
G1 X234.473 Y163.916 E.02475
G1 X232.803 Y162.245 E.09008
M204 P1000
G1 E-.64 F2100
;WIPE_START
G1 F9600
G1 X233.347 Y162.79 E-.16
;WIPE_END
G1 Z.4 F720
G1 X234.679 Y131.047 F12000
G1 Z.2 F720
G1 E.8 F1500
M204 P600
G1 F1200
G1 X234.416 Y130.784 E.01418
G1 X233.768 Y130.784 E.02471
G1 X234.473 Y131.49 E.03804
G1 X234.473 Y132.138 E.02471
G1 X232.913 Y130.578 E.08412
M204 P1000
G1 E-.64 F2100
;WIPE_START
G1 F9600
G1 X233.457 Y131.122 E-.16
;WIPE_END
G1 Z.4 F720
G1 X225.679 Y90.918 F12000
G1 Z.2 F720
G1 E.8 F1500
M204 P600
G1 F1200
G1 X224.878 Y90.117 E.04319
G1 X224.23 Y90.117 E.02471
G1 X225.679 Y91.567 E.07816
M204 P1000
G1 E-.64 F2100
;WIPE_START
G1 F9600
G1 X225.135 Y91.022 E-.16
;WIPE_END
G1 Z.4 F720
G1 X233.752 Y89.912 F12000
G1 Z.2 F720
G1 E.8 F1500
M204 P600
G1 F1200
G1 X234.473 Y90.633 E.03888
G1 X234.473 Y91.282 E.02475
G1 X233.309 Y90.117 E.0628
G1 X232.661 Y90.117 E.02471
G1 X234.473 Y91.93 E.09774
G1 X234.473 Y92.579 E.02475
G1 X232.012 Y90.117 E.13274
G1 X231.364 Y90.117 E.02471
G1 X234.473 Y93.227 E.16768
G1 X234.473 Y93.481 E.00969
G1 X234.078 Y93.481 E.01506
G1 X231.11 Y90.513 E.16005
G1 X231.11 Y91.161 E.02471
G1 X233.43 Y93.481 E.12511
G1 X232.781 Y93.481 E.02475
G1 X231.11 Y91.81 E.09011
G1 X231.11 Y92.029 E.00835
G1 X231.09 Y92.239 E.00804
G1 X231.039 Y92.387 E.00597
G1 X232.204 Y93.552 E.06282
G1 X232.081 Y93.594 E.00496
G1 X231.867 Y93.735 E.00977
G1 X231.803 Y93.799 E.00345
G1 X230.792 Y92.788 E.05452
G1 X230.717 Y92.863 E.00404
G1 X230.503 Y93.004 E.00977
G1 X230.396 Y93.04 E.0043
G1 X231.55 Y94.195 E.06226
G1 X231.494 Y94.359 E.00661
G1 X231.473 Y94.568 E.00801
G1 X231.473 Y94.767 E.00759
G1 X229.824 Y93.117 E.08895
G1 X229.175 Y93.117 E.02475
G1 X231.473 Y95.415 E.12392
G1 X231.473 Y96.064 E.02475
G1 X228.527 Y93.117 E.15889
G1 X227.878 Y93.117 E.02475
G1 X231.473 Y96.712 E.19386
G1 X231.473 Y97.361 E.02475
G1 X227.024 Y92.912 E.23991
M204 P1000
G1 E-.64 F2100
;WIPE_START
G1 F9600
G1 X227.568 Y93.456 E-.16
;WIPE_END
G1 Z.4 F720
G1 X233.673 Y98.912 F12000
G1 Z.2 F720
G1 E.8 F1500
M204 P600
G1 F1200
G1 X234.473 Y99.712 E.04314
G1 X234.473 Y100.361 E.02475
G1 X233.024 Y98.912 E.07814
M204 P1000
G1 E-.64 F2100
;WIPE_START
G1 F9600
G1 X233.568 Y99.456 E-.16
;WIPE_END
G1 Z.4 F720
G1 X234.679 Y101.215 F12000
G1 Z.2 F720
G1 E.8 F1500
M204 P600
G1 F1200
G1 X232.581 Y99.117 E.11313
G1 X232.314 Y99.088 E.01024
G1 X232.123 Y99.023 E.00769
G1 X231.981 Y98.946 E.00616
G1 X231.807 Y98.809 E.00844
G1 X231.672 Y98.65 E.00795
G1 X231.585 Y98.503 E.00651
G1 X231.526 Y98.358 E.00597
G1 X231.487 Y98.194 E.00643
G1 X231.473 Y98.01 E.00704
G1 X226.581 Y93.117 E.26383
G1 X226.396 Y93.104 E.00707
G1 X226.233 Y93.065 E.00639
G1 X226.088 Y93.006 E.00597
G1 X225.94 Y92.919 E.00655
G1 X225.781 Y92.784 E.00795
G1 X225.645 Y92.61 E.00842
G1 X225.568 Y92.468 E.00616
G1 X225.503 Y92.277 E.00769
G1 X225.473 Y92.01 E.01024
G1 X223.581 Y90.117 E.10205
G1 X222.933 Y90.117 E.02471
G1 X234.473 Y101.658 E.62232
G1 X234.473 Y102.307 E.02475
G1 X222.284 Y90.117 E.65731
G1 X221.636 Y90.117 E.02471
G1 X234.473 Y102.955 E.69226
G1 X234.473 Y103.604 E.02475
G1 X220.987 Y90.117 E.72726
G1 X220.339 Y90.117 E.02471
G1 X234.473 Y104.252 E.7622
G1 X234.473 Y104.901 E.02475
G1 X219.69 Y90.117 E.7972
G1 X219.042 Y90.117 E.02471
G1 X234.473 Y105.549 E.83214
G1 X234.473 Y106.198 E.02475
G1 X218.393 Y90.117 E.86714
G1 X217.745 Y90.117 E.02471
G1 X234.473 Y106.846 E.90208
G1 X234.473 Y107.495 E.02475
G1 X217.096 Y90.117 E.93708
G1 X216.448 Y90.117 E.02471
G1 X234.473 Y108.143 E.97202
G1 X234.473 Y108.792 E.02475
G1 X215.799 Y90.117 E1.00702
G1 X215.151 Y90.117 E.02471
G1 X234.473 Y109.44 E1.04196
G1 X234.473 Y110.089 E.02475
G1 X214.502 Y90.117 E1.07696
G1 X213.854 Y90.117 E.02471
G1 X234.473 Y110.737 E1.1119
G1 X234.473 Y111.386 E.02475
G1 X213.205 Y90.117 E1.1469
G1 X212.557 Y90.117 E.02471
G1 X234.473 Y112.034 E1.18184
G1 X234.473 Y112.683 E.02475
G1 X211.908 Y90.117 E1.21684
G1 X211.26 Y90.117 E.02471
G1 X234.473 Y113.331 E1.25178
G1 X234.473 Y113.98 E.02475
G1 X210.611 Y90.117 E1.28678
G1 X209.962 Y90.117 E.02475
G1 X234.473 Y114.628 E1.32175
G1 X234.473 Y115.277 E.02475
G1 X209.314 Y90.117 E1.35672
G1 X208.665 Y90.117 E.02475
G1 X234.473 Y115.925 E1.39169
G1 X234.473 Y116.574 E.02475
G1 X208.017 Y90.117 E1.42666
G1 X207.368 Y90.117 E.02475
G1 X234.473 Y117.223 E1.46166
G1 X234.473 Y117.871 E.02471
G1 X206.72 Y90.117 E1.4966
G1 X206.071 Y90.117 E.02475
G1 X234.473 Y118.52 E1.5316
