; generated by PrusaSlicer 2.6.1+win64 on 2023-10-12 at 07:22:18 UTC


;
;

;
;

;
;
; 

; external perimeters extrusion width = 0.45mm
; perimeters extrusion width = 0.45mm
; infill extrusion width = 0.45mm
; solid infill extrusion width = 0.45mm
; top infill extrusion width = 0.40mm
; first layer extrusion width = 0.42mm

; external perimeters extrusion width = 0.45mm
; perimeters extrusion width = 0.45mm
; infill extrusion width = 0.45mm
; solid infill extrusion width = 0.45mm
; top infill extrusion width = 0.40mm
; first layer extrusion width = 0.42mm

; external perimeters extrusion width = 0.45mm
; perimeters extrusion width = 0.45mm
; infill extrusion width = 0.45mm
; solid infill extrusion width = 0.45mm
; top infill extrusion width = 0.40mm
; first layer extrusion width = 0.42mm

M73 P0 R149
M201 X2500 Y2500 Z400 E5000 ; sets maximum accelerations, mm/sec^2
M203 X180 Y180 Z12 E80 ; sets maximum feedrates, mm / sec
M204 P2000 R1250 T2500 ; sets acceleration (P, T) and retract acceleration (R), mm/sec^2
M205 X8.00 Y8.00 Z2.00 E10.00 ; sets the jerk limits, mm/sec
M205 S0 T0 ; sets the minimum extruding and travel feed rate, mm/sec
;TYPE:Custom
M862.3 P "MINI" ; printer model check
G90 ; use absolute coordinates
M83 ; extruder relative mode
M104 S170 ; set extruder temp for bed leveling
M140 S100 ; set bed temp
M109 R170 ; wait for bed leveling temp
M190 S100 ; wait for bed temp
M204 T1250 ; set travel acceleration
G28 ; home all without mesh bed level
G29 ; mesh bed leveling 
M204 T2500 ; restore travel acceleration
M104 S255 ; set extruder temp
G92 E0
G1 Y-2 X179 F2400
G1 Z3 F720
M109 S255 ; wait for extruder temp

; intro line
G1 X170 F1000
G1 Z0.2 F720
G1 X110 E8 F900
G1 X40 E10 F700
G92 E0

M221 S95 ; set flow
G21 ; set units to millimeters
G90 ; use absolute coordinates
M83 ; use relative distances for extrusion
M900 K0.2 ; Filament gcode

M107
;LAYER_CHANGE
;Z:0.2
;HEIGHT:0.2
;BEFORE_LAYER_CHANGE
G92 E0.0
;0.2


G1 E-2.7 F4200
G1 Z.2 F720
;AFTER_LAYER_CHANGE
;0.2
G1 Z.4
G1 X5.536 Y5.536 F9000
G1 Z.2 F720
G1 E2.7 F2400
M204 P600
;TYPE:Skirt/Brim
;WIDTH:0.42
G1 F1200
G1 X9.747 Y1.325 E.18672
G1 X11.428 Y.629 E.05705
G1 X73.428 Y.629 E1.94397
G1 X74.64 Y.96 E.03939
G1 X175.213 Y60.522 E3.66491
G1 X176.139 Y61.525 E.0428
G1 X176.379 Y62.567 E.03353
G1 X176.379 Y172.567 E3.44897
G1 X175.988 Y173.874 E.04277
G1 X174.942 Y174.751 E.0428
G1 X174.079 Y174.943 E.02772
G1 X62.667 Y178.55 E3.49508
G1 X22.667 Y178.55 E1.25417
G1 X21.36 Y178.159 E.04277
G1 X20.541 Y177.236 E.03869
G1 X17.541 Y171.236 E.21033
G1 X17.305 Y170.438 E.02609
G1 X3.066 Y43.27 E4.01218
G1 X3.051 Y9.006 E1.07432
G1 X3.747 Y7.325 E.05705
G1 X5.494 Y5.579 E.07744
M204 P1000
; printing object side4.stl id:1 copy 0
G1 E-2.7 F4200
G1 Z.4 F720
G1 X51.194 Y25.682 F9000
G1 Z.2 F720
G1 E2.7 F2400
M204 P600
;TYPE:Perimeter
;WIDTH:0.419999
G1 F1200
G1 X51.12 Y25.47 E.00704
G1 X50.913 Y25.284 E.00873
G1 X50.65 Y25.219 E.00849
G1 X30.207 Y25.219 E.64097
G1 X30.116 Y25.226 E.00286
G1 X29.876 Y25.326 E.00815
G1 X29.701 Y25.532 E.00847
G1 X29.641 Y25.784 E.00812
G1 X29.641 Y45.219 E.60937
G1 X14.134 Y45.223 E.48621
G1 X13.917 Y45.299 E.00721
G1 X13.713 Y45.509 E.00918
G1 X13.641 Y45.784 E.00891
G1 X13.641 Y48.219 E.07635
G1 X12.215 Y48.219 E.04471
G1 X12.215 Y45.784 E.07635
G1 X12.144 Y45.509 E.00891
G1 X12.027 Y45.363 E.00587
G1 X11.881 Y45.268 E.00546
G1 X11.65 Y45.219 E.0074
G1 X9.215 Y45.219 E.07635
G1 X9.207 Y42.686 E.07942
G1 X9.135 Y42.494 E.00643
G1 X8.925 Y42.29 E.00918
G1 X8.65 Y42.219 E.00891
G1 X6.215 Y42.219 E.07635
G1 X6.215 Y40.793 E.04471
G1 X8.65 Y40.793 E.07635
G1 X8.925 Y40.721 E.00891
G1 X9.071 Y40.605 E.00585
G1 X9.166 Y40.459 E.00546
G1 X9.215 Y40.227 E.00743
G1 X9.215 Y27.284 E.40582
G1 X9.144 Y27.01 E.00887
G1 X8.941 Y26.799 E.00918
G1 X8.65 Y26.719 E.00946
G1 X6.215 Y26.719 E.07635
G1 X6.215 Y25.293 E.04471
G1 X8.65 Y25.293 E.07635
G1 X8.941 Y25.212 E.00947
G1 X9.144 Y25.002 E.00916
G1 X9.215 Y24.727 E.00891
G1 X9.211 Y11.711 E.40811
G1 X9.135 Y11.494 E.00721
G1 X8.925 Y11.29 E.00918
G1 X8.65 Y11.219 E.00891
G1 X6.215 Y11.219 E.07635
G1 X6.215 Y9.793 E.04471
G1 X8.65 Y9.793 E.07635
G1 X8.925 Y9.721 E.00891
G1 X9.071 Y9.605 E.00585
G1 X9.166 Y9.459 E.00546
G1 X9.215 Y9.227 E.00743
G1 X9.215 Y6.793 E.07632
G1 X11.748 Y6.784 E.07942
G1 X11.94 Y6.713 E.00642
G1 X12.144 Y6.503 E.00918
G1 X12.215 Y6.227 E.00894
G1 X12.215 Y3.793 E.07632
G1 X13.641 Y3.793 E.04471
G1 X13.641 Y6.227 E.07632
G1 X13.713 Y6.503 E.00894
G1 X13.829 Y6.648 E.00582
G1 X13.975 Y6.743 E.00546
G1 X14.207 Y6.793 E.00744
G1 X41.15 Y6.793 E.84478
G1 X41.413 Y6.728 E.00849
G1 X41.627 Y6.53 E.00914
G1 X41.715 Y6.227 E.00989
G1 X41.715 Y3.793 E.07632
G1 X43.141 Y3.793 E.04471
G1 X43.141 Y6.227 E.07632
G1 X43.229 Y6.53 E.00989
G1 X43.444 Y6.728 E.00916
G1 X43.707 Y6.793 E.00849
G1 X70.65 Y6.793 E.84478
G1 X70.723 Y6.788 E.00229
M73 P0 R148
G1 X70.94 Y6.713 E.0072
G1 X71.144 Y6.503 E.00918
G1 X71.215 Y6.227 E.00894
G1 X71.215 Y3.793 E.07632
G1 X72.641 Y3.793 E.04471
G1 X72.641 Y6.227 E.07632
G1 X72.713 Y6.503 E.00894
G1 X72.829 Y6.648 E.00582
G1 X72.975 Y6.743 E.00546
G1 X73.207 Y6.793 E.00744
G1 X75.641 Y6.793 E.07632
G1 X75.65 Y9.325 E.07939
G1 X75.721 Y9.517 E.00642
G1 X75.931 Y9.721 E.00918
G1 X76.207 Y9.793 E.00894
G1 X78.641 Y9.793 E.07632
G1 X78.641 Y11.219 E.04471
G1 X76.207 Y11.219 E.07632
G1 X75.931 Y11.29 E.00894
G1 X75.786 Y11.407 E.00584
G1 X75.691 Y11.553 E.00546
G1 X75.641 Y11.784 E.00741
G1 X75.641 Y24.727 E.40582
G1 X75.708 Y24.994 E.00863
G1 X75.908 Y25.207 E.00916
G1 X76.207 Y25.293 E.00976
G1 X78.641 Y25.293 E.07632
G1 X78.641 Y26.719 E.04471
G1 X76.207 Y26.719 E.07632
G1 X75.908 Y26.804 E.00975
G1 X75.708 Y27.018 E.00918
G1 X75.641 Y27.284 E.0086
G1 X75.646 Y40.3 E.40811
G1 X75.721 Y40.517 E.0072
G1 X75.931 Y40.721 E.00918
G1 X76.207 Y40.793 E.00894
G1 X78.641 Y40.793 E.07632
G1 X78.641 Y42.219 E.04471
G1 X76.207 Y42.219 E.07632
G1 X75.931 Y42.29 E.00894
G1 X75.786 Y42.407 E.00584
G1 X75.691 Y42.553 E.00546
G1 X75.641 Y42.784 E.00741
G1 X75.641 Y45.219 E.07635
G1 X73.109 Y45.227 E.07939
G1 X72.917 Y45.299 E.00643
G1 X72.713 Y45.509 E.00918
G1 X72.641 Y45.784 E.00891
G1 X72.641 Y48.219 E.07635
G1 X71.215 Y48.219 E.04471
G1 X71.215 Y45.784 E.07635
G1 X71.144 Y45.509 E.00891
G1 X71.027 Y45.363 E.00587
G1 X70.881 Y45.268 E.00546
G1 X70.65 Y45.219 E.0074
G1 X51.215 Y45.219 E.60937
G1 X51.213 Y25.738 E.61081
M204 P1000
G1 X50.838 Y25.784 F9000
M204 P600
;TYPE:External perimeter
G1 F1200
G1 X50.791 Y25.66 E.00416
G1 X50.65 Y25.596 E.00486
G1 X30.207 Y25.596 E.64097
G1 X30.086 Y25.64 E.00404
G1 X30.018 Y25.784 E.00499
G1 X30.018 Y45.596 E.62119
G1 X14.207 Y45.596 E.49574
G1 X14.081 Y45.644 E.00423
G1 X14.018 Y45.784 E.00481
G1 X14.018 Y48.596 E.08817
G1 X11.838 Y48.596 E.06835
G1 X11.838 Y45.784 E.08817
G1 X11.776 Y45.644 E.0048
G1 X11.65 Y45.596 E.00423
G1 X8.838 Y45.596 E.08817
G1 X8.838 Y42.784 E.08817
G1 X8.79 Y42.658 E.00423
G1 X8.65 Y42.596 E.0048
G1 X5.838 Y42.596 E.08817
G1 X5.838 Y40.416 E.06835
G1 X8.65 Y40.416 E.08817
G1 X8.79 Y40.353 E.00481
G1 X8.838 Y40.227 E.00423
G1 X8.838 Y27.284 E.40582
G1 X8.795 Y27.164 E.004
G1 X8.65 Y27.096 E.00502
G1 X5.838 Y27.096 E.08817
G1 X5.838 Y24.916 E.06835
G1 X8.65 Y24.916 E.08817
G1 X8.795 Y24.848 E.00502
G1 X8.838 Y24.727 E.00403
G1 X8.838 Y11.784 E.40582
G1 X8.79 Y11.658 E.00423
G1 X8.65 Y11.596 E.0048
G1 X5.838 Y11.596 E.08817
G1 X5.838 Y9.416 E.06835
G1 X8.65 Y9.416 E.08817
G1 X8.79 Y9.353 E.00481
G1 X8.838 Y9.227 E.00423
G1 X8.838 Y6.416 E.08814
G1 X11.65 Y6.416 E.08817
G1 X11.776 Y6.368 E.00423
G1 X11.838 Y6.227 E.00483
G1 X11.838 Y3.416 E.08814
G1 X14.018 Y3.416 E.06835
G1 X14.018 Y6.227 E.08814
G1 X14.081 Y6.368 E.00484
G1 X14.207 Y6.416 E.00423
G1 X41.15 Y6.416 E.84478
G1 X41.266 Y6.375 E.00386
G1 X41.338 Y6.227 E.00516
G1 X41.338 Y3.416 E.08814
G1 X43.518 Y3.416 E.06835
G1 X43.518 Y6.227 E.08814
G1 X43.59 Y6.375 E.00516
G1 X43.707 Y6.416 E.00389
G1 X70.65 Y6.416 E.84478
G1 X70.776 Y6.368 E.00423
G1 X70.838 Y6.227 E.00483
G1 X70.838 Y3.416 E.08814
G1 X73.018 Y3.416 E.06835
G1 X73.018 Y6.227 E.08814
G1 X73.081 Y6.368 E.00484
G1 X73.207 Y6.416 E.00423
G1 X76.018 Y6.416 E.08814
G1 X76.018 Y9.227 E.08814
G1 X76.066 Y9.353 E.00423
G1 X76.207 Y9.416 E.00484
G1 X79.018 Y9.416 E.08814
G1 X79.018 Y11.596 E.06835
G1 X76.207 Y11.596 E.08814
G1 X76.066 Y11.658 E.00483
G1 X76.018 Y11.784 E.00423
G1 X76.018 Y24.727 E.40582
G1 X76.06 Y24.845 E.00393
G1 X76.207 Y24.916 E.00512
G1 X79.018 Y24.916 E.08814
G1 X79.018 Y27.096 E.06835
G1 X76.207 Y27.096 E.08814
G1 X76.06 Y27.166 E.0051
G1 X76.018 Y27.284 E.00393
G1 X76.018 Y40.227 E.40582
G1 X76.066 Y40.353 E.00423
G1 X76.207 Y40.416 E.00484
G1 X79.018 Y40.416 E.08814
G1 X79.018 Y42.596 E.06835
G1 X76.207 Y42.596 E.08814
G1 X76.066 Y42.658 E.00483
G1 X76.018 Y42.784 E.00423
G1 X76.018 Y45.596 E.08817
G1 X73.207 Y45.596 E.08814
G1 X73.081 Y45.644 E.00423
G1 X73.018 Y45.784 E.00481
G1 X73.018 Y48.596 E.08817
G1 X70.838 Y48.596 E.06835
G1 X70.838 Y45.784 E.08817
G1 X70.776 Y45.644 E.0048
G1 X70.65 Y45.596 E.00423
G1 X50.838 Y45.596 E.62119
G1 X50.838 Y25.844 E.61931
M204 P1000
G1 X50.907 Y25.671 F9000
G1 E-2.7 F4200
G1 Z.4 F720
G1 X78.471 Y41.734 F9000
G1 Z.2 F720
G1 E2.7 F2400
M204 P600
;TYPE:Solid infill
;WIDTH:0.420944
G1 F1200
G1 X77.869 Y41.132 E.02676
G1 X77.334 Y41.131 E.01682
G1 X78.083 Y41.88 E.0333
G1 X77.549 Y41.88 E.01679
G1 X76.629 Y40.96 E.0409
M204 P1000
G1 E-2.7 F4200
G1 Z.4 F720
G1 X78.471 Y26.23 F9000
G1 Z.2 F720
G1 E2.7 F2400
M204 P600
G1 F1200
G1 X77.873 Y25.632 E.02658
G1 X77.337 Y25.631 E.01685
G1 X78.086 Y26.38 E.0333
G1 X77.552 Y26.38 E.01679
G1 X76.632 Y25.46 E.0409
M204 P1000
G1 E-2.7 F4200
G1 Z.4 F720
G1 X71.707 Y3.963 F9000
G1 Z.2 F720
G1 E2.7 F2400
M204 P600
G1 F1200
G1 X72.303 Y4.558 E.02647
G1 X72.303 Y5.093 E.01682
G1 X71.554 Y4.344 E.0333
G1 X71.554 Y4.878 E.01679
G1 X72.474 Y5.798 E.0409
M204 P1000
G1 X74.707 Y6.963 F9000
M204 P600
G1 F1200
G1 X75.305 Y7.56 E.02656
G1 X75.307 Y8.097 E.01688
G1 X74.342 Y7.132 E.0429
G1 X73.808 Y7.132 E.01679
G1 X75.48 Y8.805 E.07435
M204 P1000
G1 X77.707 Y9.963 F9000
M204 P600
G1 F1200
G1 X78.302 Y10.557 E.02643
G1 X78.302 Y10.88 E.01015
G1 X78.09 Y10.88 E.00666
G1 X77.342 Y10.132 E.03325
G1 X76.808 Y10.132 E.01679
G1 X77.556 Y10.88 E.03325
G1 X77.022 Y10.881 E.01679
G1 X76.273 Y10.132 E.0333
G1 X76.115 Y10.128 E.00497
G1 X75.768 Y10.022 E.0114
G1 X75.536 Y9.836 E.00935
G1 X75.425 Y9.687 E.00584
G1 X75.313 Y9.385 E.01012
G1 X75.312 Y9.171 E.00673
G1 X73.273 Y7.132 E.09064
G1 X72.906 Y7.082 E.01164
G1 X72.742 Y7.005 E.00569
G1 X72.598 Y6.898 E.00564
G1 X72.412 Y6.666 E.00935
G1 X72.305 Y6.316 E.0115
G1 X72.305 Y6.164 E.00478
G1 X71.553 Y5.412 E.03343
G1 X71.552 Y5.946 E.01679
G1 X76.488 Y10.882 E.21942
G1 X76.118 Y10.882 E.01163
G1 X75.993 Y10.921 E.00412
G1 X71.513 Y6.442 E.19913
G1 X71.444 Y6.666 E.00737
G1 X71.337 Y6.8 E.00539
G1 X75.634 Y11.097 E.19101
G1 X75.536 Y11.175 E.00394
G1 X75.395 Y11.393 E.00816
G1 X71.042 Y7.039 E.19352
G1 X70.95 Y7.082 E.00319
G1 X70.6 Y7.132 E.01111
G1 X75.302 Y11.834 E.20902
G1 X75.302 Y12.369 E.01682
G1 X70.065 Y7.132 E.2328
G1 X69.531 Y7.132 E.01679
G1 X75.302 Y12.903 E.25654
G1 X75.302 Y13.438 E.01682
G1 X68.996 Y7.132 E.28032
G1 X68.461 Y7.132 E.01682
G1 X75.302 Y13.972 E.30408
G1 X75.302 Y14.507 E.01682
G1 X67.926 Y7.132 E.32786
G1 X67.392 Y7.131 E.01679
G1 X75.302 Y15.042 E.35164
G1 X75.302 Y15.576 E.01679
G1 X66.857 Y7.131 E.3754
G1 X66.322 Y7.131 E.01682
G1 X75.302 Y16.111 E.39919
G1 X75.302 Y16.645 E.01679
G1 X65.787 Y7.131 E.42295
G1 X65.253 Y7.131 E.01679
M73 P1 R148
G1 X75.302 Y17.18 E.44671
G1 X75.302 Y17.715 E.01682
G1 X64.718 Y7.131 E.47049
G1 X64.183 Y7.131 E.01682
G1 X75.302 Y18.249 E.49425
G1 X75.302 Y18.784 E.01682
G1 X63.649 Y7.131 E.51801
G1 X63.114 Y7.13 E.01682
G1 X75.302 Y19.318 E.54179
G1 X75.302 Y19.853 E.01682
G1 X62.579 Y7.13 E.56557
G1 X62.044 Y7.13 E.01682
G1 X75.302 Y20.388 E.58935
G1 X75.302 Y20.922 E.01679
G1 X61.51 Y7.13 E.61309
G1 X60.975 Y7.13 E.01682
G1 X75.302 Y21.457 E.63687
G1 X75.302 Y21.992 E.01682
G1 X60.44 Y7.13 E.66066
G1 X59.905 Y7.13 E.01682
G1 X75.302 Y22.526 E.68442
G1 X75.302 Y23.061 E.01682
G1 X59.371 Y7.13 E.70818
G1 X58.836 Y7.129 E.01682
G1 X75.302 Y23.595 E.73196
G1 X75.302 Y24.13 E.01682
G1 X58.301 Y7.129 E.75574
G1 X57.766 Y7.129 E.01682
G1 X75.302 Y24.665 E.77952
G1 X75.324 Y24.931 E.00839
G1 X75.407 Y25.152 E.00742
G1 X75.504 Y25.299 E.00554
G1 X75.731 Y25.501 E.00955
G1 X76.116 Y25.629 E.01275
G1 X76.267 Y25.63 E.00475
G1 X77.018 Y26.381 E.03338
G1 X76.484 Y26.382 E.01679
G1 X57.232 Y7.129 E.85583
G1 X56.697 Y7.129 E.01682
G1 X75.992 Y26.424 E.85772
G1 X75.731 Y26.511 E.00865
G1 X75.632 Y26.599 E.00416
G1 X56.162 Y7.129 E.86549
G1 X55.628 Y7.129 E.01679
G1 X75.394 Y26.895 E.87865
G1 X75.319 Y27.103 E.00695
G1 X75.302 Y27.338 E.00741
G1 X55.093 Y7.129 E.89835
G1 X54.558 Y7.128 E.01682
G1 X75.302 Y27.872 E.92213
G1 X75.302 Y28.407 E.01682
G1 X54.023 Y7.128 E.94591
G1 X53.489 Y7.128 E.01679
G1 X75.303 Y28.942 E.96969
G1 X75.303 Y29.477 E.01682
M73 P1 R147
G1 X52.954 Y7.128 E.99347
G1 X52.419 Y7.128 E.01682
G1 X75.303 Y30.012 E1.01726
G1 X75.303 Y30.547 E.01682
G1 X51.884 Y7.128 E1.04104
G1 X51.35 Y7.128 E.01679
G1 X75.304 Y31.082 E1.06482
G1 X75.304 Y31.617 E.01682
G1 X50.815 Y7.128 E1.0886
G1 X50.28 Y7.127 E.01682
G1 X75.304 Y32.151 E1.11239
G1 X75.304 Y32.686 E.01682
G1 X49.745 Y7.127 E1.13617
G1 X49.211 Y7.127 E.01679
G1 X75.305 Y33.221 E1.15995
G1 X75.305 Y33.756 E.01682
G1 X48.676 Y7.127 E1.18373
G1 X48.141 Y7.127 E.01682
G1 X75.305 Y34.291 E1.20751
G1 X75.305 Y34.826 E.01682
G1 X47.606 Y7.127 E1.2313
G1 X47.072 Y7.127 E.01679
G1 X75.306 Y35.361 E1.25508
G1 X75.306 Y35.895 E.01679
G1 X46.537 Y7.127 E1.27884
G1 X46.002 Y7.126 E.01682
G1 X75.306 Y36.43 E1.30264
G1 X75.306 Y36.965 E.01682
G1 X45.468 Y7.126 E1.3264
G1 X44.933 Y7.126 E.01682
G1 X75.307 Y37.5 E1.35021
G1 X75.307 Y38.035 E.01682
G1 X44.228 Y6.956 E1.38155
M204 P1000
G1 X42.972 Y4.631 F9000
M204 P600
G1 F1200
G1 X42.474 Y4.132 E.02216
G1 X42.055 Y4.132 E.01317
G1 X42.054 Y4.248 E.00365
G1 X42.803 Y4.996 E.03327
G1 X42.804 Y5.532 E.01685
G1 X42.054 Y4.782 E.03334
G1 X42.053 Y5.316 E.01679
G1 X42.804 Y6.067 E.03338
G1 X42.805 Y6.318 E.00789
G1 X42.937 Y6.709 E.01297
G1 X43.144 Y6.938 E.0097
G1 X43.373 Y7.07 E.00831
G1 X43.589 Y7.126 E.00701
G1 X43.863 Y7.126 E.00861
G1 X75.307 Y38.57 E1.39777
G1 X75.308 Y39.105 E.01682
G1 X42.052 Y5.85 E1.4783
G1 X42.052 Y6.318 E.01471
G1 X42.035 Y6.367 E.00163
G1 X75.478 Y39.809 E1.48661
M204 P1000
G1 X77.184 Y42.051 F9000
M204 P600
G1 F1200
G1 X76.263 Y41.13 E.04094
G1 X76.118 Y41.129 E.00456
G1 X75.768 Y41.022 E.0115
G1 X75.532 Y40.833 E.0095
G1 X75.38 Y40.599 E.00877
G1 X75.308 Y40.345 E.0083
G1 X75.308 Y40.174 E.00538
G1 X41.883 Y6.749 E1.48583
G1 X41.712 Y6.938 E.00801
G1 X41.601 Y7.002 E.00403
G1 X76.481 Y41.882 E1.55051
G1 X76.118 Y41.882 E.01141
G1 X75.987 Y41.923 E.00431
G1 X41.195 Y7.131 E1.5466
G1 X40.661 Y7.131 E.01679
G1 X75.63 Y42.1 E1.55447
G1 X75.536 Y42.175 E.00378
G1 X75.393 Y42.397 E.0083
G1 X40.126 Y7.131 E1.56769
G1 X39.591 Y7.131 E.01682
G1 X75.302 Y42.841 E1.58743
G1 X75.302 Y43.376 E.01682
G1 X39.057 Y7.131 E1.61119
G1 X38.522 Y7.131 E.01682
G1 X75.302 Y43.91 E1.63495
G1 X75.302 Y44.445 E.01682
M73 P1 R146
G1 X37.988 Y7.131 E1.65871
G1 X37.453 Y7.131 E.01682
M73 P2 R146
G1 X75.203 Y44.881 E1.67809
G1 X74.671 Y44.883 E.01672
G1 X36.918 Y7.131 E1.6782
G1 X36.384 Y7.131 E.01679
G1 X74.139 Y44.886 E1.67831
G1 X73.607 Y44.888 E.01672
G1 X35.849 Y7.131 E1.67842
G1 X35.315 Y7.131 E.01679
G1 X73.074 Y44.891 E1.67851
G1 X72.747 Y45.003 E.01086
G1 X72.693 Y45.043 E.00211
G1 X34.78 Y7.131 E1.68531
G1 X34.246 Y7.131 E.01679
G1 X72.433 Y45.319 E1.69754
G1 X72.41 Y45.348 E.00116
G1 X72.311 Y45.731 E.01243
G1 X33.711 Y7.131 E1.71588
G1 X33.176 Y7.131 E.01682
G1 X72.302 Y46.256 E1.73924
G1 X72.302 Y46.791 E.01682
G1 X71.555 Y46.044 E.03321
G1 X71.555 Y46.579 E.01682
G1 X72.302 Y47.326 E.03321
G1 X72.302 Y47.86 E.01679
G1 X71.555 Y47.113 E.03321
G1 X71.555 Y47.648 E.01682
