; generated by PrusaSlicer 2.6.1+win64 on 2023-10-16 at 21:25:38 UTC


;
;

;
;

;
;
; 

; external perimeters extrusion width = 0.45mm
; perimeters extrusion width = 0.45mm
; infill extrusion width = 0.45mm
; solid infill extrusion width = 0.45mm
; top infill extrusion width = 0.40mm
; first layer extrusion width = 0.42mm

M73 P0 R32
M201 X2500 Y2500 Z400 E5000 ; sets maximum accelerations, mm/sec^2
M203 X180 Y180 Z12 E80 ; sets maximum feedrates, mm / sec
M204 P2000 R1250 T2500 ; sets acceleration (P, T) and retract acceleration (R), mm/sec^2
M205 X8.00 Y8.00 Z2.00 E10.00 ; sets the jerk limits, mm/sec
M205 S0 T0 ; sets the minimum extruding and travel feed rate, mm/sec
;TYPE:Custom
M862.3 P "MINI" ; printer model check
G90 ; use absolute coordinates
M83 ; extruder relative mode
M104 S170 ; set extruder temp for bed leveling
M140 S60 ; set bed temp
M109 R170 ; wait for bed leveling temp
M190 S60 ; wait for bed temp
M204 T1250 ; set travel acceleration
G28 ; home all without mesh bed level
G29 ; mesh bed leveling 
M204 T2500 ; restore travel acceleration
M104 S215 ; set extruder temp
G92 E0
G1 Y-2 X179 F2400
G1 Z3 F720
M109 S215 ; wait for extruder temp

; intro line
G1 X170 F1000
G1 Z0.2 F720
G1 X110 E8 F900
G1 X40 E10 F700
G92 E0

M221 S95 ; set flow
G21 ; set units to millimeters
G90 ; use absolute coordinates
M83 ; use relative distances for extrusion
M900 K0.2 ; Filament gcode LA 1.5
; ; Filament gcode LA 1.0

M107
;LAYER_CHANGE
;Z:0.2
;HEIGHT:0.2
;BEFORE_LAYER_CHANGE
G92 E0.0
;0.2


M73 P0 R31
G1 E-3.2 F4200
G1 Z.2 F720
;AFTER_LAYER_CHANGE
;0.2
G1 Z.4
G1 X56.444 Y59.15 F9000
G1 Z.2 F720
G1 E3.2 F2400
M204 P600
;TYPE:Skirt/Brim
;WIDTH:0.42
G1 F1200
G1 X57.664 Y58.179 E.04889
G1 X58.995 Y57.366 E.0489
G1 X60.417 Y56.726 E.04889
G1 X61.907 Y56.267 E.04888
G1 X63.443 Y55.997 E.0489
G1 X64.768 Y55.919 E.04162
G1 X115.306 Y55.92 E1.58458
G1 X116.872 Y56.036 E.04924
G1 X118.401 Y56.345 E.04891
M73 P1 R31
G1 X119.879 Y56.842 E.04889
G1 X121.284 Y57.518 E.04889
G1 X122.595 Y58.364 E.04892
G1 X123.79 Y59.366 E.0489
G1 X124.851 Y60.508 E.04888
G1 X125.723 Y61.706 E.04646
G1 X126.132 Y62.445 E.02648
G1 X126.767 Y63.999 E.05264
G1 X127.142 Y65.36 E.04426
G1 X127.383 Y67.05 E.05352
G1 X127.411 Y68.461 E.04425
G1 X127.255 Y70.013 E.04891
G1 X126.907 Y71.533 E.04889
G1 X126.373 Y72.998 E.04889
G1 X125.778 Y74.185 E.04163
G1 X100.546 Y117.888 E1.58226
G1 X99.531 Y119.365 E.05619
G1 X98.814 Y120.192 E.03432
G1 X97.784 Y121.157 E.04425
G1 X96.53 Y122.083 E.04888
G1 X94.747 Y123.042 E.06348
G1 X93.139 Y123.615 E.05352
G1 X91.615 Y123.945 E.04889
G1 X90.288 Y124.08 E.04182
G1 X89.444 Y124.065 E.02647
G1 X88.238 Y123.923 E.03807
G1 X86.861 Y123.615 E.04424
G1 X85.253 Y123.042 E.05352
G1 X83.594 Y122.164 E.05885
G1 X82.216 Y121.157 E.05351
G1 X81.408 Y120.419 E.03431
G1 X80.469 Y119.365 E.04426
G1 X79.576 Y118.086 E.04891
G1 X54.111 Y73.981 E1.59683
G1 X53.503 Y72.706 E.04429
G1 X53.007 Y71.227 E.04891
G1 X52.698 Y69.699 E.04888
G1 X52.581 Y68.144 E.04889
G1 X52.627 Y66.902 E.03897
G1 X52.858 Y65.36 E.04889
G1 X53.279 Y63.859 E.04888
G1 X53.868 Y62.445 E.04803
G1 X54.424 Y61.482 E.03487
G1 X55.354 Y60.265 E.04802
G1 X56.402 Y59.193 E.04701
M204 P1000
G1 E-2.24 F4200
;WIPE_START
G1 F7200
G1 X57.664 Y58.179 E-.89714
G1 X57.761 Y58.12 E-.06286
;WIPE_END
G1 Z.4 F720
G1 X58.129 Y61.232 F9000
G1 Z.2 F720
G1 E3.2 F2400
M204 P600
G1 F1200
G1 X58.96 Y60.529 E.03413
G1 X59.989 Y59.859 E.0385
G1 X61.094 Y59.323 E.03851
G1 X62.256 Y58.928 E.03848
G1 X63.458 Y58.681 E.03848
G1 X64.611 Y58.588 E.03627
G1 X115.402 Y58.588 E1.59252
G1 X116.577 Y58.686 E.03697
G1 X117.778 Y58.937 E.03847
G1 X118.939 Y59.336 E.03849
G1 X120.041 Y59.877 E.03849
G1 X121.068 Y60.55 E.0385
G1 X122.005 Y61.347 E.03857
G1 X122.845 Y62.266 E.03904
G1 X123.551 Y63.272 E.03853
G1 X124.086 Y64.414 E.03954
G1 X124.461 Y65.595 E.03885
G1 X124.684 Y66.803 E.03852
G1 X124.755 Y68.029 E.0385
G1 X124.673 Y69.254 E.03849
G1 X124.44 Y70.459 E.03848
G1 X124.058 Y71.626 E.0385
G1 X123.559 Y72.688 E.03679
G1 X98.244 Y116.547 E1.5878
G1 X97.627 Y117.475 E.03494
G1 X96.75 Y118.492 E.04211
G1 X95.744 Y119.382 E.04211
G1 X94.873 Y119.979 E.03311
G1 X93.953 Y120.477 E.0328
G1 X92.454 Y121.042 E.05023
G1 X91.186 Y121.315 E.04067
G1 X89.673 Y121.411 E.04753
G1 X88.582 Y121.279 E.03446
G1 X87.524 Y121.036 E.03404
G1 X86.047 Y120.477 E.04952
G1 X85.127 Y119.979 E.0328
G1 X84.261 Y119.385 E.03293
G1 X83.347 Y118.59 E.03798
G1 X82.494 Y117.633 E.0402
G1 X81.761 Y116.556 E.04085
G1 X56.486 Y72.773 E1.58511
G1 X55.973 Y71.705 E.03715
G1 X55.589 Y70.569 E.0376
G1 X55.347 Y69.398 E.03749
G1 X55.247 Y68.205 E.03754
G1 X55.291 Y67.031 E.03684
G1 X55.479 Y65.848 E.03756
G1 X55.809 Y64.698 E.03751
G1 X56.275 Y63.585 E.03783
G1 X57.154 Y62.268 E.04965
G1 X58.001 Y61.341 E.03937
G1 X58.084 Y61.271 E.0034
M204 P1000
M73 P2 R31
G1 X58.328 Y61.558 F9000
M204 P600
G1 F1200
G1 X59.176 Y60.838 E.03488
G1 X60.165 Y60.193 E.03702
G1 X61.227 Y59.676 E.03703
G1 X62.344 Y59.295 E.037
G1 X63.5 Y59.056 E.03701
G1 X64.619 Y58.965 E.0352
G1 X115.394 Y58.966 E1.59201
G1 X116.512 Y59.057 E.03517
G1 X117.667 Y59.298 E.03699
G1 X118.784 Y59.68 E.03701
G1 X119.845 Y60.199 E.03703
G1 X120.833 Y60.845 E.03701
G1 X121.735 Y61.61 E.03708
G1 X122.543 Y62.493 E.03753
G1 X123.233 Y63.475 E.03763
G1 X123.739 Y64.562 E.03759
G1 X124.098 Y65.697 E.03732
G1 X124.311 Y66.859 E.03704
G1 X124.378 Y68.038 E.03703
G1 X124.298 Y69.217 E.03705
G1 X124.072 Y70.376 E.03702
G1 X123.704 Y71.497 E.03699
G1 X123.221 Y72.519 E.03544
G1 X97.921 Y116.354 E1.58691
G1 X97.333 Y117.238 E.03329
G1 X96.49 Y118.219 E.04056
G1 X95.521 Y119.078 E.0406
G1 X94.685 Y119.652 E.0318
G1 X93.784 Y120.139 E.03211
G1 X92.361 Y120.676 E.04769
G1 X91.147 Y120.939 E.03895
G1 X89.7 Y121.034 E.04547
G1 X88.657 Y120.909 E.03294
G1 X87.621 Y120.671 E.03333
G1 X86.215 Y120.139 E.04713
G1 X85.315 Y119.652 E.03209
G1 X84.483 Y119.08 E.03166
G1 X83.604 Y118.314 E.03656
G1 X82.784 Y117.392 E.03869
G1 X82.084 Y116.361 E.03907
G1 X56.823 Y72.603 E1.58421
G1 X56.326 Y71.572 E.03589
G1 X55.956 Y70.481 E.03612
G1 X55.721 Y69.354 E.0361
G1 X55.624 Y68.207 E.03609
G1 X55.667 Y67.057 E.03608
G1 X55.85 Y65.919 E.03614
G1 X56.168 Y64.813 E.03608
G1 X56.616 Y63.748 E.03623
G1 X57.443 Y62.512 E.04663
G1 X58.282 Y61.597 E.03892
M204 P1000
G1 X58.525 Y61.884 F9000
M204 P600
G1 F1200
G1 X59.392 Y61.147 E.03568
G1 X60.341 Y60.527 E.03554
G1 X61.36 Y60.029 E.03556
G1 X62.433 Y59.662 E.03556
G1 X63.543 Y59.43 E.03556
G1 X64.627 Y59.342 E.0341
G1 X115.371 Y59.342 E1.59104
G1 X116.447 Y59.429 E.03385
G1 X117.557 Y59.659 E.03554
G1 X118.63 Y60.025 E.03555
G1 X119.649 Y60.521 E.03553
G1 X120.599 Y61.141 E.03557
G1 X121.465 Y61.874 E.03557
G1 X122.241 Y62.719 E.03597
G1 X122.914 Y63.678 E.03673
G1 X123.391 Y64.709 E.03562
G1 X123.735 Y65.799 E.03584
G1 X123.938 Y66.915 E.03557
G1 X124.001 Y68.047 E.03555
G1 X123.923 Y69.179 E.03558
G1 X123.704 Y70.291 E.03554
G1 X123.35 Y71.368 E.03555
G1 X122.884 Y72.351 E.03411
G1 X97.597 Y116.16 E1.586
G1 X97.039 Y117.002 E.03167
G1 X96.23 Y117.946 E.03898
G1 X95.297 Y118.774 E.03911
G1 X94.479 Y119.336 E.03112
G1 X93.616 Y119.801 E.03074
G1 X92.267 Y120.311 E.04522
G1 X91.108 Y120.564 E.0372
G1 X89.728 Y120.658 E.04337
G1 X88.712 Y120.536 E.03208
G1 X87.719 Y120.307 E.03195
G1 X86.383 Y119.801 E.04479
G1 X85.521 Y119.336 E.03071
G1 X84.706 Y118.776 E.031
G1 X83.862 Y118.038 E.03515
G1 X83.075 Y117.151 E.03718
G1 X82.407 Y116.167 E.03729
G1 X57.159 Y72.432 E1.58338
G1 X56.68 Y71.44 E.03454
M73 P3 R31
G1 X56.317 Y70.371 E.0354
G1 X56.093 Y69.289 E.03464
G1 X56.001 Y68.188 E.03464
G1 X56.044 Y67.083 E.03467
G1 X56.22 Y65.99 E.03471
G1 X56.527 Y64.929 E.03463
G1 X56.956 Y63.911 E.03464
G1 X57.731 Y62.755 E.04364
G1 X58.484 Y61.928 E.03507
M204 P1000
G1 X58.763 Y62.182 F9000
M204 P600
G1 F1200
G1 X59.627 Y61.443 E.03565
G1 X60.537 Y60.849 E.03407
G1 X61.514 Y60.373 E.03408
G1 X62.543 Y60.022 E.03409
G1 X63.607 Y59.802 E.03407
G1 X64.649 Y59.719 E.03277
G1 X115.349 Y59.719 E1.58966
G1 X116.383 Y59.801 E.03252
G1 X117.447 Y60.02 E.03406
G1 X118.476 Y60.369 E.03407
G1 X119.454 Y60.844 E.03409
G1 X120.365 Y61.436 E.03407
G1 X121.196 Y62.138 E.03411
G1 X121.941 Y62.947 E.03448
G1 X122.579 Y63.852 E.03472
G1 X123.044 Y64.856 E.03469
G1 X123.371 Y65.9 E.0343
G1 X123.565 Y66.97 E.0341
G1 X123.624 Y68.056 E.0341
G1 X123.547 Y69.14 E.03407
G1 X123.337 Y70.206 E.03407
G1 X122.995 Y71.238 E.03409
G1 X122.547 Y72.182 E.03276
G1 X97.273 Y115.967 E1.58515
G1 X96.745 Y116.766 E.03003
G1 X95.97 Y117.673 E.03741
G1 X95.074 Y118.47 E.0376
G1 X94.291 Y119.009 E.0298
G1 X93.449 Y119.464 E.03001
G1 X92.172 Y119.945 E.04279
G1 X91.067 Y120.189 E.03548
G1 X89.754 Y120.281 E.04127
G1 X88.787 Y120.166 E.03053
G1 X87.816 Y119.942 E.03124
G1 X86.551 Y119.463 E.04241
G1 X85.709 Y119.009 E.02999
G1 X84.929 Y118.472 E.02969
G1 X84.119 Y117.762 E.03377
G1 X83.38 Y116.929 E.03491
G1 X82.73 Y115.972 E.03627
G1 X57.496 Y72.262 E1.58248
G1 X57.033 Y71.307 E.03328
M73 P3 R30
G1 X56.684 Y70.282 E.03395
G1 X56.468 Y69.246 E.03318
G1 X56.378 Y68.19 E.03323
G1 X56.418 Y67.131 E.03323
G1 X56.586 Y66.083 E.03328
G1 X56.879 Y65.065 E.03321
G1 X57.296 Y64.075 E.03368
G1 X58.035 Y62.978 E.04147
G1 X58.722 Y62.226 E.03194
M204 P1000
G1 X59 Y62.481 F9000
M204 P600
G1 F1200
G1 X59.861 Y61.739 E.03564
G1 X60.733 Y61.172 E.03261
G1 X61.668 Y60.718 E.03259
G1 X62.653 Y60.383 E.03262
G1 X63.672 Y60.174 E.03262
G1 X64.671 Y60.095 E.03142
G1 X115.327 Y60.095 E1.58828
G1 X116.319 Y60.172 E.0312
G1 X117.337 Y60.381 E.03258
G1 X118.322 Y60.714 E.0326
G1 X119.259 Y61.167 E.03263
G1 X120.131 Y61.733 E.0326
G1 X120.927 Y62.403 E.03262
G1 X121.64 Y63.175 E.03295
G1 X122.261 Y64.055 E.03377
G1 X122.696 Y65.002 E.03268
G1 X123.008 Y66.001 E.03282
G1 X123.192 Y67.025 E.03262
G1 X123.246 Y68.064 E.03262
G1 X123.172 Y69.101 E.0326
G1 X122.969 Y70.121 E.03261
G1 X122.641 Y71.108 E.03261
G1 X122.21 Y72.013 E.03143
G1 X96.949 Y115.774 E1.58429
G1 X96.45 Y116.53 E.0284
G1 X95.709 Y117.4 E.03583
G1 X94.85 Y118.166 E.03609
G1 X94.086 Y118.692 E.02908
G1 X93.281 Y119.125 E.02866
G1 X92.077 Y119.58 E.04036
G1 X91.026 Y119.814 E.03376
G1 X89.781 Y119.905 E.03914
G1 X88.842 Y119.793 E.02965
G1 X87.913 Y119.578 E.0299
G1 X86.719 Y119.125 E.04004
G1 X85.914 Y118.692 E.02866
G1 X85.152 Y118.168 E.029
G1 X84.377 Y117.487 E.03235
G1 X83.67 Y116.688 E.03345
G1 X83.053 Y115.778 E.03447
G1 X57.832 Y72.091 E1.58165
G1 X57.386 Y71.174 E.03197
M73 P4 R30
G1 X57.05 Y70.193 E.03251
G1 X56.842 Y69.202 E.03175
G1 X56.756 Y68.192 E.03178
G1 X56.792 Y67.179 E.03178
G1 X56.951 Y66.177 E.03181
G1 X57.238 Y65.18 E.03253
G1 X57.636 Y64.239 E.03203
G1 X58.34 Y63.201 E.03933
G1 X58.959 Y62.525 E.02874
M204 P1000
G1 X59.237 Y62.781 F9000
M204 P600
G1 F1200
G1 X59.333 Y62.675 E.00448
G1 X60.094 Y62.035 E.03118
G1 X60.928 Y61.495 E.03115
G1 X61.822 Y61.062 E.03115
G1 X62.762 Y60.744 E.03111
G1 X63.735 Y60.546 E.03113
G1 X64.693 Y60.472 E.03013
G1 X115.306 Y60.472 E1.58694
G1 X116.256 Y60.544 E.02987
G1 X117.228 Y60.742 E.0311
G1 X118.169 Y61.059 E.03113
G1 X119.064 Y61.49 E.03115
G1 X119.898 Y62.029 E.03114
G1 X120.659 Y62.668 E.03116
G1 X121.34 Y63.403 E.03142
G1 X121.926 Y64.228 E.03173
G1 X122.348 Y65.148 E.03174
G1 X122.644 Y66.101 E.03129
G1 X122.818 Y67.079 E.03115
G1 X122.869 Y68.071 E.03114
G1 X122.797 Y69.062 E.03115
G1 X122.602 Y70.035 E.03111
G1 X122.287 Y70.977 E.03114
G1 X121.873 Y71.844 E.03012
G1 X96.625 Y115.58 E1.58341
G1 X96.155 Y116.295 E.02683
G1 X95.448 Y117.128 E.03426
G1 X94.626 Y117.863 E.03457
G1 X93.898 Y118.365 E.02773
G1 X93.113 Y118.788 E.02796
G1 X91.981 Y119.215 E.03793
G1 X90.983 Y119.439 E.03207
G1 X89.807 Y119.528 E.03698
G1 X88.897 Y119.42 E.02873
G1 X88.011 Y119.213 E.02853
G1 X86.887 Y118.787 E.03769
G1 X86.102 Y118.365 E.02794
G1 X85.376 Y117.864 E.02766
G1 X84.635 Y117.212 E.03095
G1 X83.961 Y116.448 E.03194
G1 X83.376 Y115.584 E.03272
G1 X58.168 Y71.919 E1.58085
G1 X57.739 Y71.04 E.03067
G1 X57.417 Y70.104 E.03104
G1 X57.217 Y69.158 E.03032
G1 X57.132 Y68.171 E.03106
G1 X57.168 Y67.205 E.03031
G1 X57.322 Y66.248 E.03039
G1 X57.597 Y65.296 E.03107
G1 X57.976 Y64.404 E.03039
G1 X58.643 Y63.425 E.03714
G1 X59.196 Y62.825 E.02558
M204 P1000
G1 X59.473 Y63.08 F9000
M204 P600
G1 F1200
G1 X59.602 Y62.94 E.00597
G1 X60.328 Y62.331 E.02971
G1 X61.122 Y61.818 E.02964
G1 X61.975 Y61.407 E.02969
G1 X62.871 Y61.105 E.02965
G1 X63.798 Y60.918 E.02965
G1 X64.714 Y60.848 E.0288
G1 X115.285 Y60.848 E1.58562
G1 X116.193 Y60.916 E.02855
G1 X117.12 Y61.103 E.02965
G1 X118.017 Y61.404 E.02967
G1 X118.87 Y61.813 E.02966
G1 X119.665 Y62.326 E.02967
G1 X120.391 Y62.933 E.02967
G1 X121.04 Y63.632 E.02991
G1 X121.608 Y64.432 E.03076
G1 X122 Y65.293 E.02966
G1 X122.28 Y66.201 E.02979
G1 X122.445 Y67.133 E.02968
G1 X122.492 Y68.078 E.02967
G1 X122.422 Y69.022 E.02968
G1 X122.235 Y69.949 E.02965
G1 X121.934 Y70.846 E.02967
G1 X121.536 Y71.674 E.0288
G1 X96.302 Y115.387 E1.58256
G1 X95.847 Y116.078 E.02594
G1 X95.169 Y116.873 E.03276
G1 X94.402 Y117.559 E.03226
G1 X93.693 Y118.049 E.02702
G1 X92.946 Y118.449 E.02657
G1 X91.885 Y118.85 E.03556
G1 X90.94 Y119.064 E.03038
G1 X89.832 Y119.151 E.03485
G1 X88.972 Y119.05 E.02715
G1 X88.109 Y118.849 E.02778
G1 X87.054 Y118.449 E.03538
M73 P5 R30
G1 X86.307 Y118.049 E.02657
G1 X85.599 Y117.56 E.02698
G1 X84.894 Y116.937 E.0295
G1 X84.252 Y116.208 E.03046
G1 X83.7 Y115.389 E.03097
G1 X58.503 Y71.747 E1.58006
G1 X58.091 Y70.906 E.02936
G1 X57.783 Y70.014 E.02959
G1 X57.592 Y69.114 E.02885
G1 X57.51 Y68.173 E.02962
G1 X57.543 Y67.253 E.02886
G1 X57.692 Y66.319 E.02966
G1 X57.956 Y65.412 E.02962
G1 X58.315 Y64.569 E.02873
G1 X58.946 Y63.65 E.03495
G1 X59.432 Y63.124 E.02245
M204 P1000
G1 X59.708 Y63.381 F9000
M204 P600
G1 F1200
G1 X59.87 Y63.206 E.00748
G1 X60.56 Y62.628 E.02822
G1 X61.316 Y62.141 E.0282
G1 X62.127 Y61.752 E.0282
G1 X62.979 Y61.467 E.02817
G1 X63.861 Y61.29 E.02821
G1 X64.735 Y61.225 E.02748
G1 X115.264 Y61.225 E1.5843
G1 X116.131 Y61.288 E.02726
G1 X117.012 Y61.465 E.02818
G1 X117.865 Y61.749 E.02819
G1 X118.676 Y62.137 E.02819
G1 X119.433 Y62.623 E.02821
G1 X120.123 Y63.199 E.02818
G1 X120.74 Y63.862 E.0284
G1 X121.272 Y64.605 E.02865
G1 X121.652 Y65.438 E.02871
G1 X121.916 Y66.3 E.02827
G1 X122.071 Y67.186 E.0282
G1 X122.115 Y68.084 E.02819
G1 X122.047 Y68.981 E.02821
G1 X121.867 Y69.862 E.02819
G1 X121.58 Y70.714 E.02819
G1 X121.199 Y71.503 E.02747
G1 X95.978 Y115.194 E1.58176
G1 X95.538 Y115.861 E.02505
G1 X94.908 Y116.601 E.03047
G1 X94.177 Y117.256 E.03077
G1 X93.505 Y117.722 E.02564
G1 X92.779 Y118.111 E.02582
G1 X91.788 Y118.486 E.03322
G1 X90.895 Y118.69 E.02872
G1 X89.857 Y118.775 E.03265
G1 X89.027 Y118.677 E.0262
G1 X88.208 Y118.485 E.02638
G1 X87.221 Y118.111 E.03309
G1 X86.495 Y117.722 E.02582
G1 X85.823 Y117.256 E.02564
G1 X85.153 Y116.663 E.02805
G1 X84.544 Y115.969 E.02895
G1 X84.023 Y115.195 E.02925
G1 X58.839 Y71.575 E1.57925
G1 X58.443 Y70.771 E.0281
G1 X58.149 Y69.923 E.02814
G1 X57.966 Y69.069 E.02738
G1 X57.887 Y68.174 E.02817
G1 X57.917 Y67.3 E.02742
G1 X58.058 Y66.412 E.02819
G1 X58.307 Y65.55 E.02813
G1 X58.655 Y64.735 E.02779
G1 X59.248 Y63.876 E.03273
G1 X59.667 Y63.425 E.0193
M204 P1000
G1 X59.943 Y63.681 F9000
M204 P600
G1 F1200
G1 X60.138 Y63.472 E.00896
G1 X60.793 Y62.926 E.02674
G1 X61.51 Y62.465 E.02673
G1 X62.279 Y62.098 E.02672
G1 X63.087 Y61.828 E.02671
G1 X63.923 Y61.662 E.02672
G1 X64.755 Y61.601 E.02616
G1 X115.244 Y61.601 E1.58305
G1 X116.069 Y61.661 E.02594
G1 X116.905 Y61.826 E.02672
G1 X117.714 Y62.095 E.02673
G1 X118.483 Y62.461 E.0267
G1 X119.201 Y62.921 E.02674
G1 X119.856 Y63.466 E.02672
G1 X120.441 Y64.091 E.02684
G1 X120.955 Y64.809 E.02769
G1 X121.303 Y65.582 E.02658
G1 X121.552 Y66.399 E.02678
G1 X121.698 Y67.239 E.02673
G1 X121.738 Y68.09 E.02671
G1 X121.672 Y68.94 E.02673
G1 X121.501 Y69.775 E.02672
G1 X121.227 Y70.582 E.02672
G1 X120.863 Y71.333 E.02617
G1 X95.654 Y115 E1.58092
G1 X95.23 Y115.643 E.02415
G1 X94.629 Y116.347 E.02902
G1 X93.953 Y116.953 E.02847
G1 X93.299 Y117.405 E.02493
G1 X92.612 Y117.773 E.02444
