; generated by PrusaSlicer 2.6.1+win64 on 2023-10-16 at 16:01:12 UTC


;
;

;
;

;
;
; 

; external perimeters extrusion width = 0.45mm
; perimeters extrusion width = 0.45mm
; infill extrusion width = 0.45mm
; solid infill extrusion width = 0.45mm
; top infill extrusion width = 0.40mm
; first layer extrusion width = 0.42mm

M73 P0 R49
M201 X2500 Y2500 Z400 E5000 ; sets maximum accelerations, mm/sec^2
M203 X180 Y180 Z12 E80 ; sets maximum feedrates, mm / sec
M204 P2000 R1250 T2500 ; sets acceleration (P, T) and retract acceleration (R), mm/sec^2
M205 X8.00 Y8.00 Z2.00 E10.00 ; sets the jerk limits, mm/sec
M205 S0 T0 ; sets the minimum extruding and travel feed rate, mm/sec
;TYPE:Custom
M862.3 P "MINI" ; printer model check
G90 ; use absolute coordinates
M83 ; extruder relative mode
M104 S170 ; set extruder temp for bed leveling
M140 S100 ; set bed temp
M109 R170 ; wait for bed leveling temp
M190 S100 ; wait for bed temp
M204 T1250 ; set travel acceleration
G28 ; home all without mesh bed level
G29 ; mesh bed leveling 
M204 T2500 ; restore travel acceleration
M104 S255 ; set extruder temp
G92 E0
G1 Y-2 X179 F2400
G1 Z3 F720
M109 S255 ; wait for extruder temp

; intro line
G1 X170 F1000
G1 Z0.2 F720
G1 X110 E8 F900
G1 X40 E10 F700
G92 E0

M221 S95 ; set flow
G21 ; set units to millimeters
G90 ; use absolute coordinates
M83 ; use relative distances for extrusion
M900 K0.2 ; Filament gcode

M107
;LAYER_CHANGE
;Z:0.2
;HEIGHT:0.2
;BEFORE_LAYER_CHANGE
G92 E0.0
;0.2


G1 E-2.7 F4200
G1 Z.2 F720
;AFTER_LAYER_CHANGE
;0.2
G1 Z.4
G1 X61.125 Y45.628 F9000
G1 Z.2 F720
G1 E2.7 F2400
M204 P600
;TYPE:Skirt/Brim
;WIDTH:0.42
G1 F1200
G1 X62.171 Y44.752 E.04278
G1 X63.11 Y44.558 E.03006
G1 X116.89 Y44.558 E1.68623
G1 X118.197 Y44.95 E.04278
G1 X119.073 Y45.995 E.04275
G1 X119.267 Y46.935 E.03009
G1 X119.267 Y133.065 E2.70055
G1 X118.875 Y134.372 E.04278
M73 P0 R48
G1 X117.83 Y135.248 E.04275
G1 X116.89 Y135.442 E.03009
G1 X63.11 Y135.442 E1.68623
G1 X61.803 Y135.05 E.04278
G1 X60.927 Y134.005 E.04275
G1 X60.733 Y133.065 E.03009
G1 X60.733 Y46.935 E2.70055
G1 X61.108 Y45.685 E.04092
M204 P1000
; printing object led house bottom.stl id:0 copy 0
M73 P1 R48
G1 E-2.7 F4200
G1 Z.4 F720
G1 X63.897 Y47.722 F9000
G1 Z.2 F720
G1 E2.7 F2400
M204 P600
;TYPE:Perimeter
;WIDTH:0.419999
G1 F1200
G1 X116.103 Y47.722 E1.63688
G1 X116.103 Y132.278 E2.65119
G1 X63.897 Y132.278 E1.63688
G1 X63.897 Y47.782 E2.64931
M204 P1000
G1 X63.52 Y47.345 F9000
M204 P600
;TYPE:External perimeter
G1 F1200
G1 X116.48 Y47.345 E1.66052
G1 X116.48 Y132.655 E2.67483
G1 X63.52 Y132.655 E1.66052
G1 X63.52 Y47.405 E2.67295
M204 P1000
G1 X63.898 Y47.478 F9000
G1 E-2.7 F4200
G1 Z.4 F720
G1 X115.17 Y47.892 F9000
G1 Z.2 F720
M73 P2 R48
G1 E2.7 F2400
M204 P600
;TYPE:Solid infill
;WIDTH:0.420481
G1 F1200
G1 X115.763 Y48.485 E.02633
G1 X115.763 Y49.019 E.01676
G1 X114.805 Y48.061 E.04253
G1 X114.271 Y48.061 E.01676
G1 X115.763 Y49.553 E.06624
G1 X115.763 Y50.087 E.01676
G1 X113.738 Y48.061 E.08993
G1 X113.204 Y48.061 E.01676
G1 X115.763 Y50.621 E.11364
G1 X115.763 Y51.155 E.01676
G1 X112.67 Y48.061 E.13735
G1 X112.136 Y48.061 E.01676
G1 X115.763 Y51.689 E.16105
G1 X115.763 Y52.223 E.01676
G1 X111.602 Y48.061 E.18476
G1 X111.068 Y48.061 E.01676
G1 X115.763 Y52.757 E.20847
G1 X115.763 Y53.291 E.01676
G1 X110.534 Y48.061 E.23218
G1 X110 Y48.061 E.01676
G1 X115.763 Y53.825 E.25589
G1 X115.763 Y54.359 E.01676
G1 X109.466 Y48.061 E.2796
G1 X108.932 Y48.061 E.01676
G1 X115.763 Y54.893 E.30331
G1 X115.763 Y55.427 E.01676
G1 X108.398 Y48.061 E.32702
G1 X107.864 Y48.061 E.01676
G1 X115.763 Y55.961 E.35072
G1 X115.763 Y56.495 E.01676
G1 X107.33 Y48.061 E.37443
G1 X106.796 Y48.061 E.01676
G1 X115.763 Y57.029 E.39814
G1 X115.763 Y57.563 E.01676
G1 X106.262 Y48.061 E.42185
G1 X105.728 Y48.061 E.01676
G1 X115.763 Y58.096 E.44554
G1 X115.763 Y58.63 E.01676
G1 X105.194 Y48.061 E.46925
G1 X104.66 Y48.061 E.01676
G1 X115.763 Y59.164 E.49295
G1 X115.763 Y59.698 E.01676
G1 X104.126 Y48.061 E.51666
G1 X103.592 Y48.061 E.01676
G1 X115.763 Y60.232 E.54037
G1 X115.763 Y60.766 E.01676
G1 X103.058 Y48.061 E.56408
G1 X102.525 Y48.061 E.01673
G1 X115.763 Y61.3 E.58777
G1 X115.763 Y61.834 E.01676
G1 X101.991 Y48.061 E.61148
G1 X101.457 Y48.061 E.01676
G1 X115.763 Y62.368 E.63518
G1 X115.763 Y62.902 E.01676
G1 X100.923 Y48.061 E.65889
G1 X100.389 Y48.061 E.01676
G1 X115.763 Y63.436 E.6826
G1 X115.763 Y63.97 E.01676
G1 X99.855 Y48.061 E.70631
G1 X99.321 Y48.061 E.01676
G1 X115.763 Y64.504 E.73002
G1 X115.763 Y65.038 E.01676
G1 X98.787 Y48.061 E.75373
G1 X98.253 Y48.061 E.01676
G1 X115.763 Y65.572 E.77744
G1 X115.763 Y66.106 E.01676
M73 P2 R47
G1 X97.719 Y48.061 E.80114
G1 X97.185 Y48.061 E.01676
G1 X115.763 Y66.64 E.82485
G1 X115.763 Y67.174 E.01676
G1 X96.651 Y48.061 E.84856
G1 X96.117 Y48.061 E.01676
G1 X115.763 Y67.708 E.87227
G1 X115.763 Y68.242 E.01676
G1 X95.583 Y48.061 E.89598
G1 X95.049 Y48.061 E.01676
M73 P3 R47
G1 X115.763 Y68.776 E.91969
G1 X115.763 Y69.309 E.01673
G1 X94.515 Y48.061 E.94337
G1 X93.981 Y48.061 E.01676
G1 X115.763 Y69.843 E.96708
G1 X115.763 Y70.377 E.01676
G1 X93.447 Y48.061 E.99079
G1 X92.913 Y48.061 E.01676
G1 X115.763 Y70.911 E1.0145
G1 X115.763 Y71.445 E.01676
G1 X92.379 Y48.061 E1.03821
G1 X91.846 Y48.061 E.01673
G1 X115.763 Y71.979 E1.0619
G1 X115.763 Y72.513 E.01676
G1 X91.312 Y48.061 E1.0856
G1 X90.778 Y48.061 E.01676
G1 X115.763 Y73.047 E1.10931
G1 X115.763 Y73.581 E.01676
G1 X90.244 Y48.061 E1.13302
G1 X89.71 Y48.061 E.01676
G1 X115.763 Y74.115 E1.15673
G1 X115.763 Y74.649 E.01676
G1 X89.176 Y48.061 E1.18044
G1 X88.642 Y48.061 E.01676
G1 X115.763 Y75.183 E1.20415
G1 X115.763 Y75.717 E.01676
G1 X88.108 Y48.061 E1.22786
G1 X87.574 Y48.061 E.01676
G1 X115.763 Y76.251 E1.25157
G1 X115.763 Y76.785 E.01676
G1 X87.04 Y48.061 E1.27527
G1 X86.506 Y48.061 E.01676
G1 X115.763 Y77.319 E1.29898
G1 X115.763 Y77.853 E.01676
M73 P4 R47
G1 X85.972 Y48.061 E1.32269
G1 X85.438 Y48.061 E.01676
G1 X115.763 Y78.387 E1.3464
G1 X115.763 Y78.921 E.01676
G1 X84.904 Y48.061 E1.37011
G1 X84.37 Y48.061 E.01676
G1 X115.763 Y79.455 E1.39382
G1 X115.763 Y79.989 E.01676
G1 X83.836 Y48.061 E1.41753
G1 X83.302 Y48.061 E.01676
G1 X115.763 Y80.522 E1.44121
G1 X115.763 Y81.056 E.01676
G1 X82.768 Y48.061 E1.46492
G1 X82.234 Y48.061 E.01676
G1 X115.763 Y81.59 E1.48863
G1 X115.763 Y82.124 E.01676
G1 X81.7 Y48.061 E1.51234
G1 X81.166 Y48.061 E.01676
G1 X115.763 Y82.658 E1.53605
G1 X115.763 Y83.192 E.01676
M73 P4 R46
G1 X80.633 Y48.061 E1.55973
G1 X80.099 Y48.061 E.01676
G1 X115.763 Y83.726 E1.58344
G1 X115.763 Y84.26 E.01676
G1 X79.565 Y48.061 E1.60715
G1 X79.031 Y48.061 E.01676
M73 P5 R46
G1 X115.763 Y84.794 E1.63086
G1 X115.763 Y85.328 E.01676
G1 X78.497 Y48.061 E1.65457
G1 X77.963 Y48.061 E.01676
G1 X115.763 Y85.862 E1.67828
G1 X115.763 Y86.396 E.01676
G1 X77.429 Y48.061 E1.70199
G1 X76.895 Y48.061 E.01676
G1 X115.763 Y86.93 E1.72569
G1 X115.763 Y87.464 E.01676
G1 X76.361 Y48.061 E1.7494
G1 X75.827 Y48.061 E.01676
G1 X115.763 Y87.998 E1.77311
G1 X115.763 Y88.532 E.01676
G1 X75.293 Y48.061 E1.79682
G1 X74.759 Y48.061 E.01676
G1 X115.763 Y89.066 E1.82053
G1 X115.763 Y89.6 E.01676
G1 X74.225 Y48.061 E1.84424
G1 X73.691 Y48.061 E.01676
M73 P6 R46
G1 X115.763 Y90.134 E1.86795
G1 X115.763 Y90.668 E.01676
G1 X73.157 Y48.061 E1.89166
G1 X72.623 Y48.061 E.01676
G1 X115.763 Y91.202 E1.91536
G1 X115.763 Y91.735 E.01673
G1 X72.089 Y48.061 E1.93905
G1 X71.555 Y48.061 E.01676
G1 X115.763 Y92.269 E1.96276
G1 X115.763 Y92.803 E.01676
G1 X71.021 Y48.061 E1.98647
G1 X70.487 Y48.061 E.01676
G1 X115.763 Y93.337 E2.01018
G1 X115.763 Y93.871 E.01676
G1 X69.953 Y48.061 E2.03389
G1 X69.42 Y48.061 E.01673
M73 P6 R45
G1 X115.763 Y94.405 E2.05757
G1 X115.763 Y94.939 E.01676
G1 X68.886 Y48.061 E2.08128
M73 P7 R45
G1 X68.352 Y48.061 E.01676
G1 X115.763 Y95.473 E2.10499
G1 X115.763 Y96.007 E.01676
G1 X67.818 Y48.061 E2.1287
G1 X67.284 Y48.061 E.01676
G1 X115.763 Y96.541 E2.15241
G1 X115.763 Y97.075 E.01676
G1 X66.75 Y48.061 E2.17612
G1 X66.216 Y48.061 E.01676
G1 X115.763 Y97.609 E2.19982
G1 X115.763 Y98.143 E.01676
G1 X65.682 Y48.061 E2.22353
G1 X65.148 Y48.061 E.01676
G1 X115.763 Y98.677 E2.24724
G1 X115.763 Y99.211 E.01676
G1 X64.614 Y48.061 E2.27095
G1 X64.237 Y48.061 E.01184
M73 P8 R45
G1 X64.237 Y48.218 E.00493
G1 X115.763 Y99.745 E2.28769
G1 X115.763 Y100.279 E.01676
G1 X64.237 Y48.752 E2.28769
G1 X64.237 Y49.286 E.01676
G1 X115.763 Y100.813 E2.28769
G1 X115.763 Y101.347 E.01676
G1 X64.237 Y49.82 E2.28769
G1 X64.237 Y50.354 E.01676
G1 X115.763 Y101.881 E2.28769
G1 X115.763 Y102.415 E.01676
G1 X64.237 Y50.888 E2.28769
G1 X64.237 Y51.422 E.01676
M73 P8 R44
G1 X115.763 Y102.948 E2.28767
G1 X115.763 Y103.482 E.01676
G1 X64.237 Y51.956 E2.28767
G1 X64.237 Y52.49 E.01676
M73 P9 R44
G1 X115.763 Y104.016 E2.28767
G1 X115.763 Y104.55 E.01676
G1 X64.237 Y53.024 E2.28767
G1 X64.237 Y53.558 E.01676
G1 X115.763 Y105.084 E2.28767
G1 X115.763 Y105.618 E.01676
G1 X64.237 Y54.092 E2.28767
G1 X64.237 Y54.626 E.01676
G1 X115.763 Y106.152 E2.28767
G1 X115.763 Y106.686 E.01676
G1 X64.237 Y55.16 E2.28767
G1 X64.237 Y55.693 E.01673
G1 X115.763 Y107.22 E2.28769
G1 X115.763 Y107.754 E.01676
G1 X64.237 Y56.227 E2.28769
G1 X64.237 Y56.761 E.01676
M73 P10 R44
G1 X115.763 Y108.288 E2.28769
G1 X115.763 Y108.822 E.01676
G1 X64.237 Y57.295 E2.28769
G1 X64.237 Y57.829 E.01676
G1 X115.763 Y109.356 E2.28769
G1 X115.763 Y109.89 E.01676
G1 X64.237 Y58.363 E2.28769
G1 X64.237 Y58.897 E.01676
G1 X115.763 Y110.424 E2.28769
G1 X115.763 Y110.958 E.01676
G1 X64.237 Y59.431 E2.28769
G1 X64.237 Y59.965 E.01676
G1 X115.763 Y111.492 E2.28769
G1 X115.763 Y112.026 E.01676
M73 P10 R43
G1 X64.237 Y60.499 E2.28769
G1 X64.237 Y61.033 E.01676
M73 P11 R43
G1 X115.763 Y112.56 E2.28769
G1 X115.763 Y113.094 E.01676
G1 X64.237 Y61.567 E2.28769
G1 X64.237 Y62.101 E.01676
G1 X115.763 Y113.627 E2.28767
G1 X115.763 Y114.161 E.01676
G1 X64.237 Y62.635 E2.28767
G1 X64.237 Y63.169 E.01676
G1 X115.763 Y114.695 E2.28767
G1 X115.763 Y115.229 E.01676
G1 X64.237 Y63.703 E2.28767
G1 X64.237 Y64.237 E.01676
G1 X115.763 Y115.763 E2.28767
G1 X115.763 Y116.297 E.01676
G1 X64.237 Y64.771 E2.28767
G1 X64.237 Y65.305 E.01676
M73 P12 R43
G1 X115.763 Y116.831 E2.28767
G1 X115.763 Y117.365 E.01676
G1 X64.237 Y65.839 E2.28767
G1 X64.237 Y66.373 E.01676
G1 X115.763 Y117.899 E2.28767
G1 X115.763 Y118.433 E.01676
G1 X64.237 Y66.906 E2.28769
G1 X64.237 Y67.44 E.01676
G1 X115.763 Y118.967 E2.28769
G1 X115.763 Y119.501 E.01676
G1 X64.237 Y67.974 E2.28769
G1 X64.237 Y68.508 E.01676
G1 X115.763 Y120.035 E2.28769
G1 X115.763 Y120.569 E.01676
M73 P12 R42
G1 X64.237 Y69.042 E2.28769
G1 X64.237 Y69.576 E.01676
M73 P13 R42
G1 X115.763 Y121.103 E2.28769
G1 X115.763 Y121.637 E.01676
G1 X64.237 Y70.11 E2.28769
G1 X64.237 Y70.644 E.01676
G1 X115.763 Y122.171 E2.28769
G1 X115.763 Y122.705 E.01676
G1 X64.237 Y71.178 E2.28769
G1 X64.237 Y71.712 E.01676
G1 X115.763 Y123.239 E2.28769
G1 X115.763 Y123.773 E.01676
G1 X64.237 Y72.246 E2.28769
G1 X64.237 Y72.78 E.01676
G1 X115.763 Y124.307 E2.28769
G1 X115.763 Y124.84 E.01673
G1 X64.237 Y73.314 E2.28767
G1 X64.237 Y73.848 E.01676
M73 P14 R42
G1 X115.763 Y125.374 E2.28767
G1 X115.763 Y125.908 E.01676
G1 X64.237 Y74.382 E2.28767
G1 X64.237 Y74.916 E.01676
G1 X115.763 Y126.442 E2.28767
G1 X115.763 Y126.976 E.01676
G1 X64.237 Y75.45 E2.28767
G1 X64.237 Y75.984 E.01676
G1 X115.763 Y127.51 E2.28767
G1 X115.763 Y128.044 E.01676
G1 X64.237 Y76.518 E2.28767
G1 X64.237 Y77.052 E.01676
G1 X115.763 Y128.578 E2.28767
G1 X115.763 Y129.112 E.01676
M73 P14 R41
G1 X64.237 Y77.585 E2.28769
G1 X64.237 Y78.119 E.01676
M73 P15 R41
G1 X115.763 Y129.646 E2.28769
G1 X115.763 Y130.18 E.01676
G1 X64.237 Y78.653 E2.28769
G1 X64.237 Y79.187 E.01676
G1 X115.763 Y130.714 E2.28769
G1 X115.763 Y131.248 E.01676
G1 X64.237 Y79.721 E2.28769
G1 X64.237 Y80.255 E.01676
G1 X115.763 Y131.782 E2.28769
G1 X115.763 Y131.939 E.00493
G1 X115.386 Y131.939 E.01184
G1 X64.237 Y80.789 E2.27095
G1 X64.237 Y81.323 E.01676
G1 X114.852 Y131.939 E2.24724
G1 X114.318 Y131.939 E.01676
G1 X64.237 Y81.857 E2.22353
G1 X64.237 Y82.391 E.01676
M73 P16 R41
G1 X113.784 Y131.939 E2.19982
G1 X113.25 Y131.939 E.01676
G1 X64.237 Y82.925 E2.17612
G1 X64.237 Y83.459 E.01676
G1 X112.716 Y131.939 E2.15241
G1 X112.182 Y131.939 E.01676
G1 X64.237 Y83.993 E2.1287
G1 X64.237 Y84.527 E.01676
G1 X111.648 Y131.939 E2.10499
G1 X111.114 Y131.939 E.01676
G1 X64.237 Y85.061 E2.08128
G1 X64.237 Y85.595 E.01676
G1 X110.58 Y131.939 E2.05757
G1 X110.047 Y131.939 E.01673
G1 X64.237 Y86.129 E2.03389
G1 X64.237 Y86.663 E.01676
M73 P16 R40
G1 X109.513 Y131.939 E2.01018
G1 X108.979 Y131.939 E.01676
M73 P17 R40
G1 X64.237 Y87.197 E1.98647
G1 X64.237 Y87.731 E.01676
G1 X108.445 Y131.939 E1.96276
G1 X107.911 Y131.939 E.01676
G1 X64.237 Y88.265 E1.93905
G1 X64.237 Y88.798 E.01673
G1 X107.377 Y131.939 E1.91536
G1 X106.843 Y131.939 E.01676
G1 X64.237 Y89.332 E1.89166
G1 X64.237 Y89.866 E.01676
G1 X106.309 Y131.939 E1.86795
G1 X105.775 Y131.939 E.01676
G1 X64.237 Y90.4 E1.84424
G1 X64.237 Y90.934 E.01676
G1 X105.241 Y131.939 E1.82053
G1 X104.707 Y131.939 E.01676
G1 X64.237 Y91.468 E1.79682
G1 X64.237 Y92.002 E.01676
G1 X104.173 Y131.939 E1.77311
G1 X103.639 Y131.939 E.01676
M73 P18 R40
G1 X64.237 Y92.536 E1.7494
G1 X64.237 Y93.07 E.01676
G1 X103.105 Y131.939 E1.72569
G1 X102.571 Y131.939 E.01676
G1 X64.237 Y93.604 E1.70199
G1 X64.237 Y94.138 E.01676
G1 X102.037 Y131.939 E1.67828
G1 X101.503 Y131.939 E.01676
G1 X64.237 Y94.672 E1.65457
G1 X64.237 Y95.206 E.01676
G1 X100.969 Y131.939 E1.63086
G1 X100.435 Y131.939 E.01676
G1 X64.237 Y95.74 E1.60715
G1 X64.237 Y96.274 E.01676
G1 X99.901 Y131.939 E1.58344
G1 X99.367 Y131.939 E.01676
G1 X64.237 Y96.808 E1.55973
G1 X64.237 Y97.342 E.01676
G1 X98.834 Y131.939 E1.53605
G1 X98.3 Y131.939 E.01676
M73 P18 R39
G1 X64.237 Y97.876 E1.51234
G1 X64.237 Y98.41 E.01676
M73 P19 R39
G1 X97.766 Y131.939 E1.48863
G1 X97.232 Y131.939 E.01676
G1 X64.237 Y98.944 E1.46492
G1 X64.237 Y99.478 E.01676
G1 X96.698 Y131.939 E1.44121
G1 X96.164 Y131.939 E.01676
G1 X64.237 Y100.011 E1.41753
G1 X64.237 Y100.545 E.01676
G1 X95.63 Y131.939 E1.39382
G1 X95.096 Y131.939 E.01676
G1 X64.237 Y101.079 E1.37011
G1 X64.237 Y101.613 E.01676
G1 X94.562 Y131.939 E1.3464
G1 X94.028 Y131.939 E.01676
G1 X64.237 Y102.147 E1.32269
G1 X64.237 Y102.681 E.01676
G1 X93.494 Y131.939 E1.29898
G1 X92.96 Y131.939 E.01676
G1 X64.237 Y103.215 E1.27527
G1 X64.237 Y103.749 E.01676
G1 X92.426 Y131.939 E1.25157
G1 X91.892 Y131.939 E.01676
G1 X64.237 Y104.283 E1.22786
G1 X64.237 Y104.817 E.01676
G1 X91.358 Y131.939 E1.20415
G1 X90.824 Y131.939 E.01676
M73 P20 R39
G1 X64.237 Y105.351 E1.18044
G1 X64.237 Y105.885 E.01676
G1 X90.29 Y131.939 E1.15673
G1 X89.756 Y131.939 E.01676
G1 X64.237 Y106.419 E1.13302
G1 X64.237 Y106.953 E.01676
G1 X89.222 Y131.939 E1.10931
G1 X88.688 Y131.939 E.01676
G1 X64.237 Y107.487 E1.0856
G1 X64.237 Y108.021 E.01676
G1 X88.155 Y131.939 E1.06192
G1 X87.621 Y131.939 E.01676
G1 X64.237 Y108.555 E1.03821
G1 X64.237 Y109.089 E.01676
G1 X87.087 Y131.939 E1.0145
G1 X86.553 Y131.939 E.01676
G1 X64.237 Y109.623 E.99079
G1 X64.237 Y110.157 E.01676
G1 X86.019 Y131.939 E.96708
G1 X85.485 Y131.939 E.01676
G1 X64.237 Y110.691 E.94337
G1 X64.237 Y111.224 E.01673
G1 X84.951 Y131.939 E.91969
G1 X84.417 Y131.939 E.01676
G1 X64.237 Y111.758 E.89598
G1 X64.237 Y112.292 E.01676
G1 X83.883 Y131.939 E.87227
G1 X83.349 Y131.939 E.01676
G1 X64.237 Y112.826 E.84856
G1 X64.237 Y113.36 E.01676
G1 X82.815 Y131.939 E.82485
G1 X82.281 Y131.939 E.01676
G1 X64.237 Y113.894 E.80114
G1 X64.237 Y114.428 E.01676
G1 X81.747 Y131.939 E.77744
M73 P20 R38
G1 X81.213 Y131.939 E.01676
M73 P21 R38
G1 X64.237 Y114.962 E.75373
G1 X64.237 Y115.496 E.01676
G1 X80.679 Y131.939 E.73002
G1 X80.145 Y131.939 E.01676
G1 X64.237 Y116.03 E.70631
G1 X64.237 Y116.564 E.01676
G1 X79.611 Y131.939 E.6826
G1 X79.077 Y131.939 E.01676
G1 X64.237 Y117.098 E.65889
G1 X64.237 Y117.632 E.01676
G1 X78.543 Y131.939 E.63518
G1 X78.009 Y131.939 E.01676
G1 X64.237 Y118.166 E.61148
G1 X64.237 Y118.7 E.01676
