; generated by PrusaSlicer 2.6.1+win64 on 2023-10-16 at 13:16:02 UTC


;
;

;
;

;
;
; 

; external perimeters extrusion width = 0.45mm
; perimeters extrusion width = 0.45mm
; infill extrusion width = 0.45mm
; solid infill extrusion width = 0.45mm
; top infill extrusion width = 0.40mm
; first layer extrusion width = 0.42mm

M73 P0 R187
M201 X2500 Y2500 Z400 E5000 ; sets maximum accelerations, mm/sec^2
M203 X180 Y180 Z12 E80 ; sets maximum feedrates, mm / sec
M204 P2000 R1250 T2500 ; sets acceleration (P, T) and retract acceleration (R), mm/sec^2
M205 X8.00 Y8.00 Z2.00 E10.00 ; sets the jerk limits, mm/sec
M205 S0 T0 ; sets the minimum extruding and travel feed rate, mm/sec
;TYPE:Custom
M862.3 P "MINI" ; printer model check
G90 ; use absolute coordinates
M83 ; extruder relative mode
M104 S170 ; set extruder temp for bed leveling
M140 S100 ; set bed temp
M109 R170 ; wait for bed leveling temp
M190 S100 ; wait for bed temp
M204 T1250 ; set travel acceleration
G28 ; home all without mesh bed level
G29 ; mesh bed leveling 
M204 T2500 ; restore travel acceleration
M104 S255 ; set extruder temp
G92 E0
G1 Y-2 X179 F2400
G1 Z3 F720
M109 S255 ; wait for extruder temp

; intro line
G1 X170 F1000
G1 Z0.2 F720
G1 X110 E8 F900
G1 X40 E10 F700
G92 E0

M221 S95 ; set flow
G21 ; set units to millimeters
G90 ; use absolute coordinates
M83 ; use relative distances for extrusion
M900 K0.2 ; Filament gcode

M107
;LAYER_CHANGE
;Z:0.2
;HEIGHT:0.2
;BEFORE_LAYER_CHANGE
G92 E0.0
;0.2


G1 E-2.7 F4200
G1 Z.2 F720
;AFTER_LAYER_CHANGE
;0.2
G1 Z.4
G1 X58.137 Y45.628 F9000
G1 Z.2 F720
G1 E2.7 F2400
M204 P600
;TYPE:Skirt/Brim
;WIDTH:0.42
G1 F1200
G1 X59.183 Y44.752 E.04278
G1 X60.123 Y44.558 E.03009
G1 X119.877 Y44.558 E1.87354
G1 X121.185 Y44.95 E.04281
G1 X122.061 Y45.995 E.04275
G1 X122.255 Y46.935 E.03009
G1 X122.255 Y133.065 E2.70055
G1 X121.863 Y134.372 E.04278
G1 X120.817 Y135.248 E.04278
G1 X119.877 Y135.442 E.03009
G1 X60.123 Y135.442 E1.87354
G1 X58.815 Y135.05 E.04281
G1 X57.939 Y134.005 E.04275
G1 X57.745 Y133.065 E.03009
G1 X57.745 Y46.935 E2.70055
G1 X58.12 Y45.685 E.04092
M204 P1000
; printing object led house.stl id:0 copy 0
G1 E-2.7 F4200
G1 Z.4 F720
G1 X60.91 Y47.722 F9000
G1 Z.2 F720
G1 E2.7 F2400
M204 P600
;TYPE:Perimeter
;WIDTH:0.419999
G1 F1200
G1 X119.09 Y47.722 E1.82419
G1 X119.09 Y132.278 E2.65119
M73 P0 R186
G1 X60.91 Y132.278 E1.82419
G1 X60.91 Y47.782 E2.64931
M204 P1000
G1 X60.533 Y47.345 F9000
M204 P600
;TYPE:External perimeter
G1 F1200
G1 X119.468 Y47.345 E1.84786
G1 X119.468 Y132.655 E2.67483
G1 X60.533 Y132.655 E1.84786
G1 X60.533 Y47.405 E2.67295
M204 P1000
G1 X60.912 Y47.472 F9000
G1 E-2.7 F4200
G1 Z.4 F720
G1 X118.157 Y47.892 F9000
G1 Z.2 F720
G1 E2.7 F2400
M204 P600
;TYPE:Solid infill
;WIDTH:0.420752
G1 F1200
G1 X118.751 Y48.486 E.02639
G1 X118.751 Y49.02 E.01678
G1 X117.792 Y48.061 E.04261
G1 X117.258 Y48.061 E.01678
G1 X118.751 Y49.555 E.06636
G1 X118.751 Y50.089 E.01678
G1 X116.724 Y48.061 E.09008
G1 X116.189 Y48.061 E.01681
G1 X118.751 Y50.623 E.11383
G1 X118.751 Y51.158 E.01681
G1 X115.655 Y48.061 E.13758
G1 X115.121 Y48.061 E.01678
G1 X118.751 Y51.692 E.1613
G1 X118.751 Y52.226 E.01678
G1 X114.586 Y48.061 E.18505
G1 X114.052 Y48.061 E.01678
G1 X118.751 Y52.761 E.2088
G1 X118.751 Y53.295 E.01678
G1 X113.518 Y48.061 E.23253
G1 X112.983 Y48.061 E.01681
G1 X118.751 Y53.829 E.25627
G1 X118.751 Y54.364 E.01681
G1 X112.449 Y48.061 E.28002
G1 X111.915 Y48.061 E.01678
G1 X118.751 Y54.898 E.30375
G1 X118.751 Y55.432 E.01678
G1 X111.38 Y48.061 E.32749
G1 X110.846 Y48.061 E.01678
G1 X118.751 Y55.967 E.35124
G1 X118.751 Y56.501 E.01678
G1 X110.312 Y48.061 E.37497
G1 X109.777 Y48.061 E.01681
G1 X118.751 Y57.035 E.39872
G1 X118.751 Y57.57 E.01681
G1 X109.243 Y48.061 E.42246
G1 X108.709 Y48.061 E.01678
G1 X118.751 Y58.104 E.44619
G1 X118.751 Y58.638 E.01678
G1 X108.174 Y48.061 E.46994
G1 X107.64 Y48.061 E.01678
G1 X118.751 Y59.173 E.49369
G1 X118.751 Y59.707 E.01678
G1 X107.106 Y48.061 E.51741
G1 X106.571 Y48.061 E.01681
G1 X118.751 Y60.241 E.54116
G1 X118.751 Y60.776 E.01681
G1 X106.037 Y48.061 E.56491
G1 X105.503 Y48.061 E.01678
G1 X118.751 Y61.31 E.58863
G1 X118.751 Y61.844 E.01678
G1 X104.968 Y48.061 E.61238
G1 X104.434 Y48.061 E.01678
G1 X118.751 Y62.379 E.63613
G1 X118.751 Y62.913 E.01678
G1 X103.9 Y48.061 E.65985
G1 X103.365 Y48.061 E.01681
G1 X118.751 Y63.447 E.6836
G1 X118.751 Y63.982 E.01681
G1 X102.831 Y48.061 E.70735
G1 X102.297 Y48.061 E.01678
G1 X118.751 Y64.516 E.73108
G1 X118.751 Y65.05 E.01678
G1 X101.762 Y48.061 E.75482
G1 X101.228 Y48.061 E.01678
G1 X118.751 Y65.585 E.77857
G1 X118.751 Y66.119 E.01678
G1 X100.693 Y48.061 E.80232
G1 X100.159 Y48.061 E.01678
G1 X118.751 Y66.653 E.82605
G1 X118.751 Y67.188 E.01681
G1 X99.625 Y48.061 E.84979
G1 X99.09 Y48.061 E.01681
G1 X118.751 Y67.722 E.87354
G1 X118.751 Y68.256 E.01678
G1 X98.556 Y48.061 E.89727
G1 X98.022 Y48.061 E.01678
G1 X118.751 Y68.791 E.92101
G1 X118.751 Y69.325 E.01678
M73 P0 R185
G1 X97.487 Y48.061 E.94476
G1 X96.953 Y48.061 E.01678
G1 X118.751 Y69.859 E.96849
G1 X118.751 Y70.394 E.01681
G1 X96.419 Y48.061 E.99224
G1 X95.884 Y48.061 E.01681
G1 X118.751 Y70.928 E1.01598
G1 X118.751 Y71.462 E.01678
G1 X95.35 Y48.061 E1.03971
G1 X94.816 Y48.061 E.01678
G1 X118.751 Y71.997 E1.06346
G1 X118.751 Y72.531 E.01678
G1 X94.281 Y48.061 E1.08721
G1 X93.747 Y48.061 E.01678
G1 X118.751 Y73.065 E1.11093
G1 X118.751 Y73.6 E.01681
G1 X93.213 Y48.061 E1.13468
G1 X92.678 Y48.061 E.01681
G1 X118.751 Y74.134 E1.15843
G1 X118.751 Y74.668 E.01678
G1 X92.144 Y48.061 E1.18215
G1 X91.61 Y48.061 E.01678
G1 X118.751 Y75.203 E1.2059
G1 X118.751 Y75.737 E.01678
M73 P1 R185
G1 X91.075 Y48.061 E1.22965
G1 X90.541 Y48.061 E.01678
G1 X118.751 Y76.271 E1.25337
G1 X118.751 Y76.806 E.01681
G1 X90.007 Y48.061 E1.27712
G1 X89.472 Y48.061 E.01681
G1 X118.751 Y77.34 E1.30087
G1 X118.751 Y77.874 E.01678
G1 X88.938 Y48.061 E1.3246
G1 X88.404 Y48.061 E.01678
G1 X118.751 Y78.409 E1.34834
G1 X118.751 Y78.943 E.01678
G1 X87.869 Y48.061 E1.37209
G1 X87.335 Y48.061 E.01678
G1 X118.751 Y79.477 E1.39582
G1 X118.751 Y80.012 E.01681
G1 X86.801 Y48.061 E1.41957
G1 X86.266 Y48.061 E.01681
G1 X118.751 Y80.546 E1.44331
G1 X118.751 Y81.08 E.01678
G1 X85.732 Y48.061 E1.46704
G1 X85.198 Y48.061 E.01678
G1 X118.751 Y81.615 E1.49079
G1 X118.751 Y82.149 E.01678
G1 X84.663 Y48.061 E1.51453
G1 X84.129 Y48.061 E.01678
G1 X118.751 Y82.683 E1.53826
G1 X118.751 Y83.218 E.01681
G1 X83.595 Y48.061 E1.56201
G1 X83.06 Y48.061 E.01681
G1 X118.751 Y83.752 E1.58576
G1 X118.751 Y84.286 E.01678
G1 X82.526 Y48.061 E1.60948
G1 X81.992 Y48.061 E.01678
M73 P1 R184
G1 X118.751 Y84.821 E1.63323
G1 X118.751 Y85.355 E.01678
G1 X81.457 Y48.061 E1.65698
G1 X80.923 Y48.061 E.01678
G1 X118.751 Y85.889 E1.6807
G1 X118.751 Y86.424 E.01681
G1 X80.389 Y48.061 E1.70445
G1 X79.854 Y48.061 E.01681
G1 X118.751 Y86.958 E1.7282
G1 X118.751 Y87.492 E.01678
G1 X79.32 Y48.061 E1.75193
G1 X78.786 Y48.061 E.01678
G1 X118.751 Y88.027 E1.77567
G1 X118.751 Y88.561 E.01678
G1 X78.251 Y48.061 E1.79942
G1 X77.717 Y48.061 E.01678
G1 X118.751 Y89.095 E1.82315
G1 X118.751 Y89.63 E.01681
G1 X77.183 Y48.061 E1.84689
G1 X76.648 Y48.061 E.01681
G1 X118.751 Y90.164 E1.87064
G1 X118.751 Y90.698 E.01678
G1 X76.114 Y48.061 E1.89437
G1 X75.58 Y48.061 E.01678
G1 X118.751 Y91.233 E1.91812
G1 X118.751 Y91.767 E.01678
G1 X75.045 Y48.061 E1.94186
G1 X74.511 Y48.061 E.01678
G1 X118.751 Y92.301 E1.96559
G1 X118.751 Y92.836 E.01681
G1 X73.977 Y48.061 E1.98934
G1 X73.442 Y48.061 E.01681
G1 X118.751 Y93.37 E2.01309
G1 X118.751 Y93.904 E.01678
G1 X72.908 Y48.061 E2.03681
G1 X72.374 Y48.061 E.01678
G1 X118.751 Y94.439 E2.06056
G1 X118.751 Y94.973 E.01678
G1 X71.839 Y48.061 E2.08431
G1 X71.305 Y48.061 E.01678
M73 P1 R183
G1 X118.751 Y95.507 E2.10803
G1 X118.751 Y96.042 E.01681
G1 X70.771 Y48.061 E2.13178
G1 X70.236 Y48.061 E.01681
G1 X118.751 Y96.576 E2.15553
G1 X118.751 Y97.11 E.01678
G1 X69.702 Y48.061 E2.17925
G1 X69.168 Y48.061 E.01678
M73 P2 R183
G1 X118.751 Y97.645 E2.203
G1 X118.751 Y98.179 E.01678
G1 X68.633 Y48.061 E2.22675
G1 X68.099 Y48.061 E.01678
G1 X118.751 Y98.713 E2.25048
G1 X118.751 Y99.248 E.01681
G1 X67.565 Y48.061 E2.27422
G1 X67.03 Y48.061 E.01681
G1 X118.751 Y99.782 E2.29797
G1 X118.751 Y100.316 E.01678
G1 X66.496 Y48.061 E2.3217
G1 X65.962 Y48.061 E.01678
G1 X118.751 Y100.851 E2.34545
G1 X118.751 Y101.385 E.01678
G1 X65.427 Y48.061 E2.36919
G1 X64.893 Y48.061 E.01678
G1 X118.751 Y101.919 E2.39292
G1 X118.751 Y102.454 E.01681
G1 X64.359 Y48.061 E2.41667
G1 X63.824 Y48.061 E.01681
G1 X118.751 Y102.988 E2.44041
G1 X118.751 Y103.522 E.01678
G1 X63.29 Y48.061 E2.46414
G1 X62.756 Y48.061 E.01678
G1 X118.751 Y104.057 E2.48789
G1 X118.751 Y104.591 E.01678
M73 P2 R182
G1 X62.221 Y48.061 E2.51164
G1 X61.687 Y48.061 E.01678
G1 X118.751 Y105.125 E2.53536
G1 X118.751 Y105.66 E.01681
G1 X61.249 Y48.158 E2.55482
G1 X61.249 Y48.692 E.01678
G1 X118.751 Y106.194 E2.55482
G1 X118.751 Y106.728 E.01678
G1 X61.249 Y49.226 E2.55482
G1 X61.249 Y49.761 E.01681
G1 X118.751 Y107.263 E2.55482
G1 X118.751 Y107.797 E.01678
G1 X61.249 Y50.295 E2.55482
G1 X61.249 Y50.829 E.01678
G1 X118.751 Y108.331 E2.55482
G1 X118.751 Y108.866 E.01681
G1 X61.249 Y51.364 E2.55482
G1 X61.249 Y51.898 E.01678
G1 X118.751 Y109.4 E2.55482
G1 X118.751 Y109.934 E.01678
G1 X61.249 Y52.432 E2.55482
G1 X61.249 Y52.967 E.01681
G1 X118.751 Y110.469 E2.55482
G1 X118.751 Y111.003 E.01678
G1 X61.249 Y53.501 E2.55482
G1 X61.249 Y54.035 E.01678
G1 X118.751 Y111.537 E2.55482
G1 X118.751 Y112.072 E.01681
M73 P2 R181
G1 X61.249 Y54.57 E2.55482
G1 X61.249 Y55.104 E.01678
G1 X118.751 Y112.606 E2.55482
G1 X118.751 Y113.14 E.01678
M73 P3 R181
G1 X61.249 Y55.638 E2.55482
G1 X61.249 Y56.173 E.01681
G1 X118.751 Y113.675 E2.55482
G1 X118.751 Y114.209 E.01678
G1 X61.249 Y56.707 E2.55482
G1 X61.249 Y57.241 E.01678
G1 X118.751 Y114.743 E2.55482
G1 X118.751 Y115.278 E.01681
G1 X61.249 Y57.776 E2.55482
G1 X61.249 Y58.31 E.01678
G1 X118.751 Y115.812 E2.55482
G1 X118.751 Y116.347 E.01681
G1 X61.249 Y58.844 E2.55484
G1 X61.249 Y59.379 E.01681
G1 X118.751 Y116.881 E2.55482
G1 X118.751 Y117.415 E.01678
G1 X61.249 Y59.913 E2.55482
G1 X61.249 Y60.447 E.01678
G1 X118.751 Y117.95 E2.55484
G1 X118.751 Y118.484 E.01678
G1 X61.249 Y60.982 E2.55482
G1 X61.249 Y61.516 E.01678
G1 X118.751 Y119.018 E2.55482
G1 X118.751 Y119.553 E.01681
G1 X61.249 Y62.05 E2.55484
G1 X61.249 Y62.585 E.01681
M73 P3 R180
G1 X118.751 Y120.087 E2.55482
G1 X118.751 Y120.621 E.01678
G1 X61.249 Y63.119 E2.55482
G1 X61.249 Y63.653 E.01678
G1 X118.751 Y121.156 E2.55484
G1 X118.751 Y121.69 E.01678
G1 X61.249 Y64.188 E2.55482
G1 X61.249 Y64.722 E.01678
G1 X118.751 Y122.224 E2.55482
G1 X118.751 Y122.759 E.01681
G1 X61.249 Y65.256 E2.55484
G1 X61.249 Y65.791 E.01681
G1 X118.751 Y123.293 E2.55482
G1 X118.751 Y123.827 E.01678
G1 X61.249 Y66.325 E2.55482
G1 X61.249 Y66.859 E.01678
G1 X118.751 Y124.362 E2.55484
G1 X118.751 Y124.896 E.01678
G1 X61.249 Y67.394 E2.55482
G1 X61.249 Y67.928 E.01678
G1 X118.751 Y125.43 E2.55482
G1 X118.751 Y125.965 E.01681
G1 X61.249 Y68.462 E2.55484
G1 X61.249 Y68.997 E.01681
G1 X118.751 Y126.499 E2.55482
G1 X118.751 Y127.033 E.01678
G1 X61.249 Y69.531 E2.55482
G1 X61.249 Y70.065 E.01678
M73 P4 R180
G1 X118.751 Y127.568 E2.55484
M73 P4 R179
G1 X118.751 Y128.102 E.01678
G1 X61.249 Y70.6 E2.55482
G1 X61.249 Y71.134 E.01678
G1 X118.751 Y128.636 E2.55482
G1 X118.751 Y129.171 E.01681
G1 X61.249 Y71.668 E2.55484
G1 X61.249 Y72.203 E.01681
G1 X118.751 Y129.705 E2.55482
G1 X118.751 Y130.239 E.01678
G1 X61.249 Y72.737 E2.55482
G1 X61.249 Y73.271 E.01678
G1 X118.751 Y130.774 E2.55484
G1 X118.751 Y131.308 E.01678
G1 X61.249 Y73.806 E2.55482
G1 X61.249 Y74.34 E.01678
G1 X118.751 Y131.842 E2.55482
G1 X118.751 Y131.939 E.00305
G1 X118.313 Y131.939 E.01376
G1 X61.249 Y74.874 E2.53538
G1 X61.249 Y75.409 E.01681
G1 X117.779 Y131.939 E2.51164
G1 X117.244 Y131.939 E.01681
G1 X61.249 Y75.943 E2.48789
G1 X61.249 Y76.477 E.01678
G1 X116.71 Y131.939 E2.46416
G1 X116.176 Y131.939 E.01678
G1 X61.249 Y77.012 E2.44041
G1 X61.249 Y77.546 E.01678
G1 X115.641 Y131.939 E2.41667
G1 X115.107 Y131.939 E.01678
M73 P4 R178
G1 X61.249 Y78.08 E2.39294
G1 X61.249 Y78.615 E.01681
G1 X114.573 Y131.939 E2.36919
G1 X114.038 Y131.939 E.01681
G1 X61.249 Y79.149 E2.34545
G1 X61.249 Y79.683 E.01678
G1 X113.504 Y131.939 E2.32172
G1 X112.97 Y131.939 E.01678
G1 X61.249 Y80.218 E2.29797
G1 X61.249 Y80.752 E.01678
G1 X112.435 Y131.939 E2.27422
G1 X111.901 Y131.939 E.01678
G1 X61.249 Y81.286 E2.2505
G1 X61.249 Y81.821 E.01681
G1 X111.367 Y131.939 E2.22675
G1 X110.832 Y131.939 E.01681
G1 X61.249 Y82.355 E2.203
G1 X61.249 Y82.889 E.01678
G1 X110.298 Y131.939 E2.17928
G1 X109.764 Y131.939 E.01678
G1 X61.249 Y83.424 E2.15553
G1 X61.249 Y83.958 E.01678
G1 X109.229 Y131.939 E2.13178
G1 X108.695 Y131.939 E.01678
G1 X61.249 Y84.492 E2.10806
G1 X61.249 Y85.027 E.01681
G1 X108.161 Y131.939 E2.08431
G1 X107.626 Y131.939 E.01681
M73 P5 R178
G1 X61.249 Y85.561 E2.06056
G1 X61.249 Y86.095 E.01678
G1 X107.092 Y131.939 E2.03683
G1 X106.558 Y131.939 E.01678
G1 X61.249 Y86.63 E2.01309
G1 X61.249 Y87.164 E.01678
M73 P5 R177
G1 X106.023 Y131.939 E1.98934
G1 X105.489 Y131.939 E.01678
G1 X61.249 Y87.698 E1.96561
G1 X61.249 Y88.233 E.01681
G1 X104.955 Y131.939 E1.94186
G1 X104.42 Y131.939 E.01681
G1 X61.249 Y88.767 E1.91812
G1 X61.249 Y89.302 E.01681
G1 X103.886 Y131.939 E1.89437
G1 X103.352 Y131.939 E.01678
G1 X61.249 Y89.836 E1.87064
G1 X61.249 Y90.37 E.01678
G1 X102.817 Y131.939 E1.84689
G1 X102.283 Y131.939 E.01678
G1 X61.249 Y90.905 E1.82315
G1 X61.249 Y91.439 E.01678
G1 X101.749 Y131.939 E1.79942
G1 X101.214 Y131.939 E.01681
G1 X61.249 Y91.973 E1.77567
G1 X61.249 Y92.508 E.01681
G1 X100.68 Y131.939 E1.75193
G1 X100.146 Y131.939 E.01678
G1 X61.249 Y93.042 E1.7282
G1 X61.249 Y93.576 E.01678
G1 X99.611 Y131.939 E1.70445
G1 X99.077 Y131.939 E.01678
G1 X61.249 Y94.111 E1.6807
G1 X61.249 Y94.645 E.01678
G1 X98.543 Y131.939 E1.65698
G1 X98.008 Y131.939 E.01681
G1 X61.249 Y95.179 E1.63323
G1 X61.249 Y95.714 E.01681
G1 X97.474 Y131.939 E1.60948
G1 X96.94 Y131.939 E.01678
G1 X61.249 Y96.248 E1.58576
G1 X61.249 Y96.782 E.01678
G1 X96.405 Y131.939 E1.56201
G1 X95.871 Y131.939 E.01678
G1 X61.249 Y97.317 E1.53826
G1 X61.249 Y97.851 E.01678
G1 X95.337 Y131.939 E1.51453
G1 X94.802 Y131.939 E.01681
M73 P5 R176
G1 X61.249 Y98.385 E1.49079
G1 X61.249 Y98.92 E.01681
G1 X94.268 Y131.939 E1.46704
G1 X93.734 Y131.939 E.01678
G1 X61.249 Y99.454 E1.44331
G1 X61.249 Y99.988 E.01678
G1 X93.199 Y131.939 E1.41957
G1 X92.665 Y131.939 E.01678
G1 X61.249 Y100.523 E1.39582
G1 X61.249 Y101.057 E.01678
G1 X92.131 Y131.939 E1.37209
G1 X91.596 Y131.939 E.01681
G1 X61.249 Y101.591 E1.34834
G1 X61.249 Y102.126 E.01681
G1 X91.062 Y131.939 E1.3246
G1 X90.528 Y131.939 E.01678
G1 X61.249 Y102.66 E1.30087
G1 X61.249 Y103.194 E.01678
G1 X89.993 Y131.939 E1.27712
G1 X89.459 Y131.939 E.01678
G1 X61.249 Y103.729 E1.25337
G1 X61.249 Y104.263 E.01678
G1 X88.925 Y131.939 E1.22965
G1 X88.39 Y131.939 E.01681
G1 X61.249 Y104.797 E1.2059
G1 X61.249 Y105.332 E.01681
G1 X87.856 Y131.939 E1.18215
G1 X87.322 Y131.939 E.01678
G1 X61.249 Y105.866 E1.15843
G1 X61.249 Y106.4 E.01678
G1 X86.787 Y131.939 E1.13468
G1 X86.253 Y131.939 E.01678
G1 X61.249 Y106.935 E1.11093
G1 X61.249 Y107.469 E.01678
G1 X85.719 Y131.939 E1.08721
G1 X85.184 Y131.939 E.01681
G1 X61.249 Y108.003 E1.06346
G1 X61.249 Y108.538 E.01681
G1 X84.65 Y131.939 E1.03971
G1 X84.116 Y131.939 E.01678
G1 X61.249 Y109.072 E1.01598
G1 X61.249 Y109.606 E.01678
M73 P6 R176
G1 X83.581 Y131.939 E.99224
G1 X83.047 Y131.939 E.01678
G1 X61.249 Y110.141 E.96849
G1 X61.249 Y110.675 E.01678
G1 X82.513 Y131.939 E.94476
G1 X81.978 Y131.939 E.01681
G1 X61.249 Y111.209 E.92101
G1 X61.249 Y111.744 E.01681
G1 X81.444 Y131.939 E.89727
G1 X80.91 Y131.939 E.01678
G1 X61.249 Y112.278 E.87354
G1 X61.249 Y112.812 E.01678
G1 X80.375 Y131.939 E.84979
G1 X79.841 Y131.939 E.01678
G1 X61.249 Y113.347 E.82605
G1 X61.249 Y113.881 E.01678
G1 X79.307 Y131.939 E.80232
G1 X78.772 Y131.939 E.01681
G1 X61.249 Y114.415 E.77857
