; generated by PrusaSlicer 2.6.1+win64 on 2023-10-12 at 17:32:45 UTC


;
;

;
;

;
;
; 

; external perimeters extrusion width = 0.45mm
; perimeters extrusion width = 0.45mm
; infill extrusion width = 0.45mm
; solid infill extrusion width = 0.45mm
; top infill extrusion width = 0.40mm
; first layer extrusion width = 0.42mm

M73 P0 R14
M201 X2500 Y2500 Z400 E5000 ; sets maximum accelerations, mm/sec^2
M203 X180 Y180 Z12 E80 ; sets maximum feedrates, mm / sec
M204 P2000 R1250 T2500 ; sets acceleration (P, T) and retract acceleration (R), mm/sec^2
M205 X8.00 Y8.00 Z2.00 E10.00 ; sets the jerk limits, mm/sec
M205 S0 T0 ; sets the minimum extruding and travel feed rate, mm/sec
;TYPE:Custom
M862.3 P "MINI" ; printer model check
G90 ; use absolute coordinates
M83 ; extruder relative mode
M104 S170 ; set extruder temp for bed leveling
M140 S100 ; set bed temp
M109 R170 ; wait for bed leveling temp
M190 S100 ; wait for bed temp
M204 T1250 ; set travel acceleration
G28 ; home all without mesh bed level
G29 ; mesh bed leveling 
M204 T2500 ; restore travel acceleration
M104 S255 ; set extruder temp
G92 E0
G1 Y-2 X179 F2400
G1 Z3 F720
M109 S255 ; wait for extruder temp

; intro line
G1 X170 F1000
G1 Z0.2 F720
G1 X110 E8 F900
M73 P0 R13
G1 X40 E10 F700
G92 E0

M221 S95 ; set flow
G21 ; set units to millimeters
G90 ; use absolute coordinates
M83 ; use relative distances for extrusion
M900 K0.2 ; Filament gcode

M107
;LAYER_CHANGE
;Z:0.2
;HEIGHT:0.2
;BEFORE_LAYER_CHANGE
G92 E0.0
;0.2


M73 P1 R13
G1 E-2.7 F4200
G1 Z.2 F720
;AFTER_LAYER_CHANGE
;0.2
G1 Z.4
G1 X69.015 Y69.693 F9000
G1 Z.2 F720
G1 E2.7 F2400
M204 P600
;TYPE:Skirt/Brim
;WIDTH:0.42
G1 F1200
G1 X70.06 Y68.817 E.04275
G1 X71 Y68.623 E.03009
G1 X109 Y68.623 E1.19146
G1 X110.307 Y69.015 E.04278
M73 P2 R13
G1 X111.183 Y70.06 E.04275
G1 X111.377 Y71 E.03009
G1 X111.377 Y109 E1.19146
G1 X110.985 Y110.307 E.04278
G1 X109.94 Y111.183 E.04275
G1 X109 Y111.377 E.03009
G1 X71 Y111.377 E1.19146
G1 X69.693 Y110.985 E.04278
G1 X68.817 Y109.94 E.04275
G1 X68.623 Y109 E.03009
G1 X68.623 Y71 E1.19146
G1 X68.997 Y69.75 E.04091
M204 P1000
; printing object Limiter.stl id:0 copy 0
G1 E-2.7 F4200
G1 Z.4 F720
G1 X108.213 Y108.213 F9000
G1 Z.2 F720
G1 E2.7 F2400
M204 P600
;TYPE:Perimeter
;WIDTH:0.419999
G1 F1200
G1 X71.787 Y108.213 E1.14211
G1 X71.787 Y71.787 E1.14211
M73 P3 R13
G1 X108.213 Y71.787 E1.14211
G1 X108.213 Y108.153 E1.14023
M204 P1000
G1 X108.59 Y108.59 F9000
M204 P600
;TYPE:External perimeter
G1 F1200
G1 X71.41 Y108.59 E1.16575
G1 X71.41 Y71.41 E1.16575
M73 P4 R13
G1 X108.59 Y71.41 E1.16575
G1 X108.59 Y108.53 E1.16387
M204 P1000
G1 X108.204 Y108.486 F9000
G1 E-2.7 F4200
G1 Z.4 F720
G1 X100.809 Y103.762 F9000
G1 Z.2 F720
G1 E2.7 F2400
M204 P600
;TYPE:Perimeter
G1 F1200
G1 X100.721 Y103.787 E.00287
G1 X79.279 Y103.787 E.6723
G1 X78.984 Y103.704 E.00961
G1 X78.795 Y103.515 E.00838
G1 X78.713 Y103.221 E.00957
G1 X78.713 Y81.779 E.6723
G1 X78.759 Y81.555 E.00717
M73 P5 R13
G1 X78.951 Y81.318 E.00956
G1 X79.19 Y81.22 E.0081
G1 X79.279 Y81.213 E.0028
G1 X100.721 Y81.213 E.6723
G1 X100.974 Y81.272 E.00815
G1 X101.188 Y81.459 E.00891
G1 X101.275 Y81.663 E.00695
G1 X101.287 Y81.779 E.00366
G1 X101.287 Y103.221 E.6723
G1 X101.205 Y103.515 E.00957
G1 X101.016 Y103.704 E.00838
G1 X100.867 Y103.746 E.00485
M204 P1000
G1 X100.721 Y103.41 F9000
M204 P600
;TYPE:External perimeter
G1 F1200
G1 X79.279 Y103.41 E.6723
G1 X79.144 Y103.353 E.00459
G1 X79.09 Y103.221 E.00447
G1 X79.09 Y81.779 E.6723
G1 X79.145 Y81.646 E.00451
G1 X79.279 Y81.59 E.00455
G1 X100.721 Y81.59 E.6723
G1 X100.855 Y81.646 E.00455
G1 X100.91 Y81.779 E.00451
G1 X100.91 Y103.221 E.6723
G1 X100.856 Y103.353 E.00447
G1 X100.777 Y103.387 E.0027
M204 P1000
G1 X100.618 Y103.796 F9000
G1 E-2.7 F4200
G1 Z.4 F720
G1 X108.043 Y72.722 F9000
G1 Z.2 F720
G1 E2.7 F2400
M204 P600
;TYPE:Solid infill
;WIDTH:0.421344
G1 F1200
G1 X107.448 Y72.126 E.0265
G1 X106.913 Y72.126 E.01683
G1 X107.874 Y73.087 E.04276
G1 X107.874 Y73.623 E.01687
G1 X106.377 Y72.126 E.06662
G1 X105.842 Y72.126 E.01683
G1 X107.874 Y74.158 E.09042
G1 X107.874 Y74.693 E.01683
G1 X105.307 Y72.126 E.11423
G1 X104.772 Y72.126 E.01683
G1 X107.874 Y75.228 E.13804
G1 X107.874 Y75.763 E.01683
M73 P6 R13
G1 X104.237 Y72.126 E.16185
G1 X103.702 Y72.126 E.01683
G1 X107.874 Y76.298 E.18565
G1 X107.874 Y76.834 E.01687
G1 X103.166 Y72.126 E.2095
G1 X102.631 Y72.126 E.01683
G1 X107.874 Y77.369 E.23331
G1 X107.874 Y77.904 E.01683
G1 X102.096 Y72.126 E.25712
G1 X101.561 Y72.126 E.01683
G1 X107.874 Y78.439 E.28093
G1 X107.874 Y78.974 E.01683
G1 X101.026 Y72.126 E.30473
G1 X100.491 Y72.126 E.01683
G1 X107.874 Y79.509 E.32854
G1 X107.874 Y80.045 E.01687
G1 X99.955 Y72.126 E.35239
G1 X99.42 Y72.126 E.01683
G1 X107.874 Y80.58 E.3762
G1 X107.874 Y81.115 E.01683
G1 X98.885 Y72.126 E.40001
G1 X98.35 Y72.126 E.01683
G1 X107.874 Y81.65 E.42382
G1 X107.874 Y82.185 E.01683
G1 X97.815 Y72.126 E.44762
G1 X97.28 Y72.126 E.01683
G1 X107.874 Y82.72 E.47143
G1 X107.874 Y83.256 E.01687
G1 X96.744 Y72.126 E.49528
G1 X96.209 Y72.126 E.01683
M73 P7 R13
G1 X107.874 Y83.791 E.51909
G1 X107.874 Y84.326 E.01683
G1 X95.674 Y72.126 E.5429
G1 X95.139 Y72.126 E.01683
G1 X107.874 Y84.861 E.5667
G1 X107.874 Y85.396 E.01683
G1 X94.604 Y72.126 E.59051
G1 X94.068 Y72.126 E.01687
G1 X107.874 Y85.932 E.61436
G1 X107.874 Y86.467 E.01683
G1 X93.533 Y72.126 E.63817
G1 X92.998 Y72.126 E.01683
G1 X107.874 Y87.002 E.66198
G1 X107.874 Y87.537 E.01683
M73 P7 R12
G1 X92.463 Y72.126 E.68579
G1 X91.928 Y72.126 E.01683
G1 X100.675 Y80.874 E.38926
G1 X100.882 Y80.887 E.00653
M73 P8 R12
G1 X101.127 Y80.968 E.00812
G1 X101.36 Y81.136 E.00904
G1 X101.469 Y81.267 E.00536
G1 X101.553 Y81.42 E.00549
G1 X101.608 Y81.594 E.00574
G1 X101.626 Y81.825 E.00729
G1 X107.874 Y88.072 E.27801
G1 X107.874 Y88.607 E.01683
G1 X101.626 Y82.36 E.27801
G1 X101.626 Y82.895 E.01683
G1 X107.874 Y89.143 E.27803
G1 X107.874 Y89.678 E.01683
G1 X101.626 Y83.431 E.27801
G1 X101.626 Y83.966 E.01683
G1 X107.874 Y90.213 E.27801
G1 X107.874 Y90.748 E.01683
G1 X101.626 Y84.501 E.27801
G1 X101.626 Y85.036 E.01683
G1 X107.874 Y91.283 E.27801
G1 X107.874 Y91.818 E.01683
G1 X101.626 Y85.571 E.27801
G1 X101.626 Y86.106 E.01683
G1 X107.874 Y92.354 E.27803
G1 X107.874 Y92.889 E.01683
G1 X101.626 Y86.642 E.27801
G1 X101.626 Y87.177 E.01683
G1 X107.874 Y93.424 E.27801
G1 X107.874 Y93.959 E.01683
G1 X101.626 Y87.712 E.27801
G1 X101.626 Y88.247 E.01683
G1 X107.874 Y94.494 E.27801
G1 X107.874 Y95.029 E.01683
G1 X101.626 Y88.782 E.27801
G1 X101.626 Y89.318 E.01687
G1 X107.874 Y95.565 E.27801
G1 X107.874 Y96.1 E.01683
G1 X101.626 Y89.853 E.27801
G1 X101.626 Y90.388 E.01683
G1 X107.874 Y96.635 E.27801
G1 X107.874 Y97.17 E.01683
M73 P9 R12
G1 X101.626 Y90.923 E.27801
G1 X101.626 Y91.458 E.01683
G1 X107.874 Y97.705 E.27801
G1 X107.874 Y98.24 E.01683
G1 X101.626 Y91.993 E.27801
G1 X101.626 Y92.529 E.01687
G1 X107.874 Y98.776 E.27801
G1 X107.874 Y99.311 E.01683
G1 X101.626 Y93.064 E.27801
G1 X101.626 Y93.599 E.01683
G1 X107.874 Y99.846 E.27801
G1 X107.874 Y100.381 E.01683
G1 X101.626 Y94.134 E.27801
G1 X101.626 Y94.669 E.01683
G1 X107.874 Y100.916 E.27801
G1 X107.874 Y101.452 E.01687
G1 X101.626 Y95.204 E.27803
G1 X101.626 Y95.74 E.01687
G1 X107.874 Y101.987 E.27801
G1 X107.874 Y102.522 E.01683
G1 X101.626 Y96.275 E.27801
G1 X101.626 Y96.81 E.01683
G1 X107.874 Y103.057 E.27801
G1 X107.874 Y103.592 E.01683
G1 X101.626 Y97.345 E.27801
G1 X101.626 Y97.88 E.01683
G1 X107.874 Y104.127 E.27801
G1 X107.874 Y104.663 E.01687
G1 X101.626 Y98.415 E.27803
G1 X101.626 Y98.951 E.01687
G1 X107.874 Y105.198 E.27801
G1 X107.874 Y105.733 E.01683
G1 X101.626 Y99.486 E.27801
G1 X101.626 Y100.021 E.01683
M73 P10 R12
G1 X107.874 Y106.268 E.27801
G1 X107.874 Y106.803 E.01683
G1 X101.626 Y100.556 E.27801
G1 X101.626 Y101.091 E.01683
G1 X107.874 Y107.338 E.27801
G1 X107.874 Y107.874 E.01687
G1 X101.626 Y101.626 E.27803
G1 X101.626 Y102.162 E.01687
G1 X107.338 Y107.874 E.25418
G1 X106.803 Y107.874 E.01683
G1 X101.626 Y102.697 E.23038
G1 X101.626 Y103.232 E.01683
G1 X106.268 Y107.874 E.20657
G1 X105.733 Y107.874 E.01683
G1 X101.513 Y103.654 E.18779
G1 X101.37 Y103.855 E.00776
G1 X101.263 Y103.939 E.00428
G1 X105.198 Y107.874 E.17511
G1 X104.662 Y107.874 E.01687
G1 X100.893 Y104.104 E.16774
G1 X100.732 Y104.126 E.00511
G1 X100.38 Y104.126 E.01108
G1 X104.127 Y107.874 E.16676
G1 X103.592 Y107.874 E.01683
G1 X99.845 Y104.126 E.16676
G1 X99.31 Y104.126 E.01683
G1 X103.057 Y107.874 E.16676
G1 X102.522 Y107.874 E.01683
G1 X98.775 Y104.126 E.16676
G1 X98.24 Y104.126 E.01683
G1 X101.987 Y107.874 E.16676
G1 X101.451 Y107.874 E.01687
G1 X97.704 Y104.126 E.16676
G1 X97.169 Y104.126 E.01683
G1 X100.916 Y107.874 E.16676
G1 X100.381 Y107.874 E.01683
G1 X96.634 Y104.126 E.16676
G1 X96.099 Y104.126 E.01683
G1 X99.846 Y107.874 E.16676
G1 X99.311 Y107.874 E.01683
G1 X95.564 Y104.126 E.16676
G1 X95.028 Y104.126 E.01687
G1 X98.776 Y107.874 E.16679
G1 X98.24 Y107.874 E.01687
G1 X94.493 Y104.126 E.16676
G1 X93.958 Y104.126 E.01683
G1 X97.705 Y107.874 E.16676
G1 X97.17 Y107.874 E.01683
G1 X93.423 Y104.126 E.16676
G1 X92.888 Y104.126 E.01683
M73 P11 R12
G1 X96.635 Y107.874 E.16676
G1 X96.1 Y107.874 E.01683
G1 X92.353 Y104.126 E.16676
G1 X91.817 Y104.126 E.01687
G1 X95.565 Y107.874 E.16679
G1 X95.029 Y107.874 E.01687
G1 X91.282 Y104.126 E.16676
G1 X90.747 Y104.126 E.01683
G1 X94.494 Y107.874 E.16676
G1 X93.959 Y107.874 E.01683
G1 X90.212 Y104.126 E.16676
G1 X89.677 Y104.126 E.01683
G1 X93.424 Y107.874 E.16676
G1 X92.889 Y107.874 E.01683
G1 X89.142 Y104.126 E.16676
G1 X88.606 Y104.126 E.01687
G1 X92.354 Y107.874 E.16679
G1 X91.818 Y107.874 E.01687
G1 X88.071 Y104.126 E.16676
G1 X87.536 Y104.126 E.01683
G1 X91.283 Y107.874 E.16676
G1 X90.748 Y107.874 E.01683
G1 X87.001 Y104.126 E.16676
G1 X86.466 Y104.126 E.01683
G1 X90.213 Y107.874 E.16676
G1 X89.678 Y107.874 E.01683
G1 X85.931 Y104.126 E.16676
G1 X85.395 Y104.126 E.01687
G1 X89.142 Y107.874 E.16676
G1 X88.607 Y107.874 E.01683
G1 X84.86 Y104.126 E.16676
G1 X84.325 Y104.126 E.01683
G1 X88.072 Y107.874 E.16676
G1 X87.537 Y107.874 E.01683
G1 X83.79 Y104.126 E.16676
G1 X83.255 Y104.126 E.01683
G1 X87.002 Y107.874 E.16676
G1 X86.467 Y107.874 E.01683
G1 X82.72 Y104.126 E.16676
G1 X82.184 Y104.126 E.01687
G1 X85.931 Y107.874 E.16676
G1 X85.396 Y107.874 E.01683
G1 X81.649 Y104.126 E.16676
G1 X81.114 Y104.126 E.01683
G1 X84.861 Y107.874 E.16676
G1 X84.326 Y107.874 E.01683
G1 X80.579 Y104.126 E.16676
G1 X80.044 Y104.126 E.01683
G1 X83.791 Y107.874 E.16676
G1 X83.256 Y107.874 E.01683
G1 X79.339 Y103.957 E.17431
M204 P1000
G1 E-2.7 F4200
G1 Z.4 F720
G1 X100.309 Y81.043 F9000
G1 Z.2 F720
M73 P12 R12
G1 E2.7 F2400
M204 P600
G1 F1200
G1 X91.393 Y72.126 E.39678
G1 X90.857 Y72.126 E.01687
G1 X99.605 Y80.874 E.38928
G1 X99.069 Y80.874 E.01687
G1 X90.322 Y72.126 E.38926
G1 X89.787 Y72.126 E.01683
G1 X98.534 Y80.874 E.38926
G1 X97.999 Y80.874 E.01683
G1 X89.252 Y72.126 E.38926
G1 X88.717 Y72.126 E.01683
G1 X97.464 Y80.874 E.38926
G1 X96.929 Y80.874 E.01683
G1 X88.182 Y72.126 E.38926
G1 X87.646 Y72.126 E.01687
G1 X96.394 Y80.874 E.38928
G1 X95.858 Y80.874 E.01687
G1 X87.111 Y72.126 E.38926
G1 X86.576 Y72.126 E.01683
G1 X95.323 Y80.874 E.38926
G1 X94.788 Y80.874 E.01683
G1 X86.041 Y72.126 E.38926
G1 X85.506 Y72.126 E.01683
G1 X94.253 Y80.874 E.38926
G1 X93.718 Y80.874 E.01683
G1 X84.971 Y72.126 E.38926
G1 X84.435 Y72.126 E.01687
M73 P13 R12
G1 X93.182 Y80.874 E.38926
G1 X92.647 Y80.874 E.01683
G1 X83.9 Y72.126 E.38926
G1 X83.365 Y72.126 E.01683
G1 X92.112 Y80.874 E.38926
G1 X91.577 Y80.874 E.01683
G1 X82.83 Y72.126 E.38926
G1 X82.295 Y72.126 E.01683
G1 X91.042 Y80.874 E.38926
G1 X90.507 Y80.874 E.01683
G1 X81.76 Y72.126 E.38926
G1 X81.224 Y72.126 E.01687
G1 X89.971 Y80.874 E.38926
G1 X89.436 Y80.874 E.01683
G1 X80.689 Y72.126 E.38926
G1 X80.154 Y72.126 E.01683
G1 X88.901 Y80.874 E.38926
G1 X88.366 Y80.874 E.01683
G1 X79.619 Y72.126 E.38926
G1 X79.084 Y72.126 E.01683
G1 X87.831 Y80.874 E.38926
G1 X87.296 Y80.874 E.01683
G1 X78.548 Y72.126 E.38928
G1 X78.013 Y72.126 E.01683
G1 X86.76 Y80.874 E.38926
M73 P14 R12
G1 X86.225 Y80.874 E.01683
G1 X77.478 Y72.126 E.38926
G1 X76.943 Y72.126 E.01683
G1 X85.69 Y80.874 E.38926
G1 X85.155 Y80.874 E.01683
G1 X76.408 Y72.126 E.38926
G1 X75.873 Y72.126 E.01683
G1 X84.62 Y80.874 E.38926
G1 X84.085 Y80.874 E.01683
G1 X75.337 Y72.126 E.38928
G1 X74.802 Y72.126 E.01683
G1 X83.549 Y80.874 E.38926
G1 X83.014 Y80.874 E.01683
G1 X74.267 Y72.126 E.38926
G1 X73.732 Y72.126 E.01683
G1 X82.479 Y80.874 E.38926
G1 X81.944 Y80.874 E.01683
G1 X73.197 Y72.126 E.38926
G1 X72.662 Y72.126 E.01683
G1 X81.409 Y80.874 E.38926
G1 X80.874 Y80.874 E.01683
M73 P14 R11
G1 X72.126 Y72.126 E.38928
G1 X72.126 Y72.662 E.01687
G1 X80.338 Y80.874 E.36543
G1 X79.803 Y80.874 E.01683
M73 P15 R11
G1 X72.126 Y73.197 E.34162
G1 X72.126 Y73.732 E.01683
G1 X79.268 Y80.874 E.31782
G1 X79.118 Y80.887 E.00474
G1 X78.846 Y80.987 E.00912
G1 X72.126 Y74.267 E.29904
G1 X72.126 Y74.802 E.01683
G1 X78.558 Y81.234 E.28622
G1 X78.447 Y81.42 E.00682
G1 X78.391 Y81.602 E.00599
G1 X72.126 Y75.338 E.27877
G1 X72.126 Y75.873 E.01683
G1 X78.374 Y82.12 E.27801
G1 X78.374 Y82.655 E.01683
G1 X72.126 Y76.408 E.27801
G1 X72.126 Y76.943 E.01683
G1 X78.374 Y83.19 E.27801
G1 X78.374 Y83.725 E.01683
G1 X72.126 Y77.478 E.27801
G1 X72.126 Y78.013 E.01683
G1 X78.374 Y84.26 E.27801
G1 X78.374 Y84.796 E.01687
G1 X72.126 Y78.549 E.27801
G1 X72.126 Y79.084 E.01683
G1 X78.374 Y85.331 E.27801
G1 X78.374 Y85.866 E.01683
G1 X72.126 Y79.619 E.27801
G1 X72.126 Y80.154 E.01683
G1 X78.374 Y86.401 E.27801
G1 X78.374 Y86.936 E.01683
G1 X72.126 Y80.689 E.27801
G1 X72.126 Y81.224 E.01683
G1 X78.374 Y87.472 E.27803
G1 X78.374 Y88.007 E.01683
G1 X72.126 Y81.76 E.27801
G1 X72.126 Y82.295 E.01683
M73 P16 R11
G1 X78.374 Y88.542 E.27801
G1 X78.374 Y89.077 E.01683
G1 X72.126 Y82.83 E.27801
G1 X72.126 Y83.365 E.01683
G1 X78.374 Y89.612 E.27801
G1 X78.374 Y90.147 E.01683
G1 X72.126 Y83.9 E.27801
G1 X72.126 Y84.435 E.01683
G1 X78.374 Y90.683 E.27803
G1 X78.374 Y91.218 E.01683
G1 X72.126 Y84.971 E.27801
G1 X72.126 Y85.506 E.01683
G1 X78.374 Y91.753 E.27801
G1 X78.374 Y92.288 E.01683
G1 X72.126 Y86.041 E.27801
G1 X72.126 Y86.576 E.01683
G1 X78.374 Y92.823 E.27801
G1 X78.374 Y93.358 E.01683
G1 X72.126 Y87.111 E.27801
G1 X72.126 Y87.646 E.01683
G1 X78.374 Y93.894 E.27803
G1 X78.374 Y94.429 E.01683
G1 X72.126 Y88.182 E.27801
G1 X72.126 Y88.717 E.01683
G1 X78.374 Y94.964 E.27801
G1 X78.374 Y95.499 E.01683
G1 X72.126 Y89.252 E.27801
G1 X72.126 Y89.787 E.01683
G1 X78.374 Y96.034 E.27801
G1 X78.374 Y96.569 E.01683
G1 X72.126 Y90.322 E.27801
G1 X72.126 Y90.858 E.01687
G1 X78.374 Y97.105 E.27801
G1 X78.374 Y97.64 E.01683
G1 X72.126 Y91.393 E.27801
M73 P17 R11
G1 X72.126 Y91.928 E.01683
G1 X78.374 Y98.175 E.27801
G1 X78.374 Y98.71 E.01683
G1 X72.126 Y92.463 E.27801
G1 X72.126 Y92.998 E.01683
G1 X78.374 Y99.245 E.27801
G1 X78.374 Y99.78 E.01683
G1 X72.126 Y93.533 E.27801
G1 X72.126 Y94.069 E.01687
G1 X78.374 Y100.316 E.27801
G1 X78.374 Y100.851 E.01683
G1 X72.126 Y94.604 E.27801
G1 X72.126 Y95.139 E.01683
G1 X78.374 Y101.386 E.27801
G1 X78.374 Y101.921 E.01683
G1 X72.126 Y95.674 E.27801
G1 X72.126 Y96.209 E.01683
G1 X78.374 Y102.456 E.27801
G1 X78.374 Y102.992 E.01687
G1 X72.126 Y96.744 E.27803
G1 X72.126 Y97.28 E.01687
G1 X82.72 Y107.874 E.47143
G1 X82.185 Y107.874 E.01683
G1 X72.126 Y97.815 E.44762
G1 X72.126 Y98.35 E.01683
G1 X81.65 Y107.874 E.42382
G1 X81.115 Y107.874 E.01683
G1 X72.126 Y98.885 E.40001
G1 X72.126 Y99.42 E.01683
G1 X80.58 Y107.874 E.3762
G1 X80.045 Y107.874 E.01683
M73 P18 R11
G1 X72.126 Y99.955 E.35239
G1 X72.126 Y100.491 E.01687
G1 X79.509 Y107.874 E.32854
G1 X78.974 Y107.874 E.01683
G1 X72.126 Y101.026 E.30473
G1 X72.126 Y101.561 E.01683
G1 X78.439 Y107.874 E.28093
G1 X77.904 Y107.874 E.01683
G1 X72.126 Y102.096 E.25712
G1 X72.126 Y102.631 E.01683
G1 X77.369 Y107.874 E.23331
G1 X76.834 Y107.874 E.01683
G1 X72.126 Y103.166 E.2095
G1 X72.126 Y103.702 E.01687
G1 X76.298 Y107.874 E.18565
G1 X75.763 Y107.874 E.01683
G1 X72.126 Y104.237 E.16185
