; generated by PrusaSlicer 2.6.1+win64 on 2023-10-13 at 15:40:33 UTC


;
;

;
;

;
;
; 

; external perimeters extrusion width = 0.45mm
; perimeters extrusion width = 0.45mm
; infill extrusion width = 0.45mm
; solid infill extrusion width = 0.45mm
; top infill extrusion width = 0.40mm
; support material extrusion width = 0.35mm
; first layer extrusion width = 0.42mm

M73 P0 R58
M201 X2500 Y2500 Z400 E5000 ; sets maximum accelerations, mm/sec^2
M203 X180 Y180 Z12 E80 ; sets maximum feedrates, mm / sec
M204 P2000 R1250 T2500 ; sets acceleration (P, T) and retract acceleration (R), mm/sec^2
M205 X8.00 Y8.00 Z2.00 E10.00 ; sets the jerk limits, mm/sec
M205 S0 T0 ; sets the minimum extruding and travel feed rate, mm/sec
;TYPE:Custom
M862.3 P "MINI" ; printer model check
G90 ; use absolute coordinates
M83 ; extruder relative mode
M104 S170 ; set extruder temp for bed leveling
M140 S100 ; set bed temp
M109 R170 ; wait for bed leveling temp
M190 S100 ; wait for bed temp
M204 T1250 ; set travel acceleration
G28 ; home all without mesh bed level
G29 ; mesh bed leveling 
M204 T2500 ; restore travel acceleration
M104 S255 ; set extruder temp
G92 E0
G1 Y-2 X179 F2400
G1 Z3 F720
M109 S255 ; wait for extruder temp

; intro line
G1 X170 F1000
G1 Z0.2 F720
G1 X110 E8 F900
G1 X40 E10 F700
G92 E0

M221 S95 ; set flow
G21 ; set units to millimeters
G90 ; use absolute coordinates
M83 ; use relative distances for extrusion
M900 K0.2 ; Filament gcode

M107
;LAYER_CHANGE
;Z:0.2
;HEIGHT:0.2
;BEFORE_LAYER_CHANGE
G92 E0.0
;0.2


G1 E-2.7 F4200
G1 Z.2 F720
;AFTER_LAYER_CHANGE
;0.2
G1 Z.4
G1 X65.307 Y43.153 F9000
G1 Z.2 F720
G1 E2.7 F2400
M204 P600
;TYPE:Skirt/Brim
;WIDTH:0.42
G1 F1200
G1 X66.353 Y42.277 E.04278
G1 X67.293 Y42.083 E.03009
G1 X114.707 Y42.083 E1.48663
G1 X116.014 Y42.475 E.04278
G1 X116.891 Y43.52 E.04277
G1 X117.084 Y44.46 E.03009
G1 X117.084 Y94.182 E1.559
G1 X112.572 Y129.134 E1.10499
G1 X112.015 Y130.38 E.04279
G1 X110.227 Y131.206 E.06175
G1 X72.227 Y131.409 E1.19148
G1 X70.918 Y131.025 E.04277
G1 X69.861 Y129.365 E.0617
G1 X64.916 Y94.182 E1.11398
G1 X64.916 Y44.46 E1.559
G1 X65.29 Y43.211 E.04088
M204 P1000
; printing object Mount (1).stl id:0 copy 0
G1 E-2.7 F4200
G1 Z.4 F720
G1 X114.707 Y94.182 F9000
G1 Z.2 F720
G1 E2.7 F2400
M204 P600
;TYPE:Support material
G1 F1200
G1 X110.508 Y94.182 E.13166
G1 X110.489 Y90.628 E.11143
G1 X110.207 Y90.348 E.01246
G1 X71.81 Y90.554 E1.20393
G1 X71.53 Y90.837 E.01248
G1 X71.548 Y94.182 E.10488
G1 X67.293 Y94.182 E.13341
G1 X67.293 Y44.46 E1.559
G1 X114.707 Y44.46 E1.48663
M73 P1 R58
G1 X114.707 Y94.125 E1.55721
M204 P1000
G1 E-2.7 F4200
G1 Z.4 F720
G1 X87.022 Y64.189 F9000
G1 Z.2 F720
G1 E2.7 F2400
M204 P600
G1 F1200
G1 X92.671 Y64.189 E.17712
G1 X92.671 Y69.838 E.17712
G1 X87.022 Y69.838 E.17712
G1 X87.022 Y64.246 E.17533
M204 P1000
G1 E-2.7 F4200
G1 Z.4 F720
G1 X114.044 Y94.012 F9000
G1 Z.2 F720
G1 E2.7 F2400
M204 P600
G1 F1200
G1 X114.044 Y44.8 E1.54301
G1 X113.625 Y44.8 E.01314
G1 X113.625 Y93.842 E1.53768
G1 X113.206 Y93.842 E.01314
G1 X113.206 Y44.8 E1.53768
G1 X112.787 Y44.8 E.01314
G1 X112.787 Y93.842 E1.53768
G1 X112.368 Y93.842 E.01314
M73 P1 R57
G1 X112.368 Y44.8 E1.53768
G1 X111.949 Y44.8 E.01314
G1 X111.949 Y93.842 E1.53768
G1 X111.53 Y93.842 E.01314
G1 X111.53 Y44.8 E1.53768
G1 X111.111 Y44.8 E.01314
G1 X111.111 Y93.842 E1.53768
G1 X110.846 Y93.842 E.00831
G1 X110.828 Y90.485 E.10526
G1 X110.692 Y90.351 E.00599
G1 X110.692 Y44.8 E1.42822
G1 X110.273 Y44.8 E.01314
G1 X110.273 Y90.008 E1.41747
G1 X109.854 Y90.011 E.01314
G1 X109.854 Y44.8 E1.41756
G1 X109.435 Y44.8 E.01314
G1 X109.435 Y90.013 E1.41762
G1 X109.016 Y90.015 E.01314
M73 P2 R57
G1 X109.016 Y44.8 E1.41768
G1 X108.597 Y44.8 E.01314
G1 X108.597 Y90.017 E1.41775
G1 X108.178 Y90.02 E.01314
G1 X108.178 Y44.8 E1.41784
G1 X107.759 Y44.8 E.01314
G1 X107.759 Y90.022 E1.4179
G1 X107.34 Y90.024 E.01314
G1 X107.34 Y44.8 E1.41797
G1 X106.921 Y44.8 E.01314
G1 X106.921 Y90.026 E1.41803
G1 X106.502 Y90.029 E.01314
G1 X106.502 Y44.8 E1.41812
G1 X106.083 Y44.8 E.01314
G1 X106.083 Y90.031 E1.41819
G1 X105.664 Y90.033 E.01314
G1 X105.664 Y44.8 E1.41825
G1 X105.245 Y44.8 E.01314
G1 X105.245 Y90.035 E1.41831
G1 X104.826 Y90.038 E.01314
G1 X104.826 Y44.8 E1.41841
G1 X104.407 Y44.8 E.01314
G1 X104.407 Y90.04 E1.41847
G1 X103.988 Y90.042 E.01314
G1 X103.988 Y44.8 E1.41853
G1 X103.569 Y44.8 E.01314
G1 X103.569 Y90.044 E1.41859
G1 X103.15 Y90.047 E.01314
G1 X103.15 Y44.8 E1.41869
G1 X102.731 Y44.8 E.01314
M73 P3 R57
G1 X102.731 Y90.049 E1.41875
G1 X102.312 Y90.051 E.01314
G1 X102.312 Y44.8 E1.41881
G1 X101.893 Y44.8 E.01314
G1 X101.893 Y90.053 E1.41888
G1 X101.474 Y90.056 E.01314
M73 P3 R56
G1 X101.474 Y44.8 E1.41897
G1 X101.055 Y44.8 E.01314
G1 X101.055 Y90.058 E1.41903
G1 X100.637 Y90.06 E.01311
G1 X100.637 Y44.8 E1.4191
G1 X100.218 Y44.8 E.01314
G1 X100.218 Y90.062 E1.41916
G1 X99.799 Y90.064 E.01314
G1 X99.799 Y44.8 E1.41922
G1 X99.38 Y44.8 E.01314
G1 X99.38 Y90.067 E1.41931
G1 X98.961 Y90.069 E.01314
G1 X98.961 Y44.8 E1.41938
G1 X98.542 Y44.8 E.01314
G1 X98.542 Y90.071 E1.41944
G1 X98.123 Y90.073 E.01314
G1 X98.123 Y44.8 E1.4195
G1 X97.704 Y44.8 E.01314
G1 X97.704 Y90.076 E1.4196
G1 X97.285 Y90.078 E.01314
G1 X97.285 Y44.8 E1.41966
G1 X96.866 Y44.8 E.01314
G1 X96.866 Y90.08 E1.41972
G1 X96.447 Y90.082 E.01314
M73 P4 R56
G1 X96.447 Y44.8 E1.41979
G1 X96.028 Y44.8 E.01314
G1 X96.028 Y90.085 E1.41988
G1 X95.609 Y90.087 E.01314
G1 X95.609 Y44.8 E1.41994
G1 X95.19 Y44.8 E.01314
G1 X95.19 Y90.089 E1.42
G1 X94.771 Y90.091 E.01314
G1 X94.771 Y44.8 E1.42007
G1 X94.352 Y44.8 E.01314
G1 X94.352 Y90.094 E1.42016
G1 X93.933 Y90.096 E.01314
G1 X93.933 Y44.8 E1.42022
G1 X93.514 Y44.8 E.01314
G1 X93.514 Y90.098 E1.42029
G1 X93.095 Y90.1 E.01314
G1 X93.095 Y44.8 E1.42035
G1 X92.676 Y44.8 E.01314
G1 X92.676 Y63.85 E.5973
G1 X92.257 Y63.85 E.01314
G1 X92.257 Y44.8 E.5973
G1 X91.838 Y44.8 E.01314
G1 X91.838 Y63.85 E.5973
G1 X91.419 Y63.85 E.01314
G1 X91.419 Y44.8 E.5973
G1 X91 Y44.8 E.01314
G1 X91 Y63.85 E.5973
G1 X90.581 Y63.85 E.01314
G1 X90.581 Y44.8 E.5973
G1 X90.162 Y44.8 E.01314
G1 X90.162 Y63.85 E.5973
G1 X89.743 Y63.85 E.01314
G1 X89.743 Y44.8 E.5973
G1 X89.324 Y44.8 E.01314
G1 X89.324 Y63.85 E.5973
G1 X88.905 Y63.85 E.01314
G1 X88.905 Y44.8 E.5973
G1 X88.486 Y44.8 E.01314
G1 X88.486 Y63.85 E.5973
G1 X88.067 Y63.85 E.01314
M73 P4 R55
G1 X88.067 Y44.8 E.5973
G1 X87.648 Y44.8 E.01314
G1 X87.648 Y63.85 E.5973
G1 X87.229 Y63.85 E.01314
G1 X87.229 Y44.8 E.5973
G1 X86.81 Y44.8 E.01314
G1 X86.81 Y90.134 E1.42142
G1 X87.229 Y90.132 E.01314
M73 P5 R55
G1 X87.229 Y70.177 E.62568
G1 X87.648 Y70.177 E.01314
G1 X87.648 Y90.13 E.62561
G1 X88.067 Y90.127 E.01314
G1 X88.067 Y70.177 E.62552
G1 X88.486 Y70.177 E.01314
G1 X88.486 Y90.125 E.62546
G1 X88.905 Y90.123 E.01314
G1 X88.905 Y70.177 E.62539
G1 X89.324 Y70.177 E.01314
G1 X89.324 Y90.121 E.62533
G1 X89.743 Y90.118 E.01314
G1 X89.743 Y70.177 E.62524
G1 X90.162 Y70.177 E.01314
G1 X90.162 Y90.116 E.62517
G1 X90.581 Y90.114 E.01314
G1 X90.581 Y70.177 E.62511
G1 X91 Y70.177 E.01314
G1 X91 Y90.112 E.62505
G1 X91.419 Y90.109 E.01314
G1 X91.419 Y70.177 E.62495
G1 X91.838 Y70.177 E.01314
G1 X91.838 Y90.107 E.62489
G1 X92.257 Y90.105 E.01314
G1 X92.257 Y70.177 E.62483
G1 X92.676 Y70.177 E.01314
G1 X92.676 Y90.272 E.63006
M204 P1000
G1 X86.391 Y90.306 F9000
M204 P600
G1 F1200
G1 X86.391 Y44.8 E1.42681
G1 X85.972 Y44.8 E.01314
G1 X85.972 Y90.139 E1.42157
G1 X85.553 Y90.141 E.01314
G1 X85.553 Y44.8 E1.42164
G1 X85.134 Y44.8 E.01314
G1 X85.134 Y90.143 E1.4217
G1 X84.715 Y90.145 E.01314
G1 X84.715 Y44.8 E1.42176
G1 X84.296 Y44.8 E.01314
G1 X84.296 Y90.148 E1.42185
G1 X83.877 Y90.15 E.01314
G1 X83.877 Y44.8 E1.42192
G1 X83.458 Y44.8 E.01314
G1 X83.458 Y90.152 E1.42198
G1 X83.039 Y90.154 E.01314
G1 X83.039 Y44.8 E1.42204
G1 X82.621 Y44.8 E.01311
M73 P6 R55
G1 X82.62 Y90.157 E1.42214
G1 X82.202 Y90.159 E.01311
G1 X82.202 Y44.8 E1.4222
G1 X81.783 Y44.8 E.01314
G1 X81.783 Y90.161 E1.42226
G1 X81.364 Y90.163 E.01314
G1 X81.364 Y44.8 E1.42233
G1 X80.945 Y44.8 E.01314
G1 X80.945 Y90.166 E1.42242
G1 X80.526 Y90.168 E.01314
G1 X80.526 Y44.8 E1.42248
G1 X80.107 Y44.8 E.01314
G1 X80.107 Y90.17 E1.42254
G1 X79.688 Y90.172 E.01314
G1 X79.688 Y44.8 E1.42261
G1 X79.269 Y44.8 E.01314
G1 X79.269 Y90.175 E1.4227
G1 X78.85 Y90.177 E.01314
M73 P6 R54
G1 X78.85 Y44.8 E1.42276
G1 X78.431 Y44.8 E.01314
G1 X78.431 Y90.179 E1.42283
G1 X78.012 Y90.181 E.01314
G1 X78.012 Y44.8 E1.42289
G1 X77.593 Y44.8 E.01314
G1 X77.593 Y90.184 E1.42298
G1 X77.174 Y90.186 E.01314
G1 X77.174 Y44.8 E1.42305
G1 X76.755 Y44.8 E.01314
G1 X76.755 Y90.188 E1.42311
G1 X76.336 Y90.19 E.01314
M73 P7 R54
G1 X76.336 Y44.8 E1.42317
G1 X75.917 Y44.8 E.01314
G1 X75.917 Y90.193 E1.42327
G1 X75.498 Y90.195 E.01314
G1 X75.498 Y44.8 E1.42333
G1 X75.079 Y44.8 E.01314
G1 X75.079 Y90.197 E1.42339
G1 X74.66 Y90.199 E.01314
G1 X74.66 Y44.8 E1.42345
G1 X74.241 Y44.8 E.01314
G1 X74.241 Y90.201 E1.42352
G1 X73.822 Y90.204 E.01314
G1 X73.822 Y44.8 E1.42361
G1 X73.403 Y44.8 E.01314
G1 X73.403 Y90.206 E1.42367
G1 X72.984 Y90.208 E.01314
G1 X72.984 Y44.8 E1.42374
G1 X72.565 Y44.8 E.01314
G1 X72.565 Y90.21 E1.4238
G1 X72.146 Y90.213 E.01314
G1 X72.146 Y44.8 E1.42389
G1 X71.727 Y44.8 E.01314
G1 X71.727 Y90.215 E1.42396
G1 X71.667 Y90.215 E.00188
G1 X71.308 Y90.578 E.01601
G1 X71.308 Y44.8 E1.43534
G1 X70.889 Y44.8 E.01314
G1 X70.889 Y93.842 E1.53768
G1 X70.47 Y93.842 E.01314
G1 X70.47 Y44.8 E1.53768
G1 X70.051 Y44.8 E.01314
M73 P8 R54
G1 X70.051 Y93.842 E1.53768
G1 X69.632 Y93.842 E.01314
G1 X69.632 Y44.8 E1.53768
G1 X69.213 Y44.8 E.01314
G1 X69.213 Y93.842 E1.53768
G1 X68.794 Y93.842 E.01314
G1 X68.794 Y44.8 E1.53768
G1 X68.375 Y44.8 E.01314
M73 P8 R53
G1 X68.375 Y93.842 E1.53768
G1 X67.956 Y93.842 E.01314
G1 X67.956 Y44.63 E1.54301
M204 P1000
G1 E-2.7 F4200
G1 Z.4 F720
G1 X72.802 Y91.816 F9000
G1 Z.2 F720
G1 E2.7 F2400
M204 P600
;TYPE:Perimeter
;WIDTH:0.419999
G1 F1200
G1 X109.228 Y91.62 E1.14213
G1 X109.423 Y128.046 E1.14213
G1 X72.998 Y128.241 E1.14209
G1 X72.803 Y91.876 E1.14021
M204 P1000
G1 X72.423 Y91.441 F9000
M204 P600
;TYPE:External perimeter
G1 F1200
G1 X109.603 Y91.241 E1.16577
G1 X109.802 Y128.421 E1.16577
G1 X72.623 Y128.62 E1.16574
G1 X72.424 Y91.501 E1.16385
M204 P1000
G1 X72.81 Y91.542 F9000
G1 E-2.7 F4200
G1 Z.4 F720
G1 X109.063 Y92.56 F9000
G1 Z.2 F720
G1 E2.7 F2400
M204 P600
;TYPE:Solid infill
;WIDTH:0.421339
G1 F1200
G1 X108.467 Y91.964 E.02652
G1 X107.934 Y91.967 E.01677
G1 X108.895 Y92.928 E.04276
G1 X108.898 Y93.466 E.01693
G1 X107.402 Y91.97 E.06657
G1 X106.87 Y91.972 E.01674
G1 X108.901 Y94.004 E.0904
G1 X108.904 Y94.542 E.01693
G1 X106.337 Y91.975 E.11423
G1 X105.805 Y91.978 E.01674
G1 X108.907 Y95.08 E.13804
G1 X108.91 Y95.618 E.01693
G1 X105.273 Y91.981 E.16184
G1 X104.74 Y91.984 E.01677
G1 X108.913 Y96.156 E.18567
G1 X108.915 Y96.694 E.01693
G1 X104.208 Y91.987 E.20946
G1 X103.676 Y91.99 E.01674
G1 X108.918 Y97.232 E.23326
G1 X108.921 Y97.77 E.01693
G1 X103.143 Y91.992 E.25712
G1 X102.611 Y91.995 E.01674
G1 X108.924 Y98.308 E.28092
G1 X108.927 Y98.846 E.01693
M73 P9 R53
G1 X102.079 Y91.998 E.30473
G1 X101.547 Y92.001 E.01674
G1 X108.93 Y99.384 E.32854
G1 X108.933 Y99.922 E.01693
G1 X101.014 Y92.004 E.35237
G1 X100.482 Y92.007 E.01674
G1 X108.936 Y100.46 E.37617
G1 X108.939 Y100.998 E.01693
G1 X99.95 Y92.01 E.39998
G1 X99.417 Y92.012 E.01677
G1 X108.941 Y101.536 E.42381
G1 X108.944 Y102.075 E.01696
G1 X98.885 Y92.015 E.44764
G1 X98.353 Y92.018 E.01674
G1 X108.947 Y102.613 E.47145
G1 X108.95 Y103.151 E.01693
G1 X97.82 Y92.021 E.49528
G1 X97.288 Y92.024 E.01674
G1 X108.953 Y103.689 E.51908
G1 X108.956 Y104.227 E.01693
G1 X96.756 Y92.027 E.54289
G1 X96.223 Y92.029 E.01677
G1 X108.959 Y104.765 E.56674
G1 X108.962 Y105.303 E.01693
G1 X95.691 Y92.032 E.59055
G1 X95.159 Y92.035 E.01674
G1 X108.964 Y105.841 E.61433
G1 X108.967 Y106.379 E.01693
G1 X94.627 Y92.038 E.63814
G1 X94.094 Y92.041 E.01677
G1 X108.97 Y106.917 E.66197
G1 X108.973 Y107.455 E.01693
G1 X93.562 Y92.044 E.68578
G1 X93.03 Y92.047 E.01674
G1 X108.976 Y107.993 E.70958
G1 X108.979 Y108.531 E.01693
G1 X92.497 Y92.049 E.73344
G1 X91.965 Y92.052 E.01674
G1 X108.982 Y109.069 E.75724
G1 X108.985 Y109.607 E.01693
G1 X91.433 Y92.055 E.78105
G1 X90.9 Y92.058 E.01677
G1 X108.988 Y110.145 E.80488
G1 X108.99 Y110.683 E.01693
G1 X90.368 Y92.061 E.82866
G1 X89.836 Y92.064 E.01674
G1 X108.993 Y111.221 E.85247
G1 X108.996 Y111.759 E.01693
G1 X89.303 Y92.067 E.8763
G1 X88.771 Y92.069 E.01674
G1 X108.999 Y112.297 E.90013
G1 X109.002 Y112.836 E.01696
G1 X88.239 Y92.072 E.92396
G1 X87.706 Y92.075 E.01677
G1 X109.005 Y113.374 E.94779
G1 X109.008 Y113.912 E.01693
G1 X87.174 Y92.078 E.97159
G1 X86.642 Y92.081 E.01674
G1 X109.011 Y114.45 E.9954
G1 X109.014 Y114.988 E.01693
G1 X86.11 Y92.084 E1.01921
G1 X85.577 Y92.087 E.01677
G1 X109.016 Y115.526 E1.04302
G1 X109.019 Y116.064 E.01693
M73 P10 R52
G1 X85.045 Y92.089 E1.06685
G1 X84.513 Y92.092 E.01674
G1 X109.022 Y116.602 E1.09065
G1 X109.025 Y117.14 E.01693
G1 X83.98 Y92.095 E1.11448
G1 X83.448 Y92.098 E.01674
G1 X109.028 Y117.678 E1.13829
G1 X109.031 Y118.216 E.01693
G1 X82.916 Y92.101 E1.1621
G1 X82.383 Y92.104 E.01677
G1 X109.034 Y118.754 E1.18593
G1 X109.037 Y119.292 E.01693
G1 X81.851 Y92.107 E1.20973
G1 X81.319 Y92.109 E.01674
G1 X109.039 Y119.83 E1.23354
G1 X109.042 Y120.368 E.01693
G1 X80.786 Y92.112 E1.25737
G1 X80.254 Y92.115 E.01674
G1 X109.045 Y120.906 E1.28118
G1 X109.048 Y121.444 E.01693
G1 X79.722 Y92.118 E1.30498
G1 X79.189 Y92.121 E.01677
G1 X109.051 Y121.982 E1.32881
G1 X109.054 Y122.52 E.01693
G1 X78.657 Y92.124 E1.35262
G1 X78.125 Y92.127 E.01674
G1 X109.057 Y123.058 E1.37643
G1 X109.06 Y123.597 E.01696
G1 X77.593 Y92.129 E1.40028
G1 X77.06 Y92.132 E.01677
G1 X109.063 Y124.135 E1.42411
G1 X109.065 Y124.673 E.01693
G1 X76.528 Y92.135 E1.44789
G1 X75.996 Y92.138 E.01674
G1 X109.068 Y125.211 E1.4717
M73 P11 R52
G1 X109.071 Y125.749 E.01693
G1 X75.463 Y92.141 E1.49553
G1 X74.931 Y92.144 E.01674
G1 X109.074 Y126.287 E1.51934
G1 X109.077 Y126.825 E.01693
G1 X74.399 Y92.146 E1.54316
G1 X73.866 Y92.149 E.01677
G1 X109.08 Y127.363 E1.56699
G1 X109.082 Y127.708 E.01086
G1 X108.891 Y127.709 E.00601
G1 X73.334 Y92.152 E1.58226
G1 X73.144 Y92.153 E.00598
G1 X73.145 Y92.499 E.01089
G1 X108.359 Y127.712 E1.56697
G1 X107.826 Y127.715 E.01677
G1 X73.148 Y93.037 E1.54314
G1 X73.151 Y93.575 E.01693
G1 X107.294 Y127.718 E1.51934
G1 X106.762 Y127.721 E.01674
G1 X73.154 Y94.113 E1.49553
G1 X73.157 Y94.651 E.01693
M73 P11 R51
G1 X106.229 Y127.723 E1.47168
G1 X105.697 Y127.726 E.01674
G1 X73.16 Y95.189 E1.44787
G1 X73.163 Y95.727 E.01693
G1 X105.165 Y127.729 E1.42406
G1 X104.633 Y127.732 E.01674
G1 X73.166 Y96.265 E1.40026
G1 X73.168 Y96.803 E.01693
G1 X104.1 Y127.735 E1.37645
G1 X103.568 Y127.738 E.01674
M73 P12 R51
G1 X73.171 Y97.341 E1.35264
G1 X73.174 Y97.879 E.01693
G1 X103.036 Y127.741 E1.32883
G1 X102.503 Y127.743 E.01677
G1 X73.177 Y98.417 E1.30498
G1 X73.18 Y98.955 E.01693
G1 X101.971 Y127.746 E1.28118
G1 X101.439 Y127.749 E.01674
G1 X73.183 Y99.493 E1.25737
G1 X73.186 Y100.031 E.01693
G1 X100.906 Y127.752 E1.23354
G1 X100.374 Y127.755 E.01674
G1 X73.189 Y100.569 E1.20973
G1 X73.191 Y101.107 E.01693
G1 X99.842 Y127.758 E1.18595
G1 X99.309 Y127.761 E.01677
G1 X73.194 Y101.646 E1.1621
G1 X73.197 Y102.184 E.01693
G1 X98.777 Y127.763 E1.13827
G1 X98.245 Y127.766 E.01674
G1 X73.2 Y102.722 E1.11446
G1 X73.203 Y103.26 E.01693
G1 X97.712 Y127.769 E1.09063
G1 X97.18 Y127.772 E.01674
G1 X73.206 Y103.798 E1.06682
G1 X73.209 Y104.336 E.01693
G1 X96.648 Y127.775 E1.04302
G1 X96.116 Y127.778 E.01674
G1 X73.212 Y104.874 E1.01921
G1 X73.215 Y105.412 E.01693
G1 X95.583 Y127.781 E.99538
G1 X95.051 Y127.783 E.01674
G1 X73.217 Y105.95 E.97157
G1 X73.22 Y106.488 E.01693
G1 X94.519 Y127.786 E.94777
G1 X93.986 Y127.789 E.01677
G1 X73.223 Y107.026 E.92394
G1 X73.226 Y107.564 E.01693
M73 P13 R51
G1 X93.454 Y127.792 E.90013
G1 X92.922 Y127.795 E.01674
G1 X73.229 Y108.102 E.87632
G1 X73.232 Y108.64 E.01693
G1 X92.389 Y127.798 E.85249
G1 X91.857 Y127.801 E.01674
