; generated by PrusaSlicer 2.6.1+win64 on 2023-10-12 at 17:15:52 UTC


;
;

;
;

;
;
; 

; external perimeters extrusion width = 0.45mm
; perimeters extrusion width = 0.45mm
; infill extrusion width = 0.45mm
; solid infill extrusion width = 0.45mm
; top infill extrusion width = 0.40mm
; first layer extrusion width = 0.42mm

M73 P0 R47
M201 X2500 Y2500 Z400 E5000 ; sets maximum accelerations, mm/sec^2
M203 X180 Y180 Z12 E80 ; sets maximum feedrates, mm / sec
M204 P2000 R1250 T2500 ; sets acceleration (P, T) and retract acceleration (R), mm/sec^2
M205 X8.00 Y8.00 Z2.00 E10.00 ; sets the jerk limits, mm/sec
M205 S0 T0 ; sets the minimum extruding and travel feed rate, mm/sec
;TYPE:Custom
M862.3 P "MINI" ; printer model check
G90 ; use absolute coordinates
M83 ; extruder relative mode
M104 S170 ; set extruder temp for bed leveling
M140 S100 ; set bed temp
M109 R170 ; wait for bed leveling temp
M190 S100 ; wait for bed temp
M204 T1250 ; set travel acceleration
G28 ; home all without mesh bed level
G29 ; mesh bed leveling 
M204 T2500 ; restore travel acceleration
M104 S255 ; set extruder temp
G92 E0
G1 Y-2 X179 F2400
G1 Z3 F720
M109 S255 ; wait for extruder temp

; intro line
G1 X170 F1000
G1 Z0.2 F720
G1 X110 E8 F900
G1 X40 E10 F700
G92 E0

M221 S95 ; set flow
G21 ; set units to millimeters
G90 ; use absolute coordinates
M83 ; use relative distances for extrusion
M900 K0.2 ; Filament gcode

M107
;LAYER_CHANGE
;Z:0.2
;HEIGHT:0.2
;BEFORE_LAYER_CHANGE
G92 E0.0
;0.2


G1 E-2.7 F4200
M73 P0 R46
G1 Z.2 F720
;AFTER_LAYER_CHANGE
;0.2
G1 Z.4
G1 X69.015 Y48.693 F9000
G1 Z.2 F720
G1 E2.7 F2400
M204 P600
;TYPE:Skirt/Brim
;WIDTH:0.42
G1 F1200
G1 X70.06 Y47.817 E.04275
G1 X71 Y47.623 E.03009
G1 X109 Y47.623 E1.19146
G1 X110.307 Y48.015 E.04278
G1 X111.183 Y49.06 E.04275
G1 X111.377 Y50 E.03009
G1 X111.377 Y88 E1.19146
G1 X110.985 Y89.307 E.04278
G1 X109.94 Y90.183 E.04275
G1 X109 Y90.377 E.03009
G1 X71 Y90.377 E1.19146
G1 X69.693 Y89.985 E.04278
G1 X68.817 Y88.94 E.04275
G1 X68.623 Y88 E.03009
G1 X68.623 Y50 E1.19146
G1 X68.997 Y48.75 E.04091
M204 P1000
; printing object Mount (1).stl id:0 copy 0
G1 E-2.7 F4200
G1 Z.4 F720
G1 X71.787 Y87.213 F9000
G1 Z.2 F720
G1 E2.7 F2400
M204 P600
;TYPE:Perimeter
;WIDTH:0.419999
G1 F1200
G1 X71.787 Y50.787 E1.14211
G1 X108.213 Y50.787 E1.14211
G1 X108.213 Y87.213 E1.14211
M73 P1 R46
G1 X71.847 Y87.213 E1.14023
M204 P1000
G1 X71.41 Y87.59 F9000
M204 P600
;TYPE:External perimeter
G1 F1200
G1 X71.41 Y50.41 E1.16575
G1 X108.59 Y50.41 E1.16575
G1 X108.59 Y87.59 E1.16575
G1 X71.47 Y87.59 E1.16387
M204 P1000
G1 X71.514 Y87.204 F9000
G1 E-2.7 F4200
G1 Z.4 F720
G1 X108.043 Y51.722 F9000
G1 Z.2 F720
G1 E2.7 F2400
M204 P600
;TYPE:Solid infill
;WIDTH:0.421344
G1 F1200
G1 X107.448 Y51.126 E.0265
G1 X106.913 Y51.126 E.01683
G1 X107.874 Y52.087 E.04276
G1 X107.874 Y52.623 E.01687
G1 X106.377 Y51.126 E.06662
G1 X105.842 Y51.126 E.01683
G1 X107.874 Y53.158 E.09042
G1 X107.874 Y53.693 E.01683
G1 X105.307 Y51.126 E.11423
G1 X104.772 Y51.126 E.01683
G1 X107.874 Y54.228 E.13804
G1 X107.874 Y54.763 E.01683
G1 X104.237 Y51.126 E.16185
G1 X103.702 Y51.126 E.01683
G1 X107.874 Y55.298 E.18565
G1 X107.874 Y55.834 E.01687
G1 X103.166 Y51.126 E.2095
G1 X102.631 Y51.126 E.01683
G1 X107.874 Y56.369 E.23331
G1 X107.874 Y56.904 E.01683
G1 X102.096 Y51.126 E.25712
G1 X101.561 Y51.126 E.01683
G1 X107.874 Y57.439 E.28093
G1 X107.874 Y57.974 E.01683
G1 X101.026 Y51.126 E.30473
G1 X100.491 Y51.126 E.01683
G1 X107.874 Y58.509 E.32854
G1 X107.874 Y59.045 E.01687
G1 X99.955 Y51.126 E.35239
G1 X99.42 Y51.126 E.01683
G1 X107.874 Y59.58 E.3762
G1 X107.874 Y60.115 E.01683
G1 X98.885 Y51.126 E.40001
G1 X98.35 Y51.126 E.01683
G1 X107.874 Y60.65 E.42382
G1 X107.874 Y61.185 E.01683
G1 X97.815 Y51.126 E.44762
G1 X97.28 Y51.126 E.01683
G1 X107.874 Y61.72 E.47143
G1 X107.874 Y62.256 E.01687
G1 X96.744 Y51.126 E.49528
G1 X96.209 Y51.126 E.01683
G1 X107.874 Y62.791 E.51909
G1 X107.874 Y63.326 E.01683
G1 X95.674 Y51.126 E.5429
G1 X95.139 Y51.126 E.01683
G1 X107.874 Y63.861 E.5667
G1 X107.874 Y64.396 E.01683
G1 X94.604 Y51.126 E.59051
G1 X94.068 Y51.126 E.01687
G1 X107.874 Y64.932 E.61436
G1 X107.874 Y65.467 E.01683
G1 X93.533 Y51.126 E.63817
G1 X92.998 Y51.126 E.01683
G1 X107.874 Y66.002 E.66198
G1 X107.874 Y66.537 E.01683
M73 P2 R46
G1 X92.463 Y51.126 E.68579
G1 X91.928 Y51.126 E.01683
G1 X107.874 Y67.072 E.70959
G1 X107.874 Y67.607 E.01683
G1 X91.393 Y51.126 E.7334
G1 X90.857 Y51.126 E.01687
G1 X107.874 Y68.143 E.75725
G1 X107.874 Y68.678 E.01683
G1 X90.322 Y51.126 E.78106
G1 X89.787 Y51.126 E.01683
G1 X107.874 Y69.213 E.80487
G1 X107.874 Y69.748 E.01683
G1 X89.252 Y51.126 E.82867
G1 X88.717 Y51.126 E.01683
G1 X107.874 Y70.283 E.85248
G1 X107.874 Y70.818 E.01683
G1 X88.182 Y51.126 E.87629
G1 X87.646 Y51.126 E.01687
G1 X107.874 Y71.354 E.90014
G1 X107.874 Y71.889 E.01683
G1 X87.111 Y51.126 E.92395
G1 X86.576 Y51.126 E.01683
M73 P2 R45
G1 X107.874 Y72.424 E.94776
G1 X107.874 Y72.959 E.01683
G1 X86.041 Y51.126 E.97156
G1 X85.506 Y51.126 E.01683
G1 X107.874 Y73.494 E.99537
G1 X107.874 Y74.029 E.01683
G1 X84.971 Y51.126 E1.01918
G1 X84.435 Y51.126 E.01687
G1 X107.874 Y74.565 E1.04303
G1 X107.874 Y75.1 E.01683
G1 X83.9 Y51.126 E1.06684
G1 X83.365 Y51.126 E.01683
G1 X107.874 Y75.635 E1.09064
G1 X107.874 Y76.17 E.01683
G1 X82.83 Y51.126 E1.11445
G1 X82.295 Y51.126 E.01683
M73 P3 R45
G1 X107.874 Y76.705 E1.13826
G1 X107.874 Y77.24 E.01683
G1 X81.76 Y51.126 E1.16207
G1 X81.224 Y51.126 E.01687
G1 X107.874 Y77.776 E1.18592
G1 X107.874 Y78.311 E.01683
G1 X80.689 Y51.126 E1.20973
G1 X80.154 Y51.126 E.01683
G1 X107.874 Y78.846 E1.23353
G1 X107.874 Y79.381 E.01683
G1 X79.619 Y51.126 E1.25734
G1 X79.084 Y51.126 E.01683
G1 X107.874 Y79.916 E1.28115
G1 X107.874 Y80.452 E.01687
G1 X78.548 Y51.126 E1.305
G1 X78.013 Y51.126 E.01683
G1 X107.874 Y80.987 E1.32881
G1 X107.874 Y81.522 E.01683
G1 X77.478 Y51.126 E1.35261
G1 X76.943 Y51.126 E.01683
G1 X107.874 Y82.057 E1.37642
G1 X107.874 Y82.592 E.01683
G1 X76.408 Y51.126 E1.40023
G1 X75.873 Y51.126 E.01683
G1 X107.874 Y83.127 E1.42404
G1 X107.874 Y83.663 E.01687
G1 X75.337 Y51.126 E1.44789
G1 X74.802 Y51.126 E.01683
M73 P4 R45
G1 X107.874 Y84.198 E1.4717
G1 X107.874 Y84.733 E.01683
G1 X74.267 Y51.126 E1.4955
G1 X73.732 Y51.126 E.01683
G1 X107.874 Y85.268 E1.51931
G1 X107.874 Y85.803 E.01683
G1 X73.197 Y51.126 E1.54312
G1 X72.662 Y51.126 E.01683
G1 X107.874 Y86.338 E1.56693
G1 X107.874 Y86.874 E.01687
G1 X72.126 Y51.126 E1.59078
G1 X72.126 Y51.662 E.01687
G1 X107.338 Y86.874 E1.56693
G1 X106.803 Y86.874 E.01683
M73 P4 R44
G1 X72.126 Y52.197 E1.54312
G1 X72.126 Y52.732 E.01683
G1 X106.268 Y86.874 E1.51931
G1 X105.733 Y86.874 E.01683
G1 X72.126 Y53.267 E1.4955
G1 X72.126 Y53.802 E.01683
G1 X105.198 Y86.874 E1.4717
G1 X104.662 Y86.874 E.01687
M73 P5 R44
G1 X72.126 Y54.338 E1.44784
G1 X72.126 Y54.873 E.01683
G1 X104.127 Y86.874 E1.42404
G1 X103.592 Y86.874 E.01683
G1 X72.126 Y55.408 E1.40023
G1 X72.126 Y55.943 E.01683
G1 X103.057 Y86.874 E1.37642
G1 X102.522 Y86.874 E.01683
G1 X72.126 Y56.478 E1.35261
G1 X72.126 Y57.013 E.01683
G1 X101.987 Y86.874 E1.32881
G1 X101.451 Y86.874 E.01687
G1 X72.126 Y57.549 E1.30496
G1 X72.126 Y58.084 E.01683
G1 X100.916 Y86.874 E1.28115
G1 X100.381 Y86.874 E.01683
G1 X72.126 Y58.619 E1.25734
G1 X72.126 Y59.154 E.01683
G1 X99.846 Y86.874 E1.23353
G1 X99.311 Y86.874 E.01683
G1 X72.126 Y59.689 E1.20973
G1 X72.126 Y60.224 E.01683
G1 X98.776 Y86.874 E1.18592
G1 X98.24 Y86.874 E.01687
G1 X72.126 Y60.76 E1.16207
G1 X72.126 Y61.295 E.01683
G1 X97.705 Y86.874 E1.13826
G1 X97.17 Y86.874 E.01683
M73 P6 R44
G1 X72.126 Y61.83 E1.11445
G1 X72.126 Y62.365 E.01683
G1 X96.635 Y86.874 E1.09064
G1 X96.1 Y86.874 E.01683
G1 X72.126 Y62.9 E1.06684
G1 X72.126 Y63.435 E.01683
G1 X95.565 Y86.874 E1.04303
G1 X95.029 Y86.874 E.01687
G1 X72.126 Y63.971 E1.01918
G1 X72.126 Y64.506 E.01683
G1 X94.494 Y86.874 E.99537
G1 X93.959 Y86.874 E.01683
G1 X72.126 Y65.041 E.97156
G1 X72.126 Y65.576 E.01683
G1 X93.424 Y86.874 E.94776
G1 X92.889 Y86.874 E.01683
G1 X72.126 Y66.111 E.92395
G1 X72.126 Y66.646 E.01683
G1 X92.354 Y86.874 E.90014
G1 X91.818 Y86.874 E.01687
G1 X72.126 Y67.182 E.87629
G1 X72.126 Y67.717 E.01683
G1 X91.283 Y86.874 E.85248
G1 X90.748 Y86.874 E.01683
M73 P6 R43
G1 X72.126 Y68.252 E.82867
G1 X72.126 Y68.787 E.01683
G1 X90.213 Y86.874 E.80487
G1 X89.678 Y86.874 E.01683
G1 X72.126 Y69.322 E.78106
G1 X72.126 Y69.858 E.01687
G1 X89.142 Y86.874 E.75721
G1 X88.607 Y86.874 E.01683
G1 X72.126 Y70.393 E.7334
G1 X72.126 Y70.928 E.01683
G1 X88.072 Y86.874 E.70959
G1 X87.537 Y86.874 E.01683
G1 X72.126 Y71.463 E.68579
G1 X72.126 Y71.998 E.01683
M73 P7 R43
G1 X87.002 Y86.874 E.66198
G1 X86.467 Y86.874 E.01683
G1 X72.126 Y72.533 E.63817
G1 X72.126 Y73.069 E.01687
G1 X85.931 Y86.874 E.61432
G1 X85.396 Y86.874 E.01683
G1 X72.126 Y73.604 E.59051
G1 X72.126 Y74.139 E.01683
G1 X84.861 Y86.874 E.5667
G1 X84.326 Y86.874 E.01683
G1 X72.126 Y74.674 E.5429
G1 X72.126 Y75.209 E.01683
G1 X83.791 Y86.874 E.51909
G1 X83.256 Y86.874 E.01683
G1 X72.126 Y75.744 E.49528
G1 X72.126 Y76.28 E.01687
G1 X82.72 Y86.874 E.47143
G1 X82.185 Y86.874 E.01683
G1 X72.126 Y76.815 E.44762
G1 X72.126 Y77.35 E.01683
G1 X81.65 Y86.874 E.42382
G1 X81.115 Y86.874 E.01683
G1 X72.126 Y77.885 E.40001
G1 X72.126 Y78.42 E.01683
G1 X80.58 Y86.874 E.3762
G1 X80.045 Y86.874 E.01683
G1 X72.126 Y78.955 E.35239
G1 X72.126 Y79.491 E.01687
G1 X79.509 Y86.874 E.32854
G1 X78.974 Y86.874 E.01683
G1 X72.126 Y80.026 E.30473
G1 X72.126 Y80.561 E.01683
G1 X78.439 Y86.874 E.28093
G1 X77.904 Y86.874 E.01683
G1 X72.126 Y81.096 E.25712
G1 X72.126 Y81.631 E.01683
G1 X77.369 Y86.874 E.23331
G1 X76.834 Y86.874 E.01683
G1 X72.126 Y82.166 E.2095
G1 X72.126 Y82.702 E.01687
G1 X76.298 Y86.874 E.18565
G1 X75.763 Y86.874 E.01683
G1 X72.126 Y83.237 E.16185
G1 X72.126 Y83.772 E.01683
G1 X75.228 Y86.874 E.13804
G1 X74.693 Y86.874 E.01683
G1 X72.126 Y84.307 E.11423
G1 X72.126 Y84.842 E.01683
G1 X74.158 Y86.874 E.09042
G1 X73.622 Y86.874 E.01687
G1 X72.126 Y85.378 E.06657
G1 X72.126 Y85.913 E.01683
G1 X73.087 Y86.874 E.04276
G1 X72.552 Y86.874 E.01683
G1 X71.957 Y86.278 E.0265
M204 P1000
; stop printing object Mount (1).stl id:0 copy 0
;LAYER_CHANGE
;Z:0.4
;HEIGHT:0.2
;BEFORE_LAYER_CHANGE
G92 E0.0
;0.4


G1 E-2.7 F4200
G1 Z.4 F720
;AFTER_LAYER_CHANGE
;0.4
G1 Z.6
G1 X68.623 Y86.278 F9000
G1 Z.4 F720
G1 E2.7 F2400
;TYPE:Skirt/Brim
;WIDTH:0.42
G1 X68.623 Y50 E1.13747
G1 X69.015 Y48.693 E.04278
G1 X70.06 Y47.817 E.04275
G1 X71 Y47.623 E.03009
G1 X109 Y47.623 E1.19146
G1 X110.307 Y48.015 E.04278
G1 X111.183 Y49.06 E.04275
G1 X111.377 Y50 E.03009
G1 X111.377 Y88 E1.19146
G1 X110.985 Y89.307 E.04278
G1 X109.94 Y90.183 E.04275
G1 X109 Y90.377 E.03009
G1 X71 Y90.377 E1.19146
G1 X69.693 Y89.985 E.04278
G1 X68.817 Y88.94 E.04275
G1 X68.623 Y88 E.03009
G1 X68.623 Y86.338 E.05211
; printing object Mount (1).stl id:0 copy 0
G1 E-2.7 F4200
G1 Z.6 F720
G1 X71.632 Y87.368 F9000
G1 Z.4 F720
G1 E2.7 F2400
M204 P900
;TYPE:Perimeter
;WIDTH:0.449999
G1 X71.632 Y50.632 E1.24347
G1 X108.368 Y50.632 E1.24347
G1 X108.368 Y87.368 E1.24347
G1 X71.692 Y87.368 E1.24144
M204 P1000
G1 X71.225 Y87.775 F9000
M204 P800
;TYPE:External perimeter
G1 F1799.998

G1 X71.225 Y87.325 E.01523
G1 X71.225 Y50.675 E1.24056
G1 X71.225 Y50.225 E.01523
G1 X71.675 Y50.225 E.01523
G1 X108.325 Y50.225 E1.24056
G1 X108.775 Y50.225 E.01523
M73 P8 R43
G1 X108.775 Y50.675 E.01523
G1 X108.775 Y87.325 E1.24056
G1 X108.775 Y87.775 E.01523
G1 X108.325 Y87.775 E.01523
G1 X71.735 Y87.775 E1.23853
G1 X71.285 Y87.775 E.01523

M204 P1000
G1 X71.329 Y87.389 F9000
G1 E-2.7 F4200
G1 Z.6 F720
G1 X72.109 Y51.031 F9000
G1 Z.4 F720
G1 E2.7 F2400
M204 P1500
;TYPE:Solid infill
;WIDTH:0.548766
G1 F4800
G1 X72.064 Y50.987 E.00265
G1 X72.003 Y51.003 E.00265
G1 X71.987 Y51.064 E.00265
G1 X72.031 Y51.109 E.00265
G1 X72.093 Y51.093 E.00269
M204 P1000
G1 X71.866 Y51.888 F9000
M204 P1500
;WIDTH:0.38292
G1 F4800
G1 X71.795 Y51.869 E.00208
G1 X71.814 Y51.94 E.00208
G1 X71.855 Y51.929 E.0012
;WIDTH:0.41646
G1 X71.927 Y51.836 E.00365
;WIDTH:0.449999
G1 X71.998 Y51.743 E.00396
G1 X72.743 Y50.998 E.03566
G1 X72.836 Y50.927 E.00396
;WIDTH:0.41646
G1 X72.929 Y50.855 E.00365
;WIDTH:0.38292
G1 X72.888 Y50.866 E.0012
G1 X72.869 Y50.795 E.00208
G1 X72.94 Y50.814 E.00208
;WIDTH:0.449999
G1 X73.318 Y50.998 E.01423
G1 X71.998 Y52.318 E.06319
G1 X71.998 Y52.894 E.0195
G1 X73.894 Y50.998 E.09076
G1 X74.47 Y50.998 E.0195
G1 X71.998 Y53.47 E.11833
G1 X71.998 Y54.046 E.0195
G1 X75.046 Y50.998 E.14591
G1 X75.621 Y50.998 E.01946
G1 X71.998 Y54.621 E.17343
G1 X71.998 Y55.197 E.0195
G1 X76.197 Y50.998 E.201
G1 X76.773 Y50.998 E.0195
G1 X71.998 Y55.773 E.22858
G1 X71.998 Y56.348 E.01946
G1 X77.348 Y50.998 E.2561
G1 X77.924 Y50.998 E.0195
G1 X71.998 Y56.924 E.28367
G1 X71.998 Y57.5 E.0195
G1 X78.5 Y50.998 E.31125
G1 X79.075 Y50.998 E.01946
G1 X71.998 Y58.075 E.33877
G1 X71.998 Y58.651 E.0195
G1 X79.651 Y50.998 E.36634
G1 X80.227 Y50.998 E.0195
G1 X71.998 Y59.227 E.39392
G1 X71.998 Y59.803 E.0195
G1 X80.803 Y50.998 E.42149
G1 X81.378 Y50.998 E.01946
G1 X71.998 Y60.378 E.44901
G1 X71.998 Y60.954 E.0195
G1 X81.954 Y50.998 E.47659
G1 X82.53 Y50.998 E.0195
G1 X71.998 Y61.53 E.50416
G1 X71.998 Y62.105 E.01946
G1 X83.105 Y50.998 E.53169
G1 X83.681 Y50.998 E.0195
G1 X71.998 Y62.681 E.55926
G1 X71.998 Y63.257 E.0195
G1 X84.257 Y50.998 E.58683
G1 X84.832 Y50.998 E.01946
G1 X71.998 Y63.832 E.61436
G1 X71.998 Y64.408 E.0195
G1 X85.408 Y50.998 E.64193
G1 X85.984 Y50.998 E.0195
G1 X71.998 Y64.984 E.6695
G1 X71.998 Y65.559 E.01946
G1 X86.559 Y50.998 E.69703
G1 X87.135 Y50.998 E.0195
G1 X71.998 Y66.135 E.7246
G1 X71.998 Y66.711 E.0195
G1 X87.711 Y50.998 E.75217
G1 X88.287 Y50.998 E.0195
G1 X71.998 Y67.287 E.77974
G1 X71.998 Y67.862 E.01946
G1 X88.862 Y50.998 E.80727
G1 X89.438 Y50.998 E.0195
G1 X71.998 Y68.438 E.83484
G1 X71.998 Y69.014 E.0195
G1 X90.014 Y50.998 E.86241
G1 X90.589 Y50.998 E.01946
G1 X71.998 Y69.589 E.88994
G1 X71.998 Y70.165 E.0195
G1 X91.165 Y50.998 E.91751
G1 X91.741 Y50.998 E.0195
G1 X71.998 Y70.741 E.94509
G1 X71.998 Y71.316 E.01946
G1 X92.316 Y50.998 E.97261
G1 X92.892 Y50.998 E.0195
G1 X71.998 Y71.892 E1.00018
G1 X71.998 Y72.468 E.0195
G1 X93.468 Y50.998 E1.02776
G1 X94.044 Y50.998 E.0195
G1 X71.998 Y73.044 E1.05533
G1 X71.998 Y73.619 E.01946
G1 X94.619 Y50.998 E1.08285
G1 X95.195 Y50.998 E.0195
G1 X71.998 Y74.195 E1.11043
G1 X71.998 Y74.771 E.0195
G1 X95.771 Y50.998 E1.138
G1 X96.346 Y50.998 E.01946
G1 X71.998 Y75.346 E1.16552
G1 X71.998 Y75.922 E.0195
G1 X96.922 Y50.998 E1.1931
G1 X97.498 Y50.998 E.0195
G1 X71.998 Y76.498 E1.22067
G1 X71.998 Y77.073 E.01946
G1 X98.073 Y50.998 E1.24819
G1 X98.649 Y50.998 E.0195
G1 X71.998 Y77.649 E1.27577
G1 X71.998 Y78.225 E.0195
G1 X99.225 Y50.998 E1.30334
G1 X99.801 Y50.998 E.0195
G1 X71.998 Y78.801 E1.33091
G1 X71.998 Y79.376 E.01946
G1 X100.376 Y50.998 E1.35844
G1 X100.952 Y50.998 E.0195
G1 X71.998 Y79.952 E1.38601
G1 X71.998 Y80.528 E.0195
G1 X101.528 Y50.998 E1.41358
G1 X102.103 Y50.998 E.01946
G1 X71.998 Y81.103 E1.44111
G1 X71.998 Y81.679 E.0195
G1 X102.679 Y50.998 E1.46868
G1 X103.255 Y50.998 E.0195
G1 X71.998 Y82.255 E1.49625
G1 X71.998 Y82.83 E.01946
G1 X103.83 Y50.998 E1.52378
G1 X104.406 Y50.998 E.0195
G1 X71.998 Y83.406 E1.55135
G1 X71.998 Y83.982 E.0195
M73 P8 R42
G1 X104.982 Y50.998 E1.57892
G1 X105.557 Y50.998 E.01946
G1 X71.998 Y84.557 E1.60645
G1 X71.998 Y85.133 E.0195
G1 X106.133 Y50.998 E1.63402
G1 X106.709 Y50.998 E.0195
G1 X71.998 Y85.709 E1.66159
G1 X71.998 Y86.285 E.0195
G1 X107.285 Y50.998 E1.68917
G1 X107.86 Y50.998 E.01946
G1 X71.998 Y86.86 E1.71669
G1 X71.958 Y87.001 E.00496
;WIDTH:0.41646
G1 X71.918 Y87.142 E.00455
;WIDTH:0.38292
G1 X71.877 Y87.153 E.0012
G1 X71.858 Y87.082 E.00208
G1 X71.929 Y87.101 E.00208
;WIDTH:0.449999
G1 X72.433 Y87.002 E.01739
G1 X108.002 Y51.433 E1.70267
G1 X108.002 Y52.009 E.0195
M73 P9 R42
G1 X73.009 Y87.002 E1.67509
G1 X73.584 Y87.002 E.01946
G1 X108.002 Y52.584 E1.64757
G1 X108.002 Y53.16 E.0195
G1 X74.16 Y87.002 E1.62
G1 X74.736 Y87.002 E.0195
G1 X108.002 Y53.736 E1.59242
