; generated by PrusaSlicer 2.6.1+win64 on 2023-10-13 at 17:02:08 UTC


;
;

;
;

;
;
; 

; external perimeters extrusion width = 0.45mm
; perimeters extrusion width = 0.45mm
; infill extrusion width = 0.45mm
; solid infill extrusion width = 0.45mm
; top infill extrusion width = 0.40mm
; first layer extrusion width = 0.42mm

; external perimeters extrusion width = 0.45mm
; perimeters extrusion width = 0.45mm
; infill extrusion width = 0.45mm
; solid infill extrusion width = 0.45mm
; top infill extrusion width = 0.40mm
; first layer extrusion width = 0.42mm

M73 P0 R54
M201 X2500 Y2500 Z400 E5000 ; sets maximum accelerations, mm/sec^2
M203 X180 Y180 Z12 E80 ; sets maximum feedrates, mm / sec
M204 P2000 R1250 T2500 ; sets acceleration (P, T) and retract acceleration (R), mm/sec^2
M205 X8.00 Y8.00 Z2.00 E10.00 ; sets the jerk limits, mm/sec
M205 S0 T0 ; sets the minimum extruding and travel feed rate, mm/sec
;TYPE:Custom
M862.3 P "MINI" ; printer model check
G90 ; use absolute coordinates
M83 ; extruder relative mode
M104 S170 ; set extruder temp for bed leveling
M140 S100 ; set bed temp
M109 R170 ; wait for bed leveling temp
M190 S100 ; wait for bed temp
M204 T1250 ; set travel acceleration
G28 ; home all without mesh bed level
G29 ; mesh bed leveling 
M204 T2500 ; restore travel acceleration
M104 S255 ; set extruder temp
G92 E0
G1 Y-2 X179 F2400
G1 Z3 F720
M109 S255 ; wait for extruder temp

; intro line
G1 X170 F1000
G1 Z0.2 F720
G1 X110 E8 F900
G1 X40 E10 F700
G92 E0

M221 S95 ; set flow
G21 ; set units to millimeters
G90 ; use absolute coordinates
M83 ; use relative distances for extrusion
M900 K0.2 ; Filament gcode

M107
;LAYER_CHANGE
;Z:0.2
;HEIGHT:0.2
;BEFORE_LAYER_CHANGE
G92 E0.0
;0.2


G1 E-2.7 F4200
G1 Z.2 F720
;AFTER_LAYER_CHANGE
;0.2
G1 Z.4
G1 X47.672 Y32.812 F9000
G1 Z.2 F720
G1 E2.7 F2400
M204 P600
;TYPE:Skirt/Brim
;WIDTH:0.42
G1 F1200
G1 X48.606 Y31.818 E.04277
G1 X49.798 Y31.498 E.0387
G1 X69.878 Y31.499 E.62959
G1 X131.325 Y33.585 E1.92774
G1 X132.618 Y34.021 E.04278
G1 X133.371 Y34.898 E.03624
G1 X136.371 Y40.898 E.21033
G1 X136.622 Y41.961 E.03425
G1 X136.622 Y139.961 E3.07272
G1 X136.371 Y141.024 E.03425
G1 X133.371 Y147.024 E.21033
G1 X132.436 Y148.018 E.04279
G1 X131.245 Y148.338 E.03867
G1 X111.164 Y148.336 E.62963
G1 X49.717 Y146.251 E1.92774
G1 X48.424 Y145.815 E.04278
G1 X47.672 Y144.938 E.03622
G1 X44.672 Y138.938 E.21033
G1 X44.421 Y137.875 E.03425
G1 X44.421 Y39.875 E3.07272
G1 X44.672 Y38.812 E.03425
M73 P1 R54
G1 X47.645 Y32.866 E.20844
M204 P1000
; printing object rasp house side 1.stl id:0 copy 0
G1 E-2.7 F4200
G1 Z.4 F720
G1 X58.284 Y37.182 F9000
G1 Z.2 F720
G1 E2.7 F2400
M204 P600
;TYPE:Perimeter
;WIDTH:0.419999
G1 F1200
G1 X58.34 Y37.385 E.0066
G1 X58.549 Y37.589 E.00916
G1 X58.826 Y37.662 E.00898
G1 X60.769 Y37.662 E.06092
G1 X61.047 Y37.589 E.00901
G1 X61.256 Y37.385 E.00916
G1 X61.335 Y37.097 E.00936
G1 X61.335 Y34.662 E.07635
G1 X66.011 Y34.662 E.14661
G1 X66.011 Y37.097 E.07635
G1 X66.09 Y37.385 E.00936
G1 X66.299 Y37.589 E.00916
G1 X66.576 Y37.662 E.00898
G1 X68.519 Y37.662 E.06092
G1 X69.011 Y37.25 E.02012
G1 X69.011 Y40.097 E.08927
G1 X69.019 Y40.195 E.00308
G1 X69.091 Y40.387 E.00643
G1 X69.301 Y40.591 E.00918
G1 X69.576 Y40.662 E.00891
G1 X72.011 Y40.662 E.07635
G1 X72.011 Y42.088 E.04471
G1 X69.576 Y42.088 E.07635
G1 X69.301 Y42.16 E.00891
G1 X69.155 Y42.276 E.00585
G1 X69.06 Y42.422 E.00546
G1 X69.011 Y42.654 E.00743
G1 X69.011 Y71.763 E.91269
G1 X69.075 Y72.025 E.00846
G1 X69.272 Y72.24 E.00914
G1 X69.576 Y72.329 E.00993
G1 X72.011 Y72.329 E.07635
G1 X72.011 Y73.755 E.04471
G1 X69.576 Y73.755 E.07635
G1 X69.272 Y73.843 E.00992
G1 X69.075 Y74.058 E.00914
G1 X69.011 Y74.32 E.00846
G1 X69.011 Y103.43 E.91272
G1 X69.075 Y103.692 E.00846
G1 X69.272 Y103.907 E.00914
G1 X69.576 Y103.996 E.00993
G1 X72.011 Y103.996 E.07635
G1 X72.011 Y105.421 E.04468
G1 X69.576 Y105.421 E.07635
G1 X69.272 Y105.51 E.00993
G1 X69.075 Y105.725 E.00914
G1 X69.011 Y105.987 E.00846
G1 X69.011 Y135.115 E.91329
G1 X69.091 Y135.387 E.00889
G1 X69.301 Y135.591 E.00918
G1 X69.576 Y135.662 E.00891
G1 X72.011 Y135.662 E.07635
G1 X72.011 Y137.088 E.04471
G1 X69.576 Y137.088 E.07635
G1 X69.301 Y137.16 E.00891
G1 X69.155 Y137.276 E.00585
G1 X69.06 Y137.422 E.00546
G1 X69.011 Y137.654 E.00743
G1 X69.011 Y140.58 E.09174
G1 X68.519 Y140.088 E.02182
G1 X66.576 Y140.088 E.06092
G1 X66.299 Y140.161 E.00898
G1 X66.09 Y140.366 E.00918
G1 X66.011 Y140.654 E.00936
G1 X66.011 Y143.088 E.07632
G1 X61.335 Y143.088 E.14661
G1 X61.335 Y140.654 E.07632
G1 X61.256 Y140.366 E.00936
G1 X61.047 Y140.161 E.00918
G1 X60.769 Y140.088 E.00901
G1 X58.826 Y140.088 E.06092
G1 X58.549 Y140.161 E.00898
G1 X58.34 Y140.366 E.00918
G1 X58.261 Y140.654 E.00936
G1 X58.261 Y143.088 E.07632
G1 X53.585 Y143.088 E.14661
G1 X53.585 Y140.654 E.07632
G1 X53.506 Y140.366 E.00936
G1 X53.297 Y140.161 E.00918
G1 X53.019 Y140.088 E.00901
G1 X51.076 Y140.088 E.06092
G1 X50.585 Y140.58 E.02179
G1 X50.585 Y137.654 E.09174
G1 X50.576 Y137.556 E.00309
G1 X50.505 Y137.364 E.00642
G1 X50.295 Y137.16 E.00918
G1 X50.019 Y137.088 E.00894
G1 X47.585 Y137.088 E.07632
G1 X47.585 Y135.662 E.04471
G1 X50.019 Y135.662 E.07632
G1 X50.295 Y135.591 E.00894
G1 X50.44 Y135.474 E.00584
G1 X50.535 Y135.328 E.00546
G1 X50.585 Y135.097 E.00741
G1 X50.585 Y105.987 E.91272
G1 X50.52 Y105.725 E.00846
G1 X50.323 Y105.51 E.00914
G1 X50.019 Y105.421 E.00993
G1 X47.585 Y105.421 E.07632
G1 X47.585 Y103.996 E.04468
G1 X50.019 Y103.996 E.07632
G1 X50.323 Y103.907 E.00993
G1 X50.52 Y103.692 E.00914
G1 X50.585 Y103.43 E.00846
G1 X50.585 Y74.32 E.91272
G1 X50.52 Y74.058 E.00846
G1 X50.323 Y73.843 E.00914
G1 X50.019 Y73.755 E.00992
G1 X47.585 Y73.755 E.07632
G1 X47.585 Y72.329 E.04471
G1 X50.019 Y72.329 E.07632
G1 X50.323 Y72.24 E.00993
G1 X50.52 Y72.025 E.00914
G1 X50.585 Y71.763 E.00846
G1 X50.585 Y42.635 E.91329
G1 X50.505 Y42.364 E.00886
G1 X50.295 Y42.16 E.00918
G1 X50.019 Y42.088 E.00894
G1 X47.585 Y42.088 E.07632
G1 X47.585 Y40.662 E.04471
G1 X50.019 Y40.662 E.07632
G1 X50.295 Y40.591 E.00894
G1 X50.44 Y40.474 E.00584
G1 X50.535 Y40.328 E.00546
G1 X50.585 Y40.097 E.00741
G1 X50.585 Y37.25 E.08927
G1 X51.076 Y37.662 E.0201
G1 X53.019 Y37.662 E.06092
G1 X53.297 Y37.589 E.00901
G1 X53.506 Y37.385 E.00916
G1 X53.585 Y37.097 E.00936
G1 X53.585 Y34.662 E.07635
G1 X58.261 Y34.662 E.14661
G1 X58.268 Y37.124 E.07719
M204 P1000
G1 X58.638 Y37.097 F9000
M204 P600
;TYPE:External perimeter
G1 F1200
G1 X58.685 Y37.222 E.00419
G1 X58.826 Y37.285 E.00484
G1 X60.769 Y37.285 E.06092
G1 X60.891 Y37.241 E.00407
G1 X60.958 Y37.097 E.00498
G1 X60.958 Y34.285 E.08817
G1 X66.388 Y34.285 E.17025
G1 X66.388 Y37.097 E.08817
G1 X66.435 Y37.222 E.00419
G1 X66.576 Y37.285 E.00484
G1 X68.519 Y37.285 E.06092
;WIDTH:0.458866
G1 X68.585 Y37.25 E.00258
;WIDTH:0.497732
G1 X68.65 Y37.214 E.00281
;WIDTH:0.536598
G1 X68.716 Y37.178 E.00309
;WIDTH:0.575464
G1 X68.781 Y37.143 E.00327
G1 X68.783 Y37.097 E.00204
;WIDTH:0.57146
G1 X68.783 Y34.361 E.12024
G1 X69.312 Y34.361 E.02325
G1 X69.312 Y37.097 E.12024
;WIDTH:0.575464
G1 X69.329 Y37.43 E.01476
;WIDTH:0.536598
G1 X69.349 Y37.671 E.00993
;WIDTH:0.497732
G1 X69.368 Y37.912 E.00914
;WIDTH:0.458866
G1 X69.388 Y38.154 E.0084
;WIDTH:0.419999
G1 X69.388 Y40.097 E.06092
G1 X69.436 Y40.223 E.00423
G1 X69.576 Y40.285 E.0048
G1 X72.388 Y40.285 E.08817
G1 X72.388 Y42.465 E.06835
G1 X69.576 Y42.465 E.08817
G1 X69.436 Y42.528 E.00481
G1 X69.388 Y42.654 E.00423
G1 X69.388 Y71.763 E.91269
G1 X69.428 Y71.88 E.00388
M73 P1 R53
G1 X69.576 Y71.952 E.00516
G1 X72.388 Y71.952 E.08817
G1 X72.388 Y74.132 E.06835
G1 X69.576 Y74.132 E.08817
G1 X69.428 Y74.204 E.00516
G1 X69.388 Y74.32 E.00385
G1 X69.388 Y103.43 E.91272
G1 X69.428 Y103.546 E.00385
G1 X69.576 Y103.619 E.00517
G1 X72.388 Y103.619 E.08817
G1 X72.388 Y105.799 E.06835
G1 X69.576 Y105.799 E.08817
G1 X69.428 Y105.871 E.00516
G1 X69.388 Y105.987 E.00385
G1 X69.388 Y135.097 E.91272
G1 X69.436 Y135.223 E.00423
G1 X69.576 Y135.285 E.0048
G1 X72.388 Y135.285 E.08817
G1 X72.388 Y136.375 E.03418
G1 X72.388 Y137.465 E.03418
G1 X69.576 Y137.465 E.08817
G1 X69.436 Y137.528 E.00481
G1 X69.388 Y137.654 E.00423
G1 X69.388 Y139.597 E.06092
;WIDTH:0.457865
G1 X69.369 Y139.861 E.00913
;WIDTH:0.49573
G1 X69.35 Y140.125 E.00997
;WIDTH:0.533595
G1 X69.331 Y140.389 E.0108
;WIDTH:0.57146
G1 X69.312 Y140.654 E.01168
G1 X69.312 Y143.389 E.1202
G1 X68.783 Y143.389 E.02325
G1 X68.783 Y140.654 E.1202
G1 X68.717 Y140.607 E.00356
;WIDTH:0.533595
G1 X68.651 Y140.559 E.00333
;WIDTH:0.49573
G1 X68.585 Y140.512 E.00305
;WIDTH:0.457865
G1 X68.519 Y140.465 E.0028
;WIDTH:0.419999
G1 X66.576 Y140.465 E.06092
G1 X66.455 Y140.51 E.00405
G1 X66.388 Y140.654 E.00498
G1 X66.388 Y143.465 E.08814
G1 X60.958 Y143.465 E.17025
G1 X60.958 Y140.654 E.08814
G1 X60.91 Y140.529 E.0042
G1 X60.769 Y140.465 E.00486
G1 X58.826 Y140.465 E.06092
G1 X58.705 Y140.51 E.00405
G1 X58.638 Y140.654 E.00498
G1 X58.638 Y143.465 E.08814
G1 X53.208 Y143.465 E.17025
G1 X53.208 Y140.654 E.08814
G1 X53.16 Y140.529 E.0042
G1 X53.019 Y140.465 E.00486
G1 X51.076 Y140.465 E.06092
;WIDTH:0.457865
G1 X51.01 Y140.512 E.0028
;WIDTH:0.49573
G1 X50.944 Y140.559 E.00305
;WIDTH:0.533595
G1 X50.878 Y140.607 E.00333
;WIDTH:0.57146
G1 X50.812 Y140.654 E.00356
G1 X50.812 Y143.389 E.1202
G1 X50.283 Y143.389 E.02325
G1 X50.283 Y140.654 E.1202
G1 X50.265 Y140.389 E.01167
;WIDTH:0.533595
G1 X50.246 Y140.125 E.0108
;WIDTH:0.49573
G1 X50.227 Y139.861 E.00997
;WIDTH:0.457865
G1 X50.208 Y139.597 E.00913
;WIDTH:0.419999
G1 X50.208 Y137.654 E.06092
G1 X50.16 Y137.528 E.00423
G1 X50.019 Y137.465 E.00484
G1 X47.208 Y137.465 E.08814
G1 X47.208 Y135.285 E.06835
G1 X50.019 Y135.285 E.08814
G1 X50.16 Y135.223 E.00483
G1 X50.208 Y135.097 E.00423
G1 X50.208 Y105.987 E.91272
G1 X50.168 Y105.871 E.00385
G1 X50.019 Y105.799 E.00519
G1 X47.208 Y105.799 E.08814
G1 X47.208 Y103.619 E.06835
G1 X50.019 Y103.619 E.08814
G1 X50.168 Y103.546 E.0052
G1 X50.208 Y103.43 E.00385
G1 X50.208 Y74.32 E.91272
G1 X50.168 Y74.204 E.00385
M73 P2 R53
G1 X50.019 Y74.132 E.00519
G1 X47.208 Y74.132 E.08814
G1 X47.208 Y71.952 E.06835
G1 X50.019 Y71.952 E.08814
G1 X50.168 Y71.88 E.00519
G1 X50.208 Y71.763 E.00388
G1 X50.208 Y42.654 E.91269
G1 X50.16 Y42.528 E.00423
G1 X50.019 Y42.465 E.00484
G1 X47.208 Y42.465 E.08814
G1 X47.208 Y40.285 E.06835
G1 X50.019 Y40.285 E.08814
G1 X50.16 Y40.223 E.00483
G1 X50.208 Y40.097 E.00423
G1 X50.208 Y38.154 E.06092
;WIDTH:0.457865
G1 X50.227 Y37.889 E.00917
;WIDTH:0.49573
G1 X50.246 Y37.625 E.00997
;WIDTH:0.533595
G1 X50.265 Y37.361 E.0108
;WIDTH:0.57146
G1 X50.283 Y37.097 E.01163
G1 X50.283 Y34.361 E.12024
G1 X50.812 Y34.361 E.02325
G1 X50.812 Y37.097 E.12024
;WIDTH:0.575465
G1 X50.814 Y37.143 E.00204
G1 X50.88 Y37.178 E.00331
;WIDTH:0.536599
G1 X50.945 Y37.214 E.00305
;WIDTH:0.497732
G1 X51.011 Y37.25 E.00284
;WIDTH:0.458866
G1 X51.076 Y37.285 E.00255
;WIDTH:0.419999
G1 X53.019 Y37.285 E.06092
G1 X53.141 Y37.241 E.00407
G1 X53.208 Y37.097 E.00498
G1 X53.208 Y34.285 E.08817
G1 X58.638 Y34.285 E.17025
G1 X58.638 Y37.037 E.08629
M204 P1000
G1 X58.581 Y37.218 F9000
G1 E-2.7 F4200
G1 Z.4 F720
G1 X62.23 Y87.797 F9000
G1 Z.2 F720
G1 E2.7 F2400
M204 P600
;TYPE:Perimeter
G1 F1200
G1 X62.311 Y87.952 E.00548
G1 X62.491 Y88.654 E.02272
G1 X62.494 Y89.05 E.01242
G1 X62.32 Y89.776 E.02341
G1 X62.208 Y90.001 E.00788
G1 X61.725 Y90.593 E.02396
G1 X61.528 Y90.747 E.00784
G1 X60.834 Y91.073 E.02404
G1 X60.587 Y91.127 E.00793
G1 X59.804 Y91.117 E.02455
G1 X59.611 Y91.081 E.00616
G1 X58.865 Y90.709 E.02614
G1 X58.672 Y90.549 E.00786
G1 X58.208 Y89.948 E.02381
G1 X58.104 Y89.725 E.00771
G1 X57.944 Y89 E.02328
G1 X57.942 Y88.769 E.00724
G1 X58.071 Y88.109 E.02109
G1 X58.165 Y87.891 E.00744
G1 X58.616 Y87.255 E.02445
G1 X58.805 Y87.087 E.00793
G1 X59.467 Y86.722 E.0237
G1 X59.708 Y86.653 E.00786
G1 X60.486 Y86.609 E.02443
G1 X60.736 Y86.652 E.00795
G1 X61.453 Y86.953 E.02438
G1 X61.664 Y87.106 E.00817
G1 X62.202 Y87.744 E.02617
M204 P1000
G1 X61.883 Y87.944 F9000
M204 P600
;TYPE:External perimeter
G1 F1200
G1 X61.906 Y87.97 E.00109
G1 X62.126 Y88.747 E.02532
G1 X62.128 Y88.961 E.00671
G1 X61.953 Y89.688 E.02345
G1 X61.433 Y90.355 E.02652
G1 X60.674 Y90.732 E.02657
G1 X59.915 Y90.741 E.0238
G1 X59.744 Y90.728 E.00538
G1 X59.035 Y90.372 E.02488
G1 X58.507 Y89.718 E.02635
G1 X58.313 Y88.918 E.02581
G1 X58.441 Y88.182 E.02342
G1 X58.924 Y87.473 E.0269
G1 X59.649 Y87.053 E.02627
G1 X60.339 Y86.995 E.02171
G1 X60.59 Y87 E.00787
G1 X61.307 Y87.3 E.02437
G1 X61.843 Y87.899 E.0252
M204 P1000
G1 X61.916 Y87.934 F9000
G1 E-2.7 F4200
G1 Z.4 F720
G1 X68.841 Y38.299 F9000
G1 Z.2 F720
G1 E2.7 F2400
M204 P600
;TYPE:Solid infill
;WIDTH:0.421197
G1 F1200
G1 X68.543 Y38.002 E.01323
G1 X68.009 Y38.002 E.0168
G1 X68.671 Y38.664 E.02945
G1 X68.671 Y39.199 E.01683
G1 X67.474 Y38.002 E.05325
G1 X66.939 Y38.002 E.01683
G1 X68.841 Y39.904 E.08461
M204 P1000
G1 X71.373 Y40.831 F9000
M204 P600
G1 F1200
G1 X71.671 Y41.129 E.01326
G1 X71.671 Y41.664 E.01683
G1 X71.008 Y41.001 E.02949
G1 X70.472 Y41 E.01686
G1 X71.221 Y41.749 E.03332
G1 X70.687 Y41.75 E.0168
G1 X69.766 Y40.829 E.04097
M204 P1000
G1 E-2.7 F4200
G1 Z.4 F720
G1 X65.374 Y34.832 F9000
G1 Z.2 F720
G1 E2.7 F2400
M204 P600
G1 F1200
G1 X65.672 Y35.13 E.01326
G1 X65.672 Y35.665 E.01683
G1 X65.009 Y35.002 E.02949
G1 X64.474 Y35.002 E.01683
G1 X65.673 Y36.201 E.05333
G1 X65.674 Y36.737 E.01686
G1 X63.939 Y35.002 E.07718
G1 X63.404 Y35.002 E.01683
G1 X70.153 Y41.751 E.30021
G1 X69.618 Y41.751 E.01683
G1 X62.869 Y35.002 E.30021
G1 X62.334 Y35.002 E.01683
G1 X69.179 Y41.847 E.30448
G1 X69.137 Y41.859 E.00137
G1 X68.879 Y42.082 E.01073
G1 X61.799 Y35.002 E.31494
G1 X61.674 Y35.002 E.00393
G1 X61.674 Y35.411 E.01286
G1 X68.708 Y42.446 E.31291
G1 X68.673 Y42.584 E.00448
G1 X68.673 Y42.946 E.01139
G1 X61.673 Y35.946 E.31138
G1 X61.672 Y36.48 E.0168
G1 X68.673 Y43.481 E.31142
G1 X68.673 Y44.016 E.01683
G1 X61.672 Y37.014 E.31144
G1 X61.671 Y37.177 E.00513
G1 X61.637 Y37.355 E.0057
G1 X61.589 Y37.467 E.00383
G1 X68.673 Y44.551 E.31511
G1 X68.673 Y45.086 E.01683
G1 X61.361 Y37.774 E.32526
G1 X61.276 Y37.848 E.00354
G1 X61.016 Y37.964 E.00896
G1 X68.673 Y45.621 E.3406
G1 X68.673 Y46.155 E.0168
G1 X60.519 Y38.002 E.36269
G1 X59.984 Y38.002 E.01683
G1 X68.673 Y46.69 E.38649
G1 X68.673 Y47.225 E.01683
G1 X59.279 Y37.832 E.41785
M204 P1000
G1 X58.091 Y35.574 F9000
M204 P600
G1 F1200
G1 X57.519 Y35.002 E.02544
G1 X56.984 Y35.002 E.01683
G1 X57.921 Y35.939 E.04168
G1 X57.921 Y36.474 E.01683
G1 X56.449 Y35.002 E.06548
G1 X55.914 Y35.002 E.01683
G1 X57.921 Y37.009 E.08928
G1 X57.957 Y37.352 E.01085
G1 X58.046 Y37.556 E.007
G1 X58.152 Y37.702 E.00567
G1 X58.381 Y37.887 E.00926
G1 X58.64 Y37.983 E.00869
G1 X58.914 Y38.002 E.00864
G1 X68.673 Y47.76 E.43408
G1 X68.673 Y48.295 E.01683
G1 X55.379 Y35.002 E.59133
G1 X54.844 Y35.002 E.01683
G1 X68.673 Y48.83 E.61513
G1 X68.673 Y49.365 E.01683
G1 X54.309 Y35.002 E.63892
G1 X53.924 Y35.002 E.01211
G1 X53.924 Y35.151 E.00469
G1 X68.673 Y49.9 E.65607
G1 X68.673 Y50.435 E.01683
G1 X53.923 Y35.686 E.65609
G1 X53.923 Y36.22 E.0168
G1 X68.673 Y50.97 E.65612
G1 X68.673 Y51.505 E.01683
G1 X53.922 Y36.754 E.65616
G1 X53.921 Y37.177 E.01331
G1 X53.903 Y37.271 E.00301
G1 X68.672 Y52.04 E.65696
G1 X68.672 Y52.575 E.01683
G1 X53.734 Y37.636 E.6645
G1 X53.608 Y37.785 E.00614
G1 X53.453 Y37.89 E.00589
G1 X68.672 Y53.11 E.677
G1 X68.672 Y53.645 E.01683
G1 X53.03 Y38.002 E.69582
G1 X52.495 Y38.002 E.01683
G1 X68.672 Y54.179 E.71959
G1 X68.672 Y54.714 E.01683
G1 X51.96 Y38.002 E.74339
G1 X51.425 Y38.002 E.01683
G1 X68.672 Y55.249 E.76719
G1 X68.672 Y55.784 E.01683
G1 X50.924 Y38.036 E.78947
G1 X50.924 Y38.571 E.01683
M73 P3 R53
G1 X68.672 Y56.319 E.78947
G1 X68.672 Y56.854 E.01683
G1 X50.924 Y39.106 E.78947
G1 X50.924 Y39.641 E.01683
G1 X68.672 Y57.389 E.78947
G1 X68.672 Y57.924 E.01683
G1 X50.914 Y40.166 E.78992
G1 X50.874 Y40.397 E.00737
G1 X50.787 Y40.574 E.0062
G1 X68.672 Y58.459 E.79557
G1 X68.672 Y58.994 E.01683
G1 X50.52 Y40.842 E.80745
G1 X50.456 Y40.893 E.00257
G1 X50.123 Y40.98 E.01083
