; generated by PrusaSlicer 2.6.1+win64 on 2023-10-17 at 12:01:50 UTC


;
;

;
;

;
;
; 

; external perimeters extrusion width = 0.45mm
; perimeters extrusion width = 0.45mm
; infill extrusion width = 0.45mm
; solid infill extrusion width = 0.45mm
; top infill extrusion width = 0.40mm
; support material extrusion width = 0.35mm
; first layer extrusion width = 0.42mm

M73 P0 R100
M201 X2500 Y2500 Z400 E5000 ; sets maximum accelerations, mm/sec^2
M203 X180 Y180 Z12 E80 ; sets maximum feedrates, mm / sec
M204 P2000 R1250 T2500 ; sets acceleration (P, T) and retract acceleration (R), mm/sec^2
M205 X8.00 Y8.00 Z2.00 E10.00 ; sets the jerk limits, mm/sec
M205 S0 T0 ; sets the minimum extruding and travel feed rate, mm/sec
;TYPE:Custom
M862.3 P "MINI" ; printer model check
G90 ; use absolute coordinates
M83 ; extruder relative mode
M104 S170 ; set extruder temp for bed leveling
M140 S100 ; set bed temp
M109 R170 ; wait for bed leveling temp
M190 S100 ; wait for bed temp
M204 T1250 ; set travel acceleration
G28 ; home all without mesh bed level
G29 ; mesh bed leveling 
M204 T2500 ; restore travel acceleration
M104 S255 ; set extruder temp
G92 E0
G1 Y-2 X179 F2400
G1 Z3 F720
M109 S255 ; wait for extruder temp

; intro line
G1 X170 F1000
G1 Z0.2 F720
G1 X110 E8 F900
G1 X40 E10 F700
G92 E0

M221 S95 ; set flow
G21 ; set units to millimeters
G90 ; use absolute coordinates
M83 ; use relative distances for extrusion
M900 K0.2 ; Filament gcode

M107
;LAYER_CHANGE
;Z:0.2
;HEIGHT:0.2
;BEFORE_LAYER_CHANGE
G92 E0.0
;0.2


G1 E-2.7 F4200
G1 Z.2 F720
;AFTER_LAYER_CHANGE
;0.2
G1 Z.4
G1 X51.015 Y33.693 F9000
G1 Z.2 F720
G1 E2.7 F2400
M204 P600
;TYPE:Skirt/Brim
;WIDTH:0.42
G1 F1200
G1 X52.06 Y32.817 E.04275
G1 X53 Y32.623 E.03009
G1 X127 Y32.623 E2.32022
G1 X128.307 Y33.015 E.04278
G1 X129.183 Y34.06 E.04275
G1 X129.377 Y35 E.03009
G1 X129.377 Y145 E3.44897
G1 X128.985 Y146.307 E.04278
G1 X127.94 Y147.183 E.04275
G1 X127 Y147.377 E.03009
G1 X53 Y147.377 E2.32022
G1 X51.693 Y146.985 E.04278
M73 P0 R99
G1 X50.817 Y145.94 E.04275
G1 X50.623 Y145 E.03009
G1 X50.623 Y35 E3.44897
G1 X50.997 Y33.75 E.04091
M204 P1000
; printing object shapr3d_export_2023-10-17_13h59m.stl id:0 copy 0
G1 E-2.7 F4200
G1 Z.4 F720
G1 X126.213 Y144.213 F9000
G1 Z.2 F720
G1 E2.7 F2400
M204 P600
;TYPE:Perimeter
;WIDTH:0.419999
G1 F1200
G1 X53.787 Y144.213 E2.27086
G1 X53.787 Y35.787 E3.39962
G1 X126.213 Y35.787 E2.27086
G1 X126.213 Y144.153 E3.39773
M204 P1000
G1 X126.59 Y144.59 F9000
M204 P600
;TYPE:External perimeter
G1 F1200
G1 X53.41 Y144.59 E2.2945
G1 X53.41 Y35.41 E3.42326
G1 X126.59 Y35.41 E2.2945
M73 P1 R99
G1 X126.59 Y144.53 E3.42138
M204 P1000
G1 X126.211 Y144.462 F9000
G1 E-2.7 F4200
G1 Z.4 F720
G1 X106.981 Y75.436 F9000
G1 Z.2 F720
G1 E2.7 F2400
M204 P600
;TYPE:Perimeter
G1 F1200
G1 X106.936 Y75.617 E.00585
G1 X106.607 Y76.243 E.02217
G1 X106.428 Y76.446 E.00849
G1 X105.845 Y76.848 E.0222
G1 X105.592 Y76.944 E.00848
G1 X104.89 Y77.029 E.02217
G1 X104.621 Y76.996 E.0085
G1 X103.96 Y76.745 E.02217
G1 X103.737 Y76.592 E.00848
G1 X103.268 Y76.062 E.02219
G1 X103.161 Y75.883 E.00654
G1 X102.973 Y75.135 E.02418
G1 X102.973 Y74.865 E.00847
G1 X103.142 Y74.178 E.02218
G1 X103.268 Y73.938 E.0085
G1 X103.737 Y73.408 E.02219
G1 X103.96 Y73.255 E.00848
G1 X104.621 Y73.004 E.02217
G1 X104.89 Y72.971 E.0085
G1 X105.592 Y73.056 E.02217
G1 X105.845 Y73.152 E.00848
G1 X106.428 Y73.554 E.0222
G1 X106.607 Y73.757 E.00849
G1 X106.936 Y74.383 E.02217
G1 X107.001 Y74.646 E.00849
G1 X106.995 Y75.378 E.02295
M204 P1000
G1 X106.623 Y75.313 F9000
M204 P600
;TYPE:External perimeter
G1 F1200
G1 X106.624 Y75.354 E.00129
G1 X106.376 Y75.872 E.01801
G1 X106.213 Y76.135 E.0097
G1 X105.631 Y76.537 E.02218
G1 X104.845 Y76.654 E.02492
G1 X104.093 Y76.393 E.02496
G1 X103.55 Y75.812 E.02493
G1 X103.514 Y75.752 E.00219
G1 X103.339 Y75.045 E.02284
G1 X103.508 Y74.268 E.02493
G1 X104.019 Y73.659 E.02493
G1 X104.755 Y73.356 E.02496
G1 X105.547 Y73.431 E.02494
G1 X106.213 Y73.865 E.02492
G1 X106.602 Y74.559 E.02494
G1 X106.621 Y75.253 E.02177
M204 P1000
G1 X106.66 Y75.329 F9000
G1 E-2.7 F4200
G1 Z.4 F720
G1 X109.694 Y103.264 F9000
G1 Z.2 F720
G1 E2.7 F2400
M204 P600
;TYPE:Perimeter
G1 F1200
G1 X109.495 Y103.211 E.00646
G1 X109.3 Y103.023 E.00849
G1 X109.216 Y102.776 E.00818
G1 X109.213 Y77.279 E.79944
G1 X109.278 Y77.016 E.00849
G1 X109.495 Y76.789 E.00985
G1 X109.779 Y76.713 E.00922
G1 X113.221 Y76.713 E.10792
G1 X113.488 Y76.779 E.00862
G1 X113.694 Y76.967 E.00874
G1 X113.783 Y77.211 E.00814
G1 X113.787 Y77.279 E.00214
G1 X113.787 Y102.721 E.79771
G1 X113.725 Y102.978 E.00829
G1 X113.532 Y103.194 E.00908
G1 X113.255 Y103.286 E.00915
G1 X109.752 Y103.28 E.10983
M204 P1000
G1 X109.779 Y102.91 F9000
M204 P600
;TYPE:External perimeter
G1 F1200
G1 X109.65 Y102.859 E.00435
G1 X109.59 Y102.721 E.00472
G1 X109.59 Y77.279 E.79771
G1 X109.65 Y77.141 E.00472
G1 X109.779 Y77.09 E.00435
G1 X113.221 Y77.09 E.10792
G1 X113.367 Y77.158 E.00505
G1 X113.41 Y77.279 E.00403
G1 X113.41 Y102.721 E.79771
G1 X113.339 Y102.869 E.00515
G1 X113.221 Y102.91 E.00392
G1 X109.839 Y102.91 E.10604
M204 P1000
G1 X109.682 Y103.009 F9000
G1 E-2.7 F4200
G1 Z.4 F720
G1 X103.223 Y105.982 F9000
G1 Z.2 F720
G1 E2.7 F2400
M204 P600
;TYPE:Perimeter
G1 F1200
G1 X103.142 Y105.822 E.00562
G1 X102.973 Y105.135 E.02218
G1 X102.973 Y104.865 E.00847
G1 X103.142 Y104.178 E.02218
G1 X103.268 Y103.938 E.0085
G1 X103.737 Y103.408 E.02219
G1 X103.96 Y103.255 E.00848
G1 X104.621 Y103.004 E.02217
G1 X104.89 Y102.971 E.0085
G1 X105.592 Y103.056 E.02217
G1 X105.845 Y103.152 E.00848
G1 X106.428 Y103.554 E.0222
G1 X106.607 Y103.757 E.00849
G1 X106.936 Y104.383 E.02217
G1 X107.001 Y104.646 E.00849
G1 X107.001 Y105.354 E.0222
G1 X106.936 Y105.617 E.00849
G1 X106.607 Y106.243 E.02217
G1 X106.428 Y106.446 E.00849
G1 X105.845 Y106.848 E.0222
G1 X105.592 Y106.944 E.00848
G1 X104.89 Y107.029 E.02217
G1 X104.621 Y106.996 E.0085
G1 X103.96 Y106.745 E.02217
G1 X103.737 Y106.592 E.00848
G1 X103.25 Y106.035 E.0232
M204 P1000
G1 X103.577 Y105.841 F9000
M204 P600
;TYPE:External perimeter
G1 F1200
G1 X103.546 Y105.807 E.00144
G1 X103.339 Y105.045 E.02476
G1 X103.508 Y104.268 E.02493
G1 X104.019 Y103.659 E.02493
G1 X104.755 Y103.356 E.02496
G1 X105.547 Y103.431 E.02494
G1 X106.213 Y103.865 E.02492
G1 X106.532 Y104.425 E.02021
G1 X106.624 Y104.646 E.00751
G1 X106.624 Y105.354 E.0222
G1 X106.273 Y106.068 E.02495
G1 X105.631 Y106.537 E.02493
G1 X104.845 Y106.654 E.02492
G1 X104.093 Y106.393 E.02496
G1 X103.618 Y105.885 E.02181
M204 P1000
G1 X103.534 Y105.855 F9000
G1 E-2.7 F4200
G1 Z.4 F720
G1 X76.98 Y105.437 F9000
G1 Z.2 F720
G1 E2.7 F2400
M204 P600
;TYPE:Perimeter
G1 F1200
G1 X76.936 Y105.617 E.00581
G1 X76.607 Y106.243 E.02217
G1 X76.428 Y106.446 E.00849
G1 X75.845 Y106.848 E.0222
G1 X75.592 Y106.944 E.00848
G1 X74.89 Y107.029 E.02217
G1 X74.621 Y106.996 E.0085
G1 X73.96 Y106.745 E.02217
G1 X73.737 Y106.592 E.00848
G1 X73.268 Y106.062 E.02219
G1 X73.204 Y105.974 E.00341
G1 X72.973 Y105.135 E.02729
G1 X72.973 Y104.865 E.00847
G1 X73.142 Y104.178 E.02218
G1 X73.268 Y103.938 E.0085
G1 X73.737 Y103.408 E.02219
G1 X73.96 Y103.255 E.00848
G1 X74.621 Y103.004 E.02217
G1 X74.89 Y102.971 E.0085
G1 X75.592 Y103.056 E.02217
G1 X75.845 Y103.152 E.00848
G1 X76.428 Y103.554 E.0222
G1 X76.607 Y103.757 E.00849
G1 X76.936 Y104.383 E.02217
G1 X77.001 Y104.646 E.00849
G1 X76.995 Y105.378 E.02295
M204 P1000
G1 X76.623 Y105.313 F9000
M204 P600
;TYPE:External perimeter
G1 F1200
G1 X76.624 Y105.354 E.00129
G1 X76.273 Y106.068 E.02495
G1 X75.631 Y106.537 E.02493
G1 X74.845 Y106.654 E.02492
G1 X74.093 Y106.393 E.02496
G1 X73.55 Y105.812 E.02493
G1 X73.529 Y105.783 E.00112
G1 X73.339 Y105.045 E.02389
G1 X73.508 Y104.268 E.02493
G1 X74.019 Y103.659 E.02493
G1 X74.755 Y103.356 E.02496
G1 X75.547 Y103.431 E.02494
G1 X76.213 Y103.865 E.02492
G1 X76.602 Y104.559 E.02494
G1 X76.621 Y105.253 E.02177
M204 P1000
G1 X76.66 Y105.329 F9000
G1 E-2.7 F4200
G1 Z.4 F720
G1 X66.232 Y102.829 F9000
G1 Z.2 F720
G1 E2.7 F2400
M204 P600
;TYPE:Perimeter
G1 F1200
G1 X66.213 Y102.721 E.00344
G1 X66.213 Y77.279 E.79771
G1 X66.275 Y77.021 E.00832
G1 X66.469 Y76.805 E.0091
G1 X66.737 Y76.714 E.00887
G1 X70.221 Y76.713 E.10924
G1 X70.4 Y76.742 E.00569
M73 P1 R98
G1 X70.543 Y76.813 E.00501
G1 X70.713 Y76.999 E.0079
G1 X70.787 Y77.279 E.00908
G1 X70.787 Y102.721 E.79771
G1 X70.713 Y103.001 E.00908
G1 X70.543 Y103.187 E.0079
G1 X70.29 Y103.283 E.00848
G1 X66.779 Y103.287 E.11008
G1 X66.513 Y103.221 E.00859
G1 X66.307 Y103.033 E.00874
G1 X66.252 Y102.886 E.00492
M204 P1000
G1 X66.59 Y102.721 F9000
M204 P600
;TYPE:External perimeter
G1 F1200
G1 X66.59 Y77.279 E.79771
G1 X66.661 Y77.131 E.00515
G1 X66.779 Y77.09 E.00392
G1 X70.221 Y77.09 E.10792
G1 X70.329 Y77.123 E.00354
G1 X70.408 Y77.253 E.00477
G1 X70.41 Y102.721 E.79853
G1 X70.375 Y102.831 E.00362
G1 X70.244 Y102.909 E.00478
G1 X66.779 Y102.91 E.10864
G1 X66.633 Y102.842 E.00505
G1 X66.61 Y102.778 E.00213
M204 P1000
G1 X66.204 Y102.618 F9000
G1 E-2.7 F4200
G1 Z.4 F720
G1 X73.182 Y75.898 F9000
G1 Z.2 F720
G1 E2.7 F2400
M204 P600
;TYPE:Perimeter
G1 F1200
G1 X73.142 Y75.822 E.00269
G1 X72.973 Y75.135 E.02218
G1 X72.973 Y74.865 E.00847
G1 X73.142 Y74.178 E.02218
G1 X73.268 Y73.938 E.0085
G1 X73.737 Y73.408 E.02219
G1 X73.96 Y73.255 E.00848
G1 X74.621 Y73.004 E.02217
G1 X74.821 Y72.967 E.00638
G1 X75.592 Y73.056 E.02433
G1 X75.845 Y73.152 E.00848
G1 X76.428 Y73.554 E.0222
G1 X76.607 Y73.757 E.00849
G1 X76.936 Y74.383 E.02217
G1 X77.001 Y74.646 E.00849
G1 X77.001 Y75.354 E.0222
G1 X76.936 Y75.617 E.00849
G1 X76.607 Y76.243 E.02217
G1 X76.428 Y76.446 E.00849
G1 X75.845 Y76.848 E.0222
G1 X75.592 Y76.944 E.00848
G1 X74.89 Y77.029 E.02217
G1 X74.621 Y76.996 E.0085
G1 X73.96 Y76.745 E.02217
G1 X73.737 Y76.592 E.00848
G1 X73.268 Y76.062 E.02219
G1 X73.21 Y75.951 E.00393
M204 P1000
G1 X73.567 Y75.807 F9000
M204 P600
;TYPE:External perimeter
G1 F1200
G1 X73.508 Y75.732 E.00299
G1 X73.339 Y75.045 E.02218
G1 X73.508 Y74.268 E.02493
G1 X74.019 Y73.659 E.02493
G1 X74.755 Y73.356 E.02496
G1 X74.822 Y73.344 E.00213
G1 X75.547 Y73.431 E.02289
G1 X76.213 Y73.865 E.02492
G1 X76.602 Y74.559 E.02494
G1 X76.624 Y75.354 E.02494
G1 X76.273 Y76.068 E.02495
G1 X75.631 Y76.537 E.02493
G1 X74.845 Y76.654 E.02492
G1 X74.093 Y76.393 E.02496
G1 X73.733 Y76.018 E.0163
G1 X73.604 Y75.854 E.00654
M204 P1000
G1 X73.473 Y75.822 F9000
G1 E-2.7 F4200
G1 Z.4 F720
G1 X126.043 Y36.719 F9000
G1 Z.2 F720
G1 E2.7 F2400
M204 P600
;TYPE:Solid infill
;WIDTH:0.420005
G1 F1200
G1 X125.451 Y36.126 E.02627
G1 X124.917 Y36.126 E.01674
G1 X125.874 Y37.083 E.04244
G1 X125.874 Y37.616 E.01671
G1 X124.384 Y36.126 E.06607
G1 X123.851 Y36.126 E.01671
G1 X125.874 Y38.149 E.0897
G1 X125.874 Y38.682 E.01671
G1 X123.318 Y36.126 E.11334
G1 X122.784 Y36.126 E.01674
G1 X125.874 Y39.216 E.13702
G1 X125.874 Y39.749 E.01671
G1 X122.251 Y36.126 E.16065
G1 X121.718 Y36.126 E.01671
G1 X125.874 Y40.282 E.18429
G1 X125.874 Y40.816 E.01674
G1 X121.184 Y36.126 E.20797
G1 X120.651 Y36.126 E.01671
G1 X125.874 Y41.349 E.2316
G1 X125.874 Y41.882 E.01671
G1 X120.118 Y36.126 E.25523
G1 X119.585 Y36.126 E.01671
G1 X125.874 Y42.415 E.27887
G1 X125.874 Y42.949 E.01674
G1 X119.051 Y36.126 E.30255
G1 X118.518 Y36.126 E.01671
G1 X125.874 Y43.482 E.32618
G1 X125.874 Y44.015 E.01671
G1 X117.985 Y36.126 E.34982
G1 X117.451 Y36.126 E.01674
G1 X125.874 Y44.549 E.3735
G1 X125.874 Y45.082 E.01671
G1 X116.918 Y36.126 E.39713
G1 X116.385 Y36.126 E.01671
G1 X125.874 Y45.615 E.42076
G1 X125.874 Y46.148 E.01671
G1 X115.852 Y36.126 E.4444
G1 X115.318 Y36.126 E.01674
G1 X125.874 Y46.682 E.46808
G1 X125.874 Y47.215 E.01671
G1 X114.785 Y36.126 E.49171
G1 X114.252 Y36.126 E.01671
G1 X125.874 Y47.748 E.51535
G1 X125.874 Y48.281 E.01671
G1 X113.719 Y36.126 E.53898
G1 X113.185 Y36.126 E.01674
G1 X125.874 Y48.815 E.56266
G1 X125.874 Y49.348 E.01671
G1 X112.652 Y36.126 E.58629
G1 X112.119 Y36.126 E.01671
G1 X125.874 Y49.881 E.60993
G1 X125.874 Y50.415 E.01674
G1 X111.585 Y36.126 E.63361
G1 X111.052 Y36.126 E.01671
G1 X125.874 Y50.948 E.65724
G1 X125.874 Y51.481 E.01671
G1 X110.519 Y36.126 E.68088
G1 X109.986 Y36.126 E.01671
G1 X125.874 Y52.014 E.70451
G1 X125.874 Y52.548 E.01674
G1 X109.452 Y36.126 E.72819
G1 X108.919 Y36.126 E.01671
G1 X125.874 Y53.081 E.75182
G1 X125.874 Y53.614 E.01671
G1 X108.386 Y36.126 E.77546
G1 X107.852 Y36.126 E.01674
G1 X125.874 Y54.148 E.79914
G1 X125.874 Y54.681 E.01671
G1 X107.319 Y36.126 E.82277
G1 X106.786 Y36.126 E.01671
G1 X125.874 Y55.214 E.84641
G1 X125.874 Y55.747 E.01671
G1 X106.253 Y36.126 E.87004
G1 X105.719 Y36.126 E.01674
M73 P2 R98
G1 X125.874 Y56.281 E.89372
G1 X125.874 Y56.814 E.01671
G1 X105.186 Y36.126 E.91735
G1 X104.653 Y36.126 E.01671
G1 X125.874 Y57.347 E.94099
G1 X125.874 Y57.881 E.01674
G1 X104.119 Y36.126 E.96467
G1 X103.586 Y36.126 E.01671
G1 X125.874 Y58.414 E.9883
G1 X125.874 Y58.947 E.01671
G1 X103.053 Y36.126 E1.01194
G1 X102.52 Y36.126 E.01671
G1 X125.874 Y59.48 E1.03557
G1 X125.874 Y60.014 E.01674
G1 X101.986 Y36.126 E1.05925
G1 X101.453 Y36.126 E.01671
G1 X125.874 Y60.547 E1.08288
G1 X125.874 Y61.08 E.01671
G1 X100.92 Y36.126 E1.10652
G1 X100.387 Y36.126 E.01671
G1 X125.874 Y61.613 E1.13015
G1 X125.874 Y62.147 E.01674
G1 X99.853 Y36.126 E1.15383
G1 X99.32 Y36.126 E.01671
G1 X125.874 Y62.68 E1.17747
G1 X125.874 Y63.213 E.01671
G1 X98.787 Y36.126 E1.2011
G1 X98.253 Y36.126 E.01674
G1 X125.874 Y63.747 E1.22478
G1 X125.874 Y64.28 E.01671
M73 P2 R97
G1 X97.72 Y36.126 E1.24841
G1 X97.187 Y36.126 E.01671
G1 X125.874 Y64.813 E1.27205
G1 X125.874 Y65.346 E.01671
G1 X96.654 Y36.126 E1.29568
G1 X96.12 Y36.126 E.01674
G1 X125.874 Y65.88 E1.31936
G1 X125.874 Y66.413 E.01671
G1 X95.587 Y36.126 E1.343
G1 X95.054 Y36.126 E.01671
G1 X125.874 Y66.946 E1.36663
G1 X125.874 Y67.48 E.01674
G1 X94.52 Y36.126 E1.39031
G1 X93.987 Y36.126 E.01671
G1 X125.874 Y68.013 E1.41394
G1 X125.874 Y68.546 E.01671
G1 X93.454 Y36.126 E1.43758
G1 X92.921 Y36.126 E.01671
G1 X125.874 Y69.079 E1.46121
G1 X125.874 Y69.613 E.01674
G1 X92.387 Y36.126 E1.48489
G1 X91.854 Y36.126 E.01671
G1 X125.874 Y70.146 E1.50853
G1 X125.874 Y70.679 E.01671
G1 X91.321 Y36.126 E1.53216
G1 X90.788 Y36.126 E.01671
G1 X125.874 Y71.212 E1.55579
G1 X125.874 Y71.746 E.01674
G1 X90.254 Y36.126 E1.57947
G1 X89.721 Y36.126 E.01671
M73 P3 R97
G1 X125.874 Y72.279 E1.60311
G1 X125.874 Y72.812 E.01671
G1 X89.188 Y36.126 E1.62674
G1 X88.654 Y36.126 E.01674
G1 X125.874 Y73.346 E1.65042
G1 X125.874 Y73.879 E.01671
G1 X88.121 Y36.126 E1.67406
G1 X87.588 Y36.126 E.01671
G1 X125.874 Y74.412 E1.69769
G1 X125.874 Y74.945 E.01671
G1 X87.055 Y36.126 E1.72132
G1 X86.521 Y36.126 E.01674
G1 X125.874 Y75.479 E1.745
G1 X125.874 Y76.012 E.01671
G1 X85.988 Y36.126 E1.76864
G1 X85.455 Y36.126 E.01671
G1 X125.874 Y76.545 E1.79227
G1 X125.874 Y77.079 E.01674
M73 P3 R96
G1 X84.921 Y36.126 E1.81595
G1 X84.388 Y36.126 E.01671
G1 X125.874 Y77.612 E1.83959
G1 X125.874 Y78.145 E.01671
G1 X83.855 Y36.126 E1.86322
G1 X83.322 Y36.126 E.01671
G1 X125.874 Y78.678 E1.88685
G1 X125.874 Y79.212 E.01674
G1 X82.788 Y36.126 E1.91053
G1 X82.255 Y36.126 E.01671
G1 X125.874 Y79.745 E1.93417
G1 X125.874 Y80.278 E.01671
G1 X81.722 Y36.126 E1.9578
G1 X81.189 Y36.126 E.01671
G1 X125.874 Y80.811 E1.98144
G1 X125.874 Y81.345 E.01674
G1 X80.655 Y36.126 E2.00511
G1 X80.122 Y36.126 E.01671
G1 X125.874 Y81.878 E2.02875
G1 X125.874 Y82.411 E.01671
G1 X79.589 Y36.126 E2.05238
G1 X79.055 Y36.126 E.01674
G1 X125.874 Y82.945 E2.07606
G1 X125.874 Y83.478 E.01671
M73 P4 R96
G1 X78.522 Y36.126 E2.0997
G1 X77.989 Y36.126 E.01671
G1 X125.874 Y84.011 E2.12333
G1 X125.874 Y84.544 E.01671
G1 X77.456 Y36.126 E2.14697
G1 X76.922 Y36.126 E.01674
G1 X125.874 Y85.078 E2.17064
G1 X125.874 Y85.611 E.01671
G1 X76.389 Y36.126 E2.19428
G1 X75.856 Y36.126 E.01671
G1 X125.874 Y86.144 E2.21791
G1 X125.874 Y86.678 E.01674
G1 X75.322 Y36.126 E2.24159
G1 X74.789 Y36.126 E.01671
M73 P4 R95
G1 X125.874 Y87.211 E2.26523
G1 X125.874 Y87.744 E.01671
G1 X74.256 Y36.126 E2.28886
G1 X73.723 Y36.126 E.01671
G1 X125.874 Y88.277 E2.3125
G1 X125.874 Y88.811 E.01674
