; generated by PrusaSlicer 2.6.1+win64 on 2023-10-12 at 13:25:07 UTC


;
;

;
;

;
;
; 

; external perimeters extrusion width = 0.45mm
; perimeters extrusion width = 0.45mm
; infill extrusion width = 0.45mm
; solid infill extrusion width = 0.45mm
; top infill extrusion width = 0.40mm
; first layer extrusion width = 0.42mm

M73 P0 R37
M201 X2500 Y2500 Z400 E5000 ; sets maximum accelerations, mm/sec^2
M203 X180 Y180 Z12 E80 ; sets maximum feedrates, mm / sec
M204 P2000 R1250 T2500 ; sets acceleration (P, T) and retract acceleration (R), mm/sec^2
M205 X8.00 Y8.00 Z2.00 E10.00 ; sets the jerk limits, mm/sec
M205 S0 T0 ; sets the minimum extruding and travel feed rate, mm/sec
;TYPE:Custom
M862.3 P "MINI" ; printer model check
G90 ; use absolute coordinates
M83 ; extruder relative mode
M104 S170 ; set extruder temp for bed leveling
M140 S100 ; set bed temp
M109 R170 ; wait for bed leveling temp
M190 S100 ; wait for bed temp
M204 T1250 ; set travel acceleration
G28 ; home all without mesh bed level
G29 ; mesh bed leveling 
M204 T2500 ; restore travel acceleration
M104 S255 ; set extruder temp
G92 E0
G1 Y-2 X179 F2400
G1 Z3 F720
M109 S255 ; wait for extruder temp

; intro line
G1 X170 F1000
G1 Z0.2 F720
G1 X110 E8 F900
G1 X40 E10 F700
G92 E0

M221 S95 ; set flow
G21 ; set units to millimeters
G90 ; use absolute coordinates
M83 ; use relative distances for extrusion
M900 K0.2 ; Filament gcode

M107
;LAYER_CHANGE
;Z:0.2
;HEIGHT:0.2
;BEFORE_LAYER_CHANGE
G92 E0.0
;0.2


G1 E-2.7 F4200
G1 Z.2 F720
;AFTER_LAYER_CHANGE
;0.2
G1 Z.4
G1 X67.874 Y33.937 F9000
G1 Z.2 F720
G1 E2.7 F2400
M204 P600
;TYPE:Skirt/Brim
;WIDTH:0.42
G1 F1200
G1 X68.809 Y32.943 E.04279
G1 X70 Y32.623 E.03867
G1 X110 Y32.623 E1.25417
G1 X111.307 Y33.015 E.04278
G1 X112.126 Y33.937 E.03867
G1 X115.126 Y39.937 E.21033
G1 X115.377 Y41 E.03425
G1 X115.377 Y139 E3.07272
G1 X115.126 Y140.063 E.03425
M73 P1 R37
G1 X112.126 Y146.063 E.21033
G1 X111.191 Y147.057 E.04279
G1 X110 Y147.377 E.03867
G1 X70 Y147.377 E1.25417
G1 X68.693 Y146.985 E.04278
G1 X67.874 Y146.063 E.03867
G1 X64.874 Y140.063 E.21033
G1 X64.623 Y139 E.03425
G1 X64.623 Y41 E3.07272
G1 X64.874 Y39.937 E.03425
G1 X67.847 Y33.991 E.20844
M204 P1000
; printing object side3.stl id:0 copy 0
G1 E-2.7 F4200
G1 Z.4 F720
G1 X103.756 Y141.216 F9000
G1 Z.2 F720
G1 E2.7 F2400
M204 P600
;TYPE:Perimeter
;WIDTH:0.419999
G1 F1200
G1 X103.495 Y141.289 E.0085
G1 X103.292 Y141.49 E.00896
G1 X103.213 Y141.779 E.00939
G1 X103.213 Y144.213 E.07632
G1 X92.287 Y144.213 E.34258
G1 X92.287 Y141.779 E.07632
G1 X92.273 Y141.653 E.00397
G1 X92.173 Y141.437 E.00746
G1 X91.971 Y141.271 E.0082
G1 X91.721 Y141.213 E.00805
G1 X88.279 Y141.213 E.10792
G1 X87.995 Y141.289 E.00922
G1 X87.792 Y141.49 E.00896
G1 X87.713 Y141.779 E.00939
G1 X87.713 Y144.213 E.07632
G1 X76.787 Y144.213 E.34258
G1 X76.787 Y141.779 E.07632
G1 X76.773 Y141.653 E.00397
G1 X76.673 Y141.437 E.00746
G1 X76.473 Y141.272 E.00813
G1 X76.221 Y141.213 E.00811
G1 X72.779 Y141.213 E.10792
G1 X72.561 Y141.256 E.00697
G1 X72.326 Y141.439 E.00934
G1 X72.213 Y141.779 E.01123
G1 X72.213 Y144.213 E.07632
G1 X70.787 Y144.213 E.04471
G1 X70.787 Y138.779 E.17038
G1 X70.701 Y138.478 E.00982
G1 X70.487 Y138.279 E.00916
G1 X70.221 Y138.213 E.00859
G1 X67.787 Y138.213 E.07632
G1 X67.787 Y136.787 E.04471
G1 X70.221 Y136.787 E.07632
G1 X70.487 Y136.721 E.00859
G1 X70.634 Y136.609 E.00579
G1 X70.733 Y136.462 E.00556
G1 X70.787 Y136.221 E.00774
G1 X70.787 Y107.112 E.91269
G1 X70.72 Y106.845 E.00863
G1 X70.521 Y106.632 E.00914
G1 X70.221 Y106.546 E.00979
G1 X67.787 Y106.546 E.07632
G1 X67.787 Y105.12 E.04471
G1 X70.221 Y105.12 E.07632
G1 X70.521 Y105.035 E.00978
G1 X70.72 Y104.821 E.00916
G1 X70.787 Y104.555 E.0086
G1 X70.787 Y75.445 E.91272
G1 X70.72 Y75.179 E.0086
G1 X70.521 Y74.965 E.00916
G1 X70.221 Y74.88 E.00978
G1 X67.787 Y74.88 E.07632
G1 X67.787 Y73.454 E.04471
G1 X70.221 Y73.454 E.07632
G1 X70.521 Y73.368 E.00979
G1 X70.72 Y73.155 E.00914
G1 X70.787 Y72.888 E.00863
G1 X70.781 Y43.699 E.9152
G1 X70.701 Y43.478 E.00737
M73 P1 R36
G1 X70.487 Y43.279 E.00916
G1 X70.221 Y43.213 E.00859
G1 X67.787 Y43.213 E.07632
G1 X67.787 Y41.787 E.04471
G1 X70.221 Y41.787 E.07632
G1 X70.487 Y41.721 E.00859
G1 X70.701 Y41.522 E.00916
G1 X70.787 Y41.221 E.00982
G1 X70.787 Y35.787 E.17038
G1 X72.213 Y35.787 E.04471
G1 X72.213 Y38.221 E.07632
G1 X72.326 Y38.561 E.01123
G1 X72.561 Y38.744 E.00934
G1 X72.779 Y38.787 E.00697
G1 X76.299 Y38.782 E.11037
G1 X76.545 Y38.685 E.00829
G1 X76.729 Y38.471 E.00885
G1 X76.787 Y38.221 E.00805
G1 X76.787 Y35.787 E.07632
G1 X87.713 Y35.787 E.34258
G1 X87.713 Y38.221 E.07632
G1 X87.737 Y38.386 E.00523
G1 X87.907 Y38.648 E.00979
G1 X88.074 Y38.749 E.00612
G1 X88.279 Y38.787 E.00654
G1 X91.721 Y38.787 E.10792
G1 X91.968 Y38.73 E.00795
G1 X92.15 Y38.59 E.0072
G1 X92.25 Y38.423 E.0061
G1 X92.287 Y38.221 E.00644
G1 X92.287 Y35.787 E.07632
G1 X103.213 Y35.787 E.34258
G1 X103.213 Y38.221 E.07632
G1 X103.25 Y38.423 E.00644
G1 X103.35 Y38.59 E.0061
G1 X103.532 Y38.73 E.0072
G1 X103.779 Y38.787 E.00795
G1 X107.308 Y38.78 E.11065
G1 X107.651 Y38.59 E.01229
G1 X107.779 Y38.319 E.0094
G1 X107.787 Y35.787 E.07939
G1 X109.213 Y35.787 E.04471
G1 X109.222 Y41.323 E.17358
G1 X109.381 Y41.624 E.01067
G1 X109.528 Y41.729 E.00566
M73 P2 R36
G1 X109.779 Y41.787 E.00808
G1 X112.213 Y41.787 E.07632
G1 X112.213 Y43.213 E.04471
G1 X109.779 Y43.213 E.07632
G1 X109.528 Y43.271 E.00808
G1 X109.381 Y43.376 E.00566
G1 X109.26 Y43.552 E.0067
G1 X109.213 Y43.779 E.00727
G1 X109.213 Y72.888 E.91269
G1 X109.26 Y73.115 E.00727
G1 X109.381 Y73.291 E.0067
G1 X109.528 Y73.395 E.00565
G1 X109.779 Y73.454 E.00808
G1 X112.213 Y73.454 E.07632
G1 X112.213 Y74.88 E.04471
G1 X109.779 Y74.88 E.07632
G1 X109.528 Y74.938 E.00808
G1 X109.381 Y75.043 E.00566
G1 X109.26 Y75.219 E.0067
G1 X109.213 Y75.445 E.00724
G1 X109.213 Y104.555 E.91272
G1 X109.26 Y104.781 E.00724
G1 X109.381 Y104.957 E.0067
G1 X109.528 Y105.062 E.00566
G1 X109.779 Y105.12 E.00808
G1 X112.213 Y105.12 E.07632
G1 X112.213 Y106.546 E.04471
G1 X109.779 Y106.546 E.07632
G1 X109.528 Y106.605 E.00808
G1 X109.381 Y106.709 E.00565
G1 X109.26 Y106.885 E.0067
G1 X109.213 Y107.112 E.00727
G1 X109.219 Y136.301 E.9152
G1 X109.299 Y136.522 E.00737
G1 X109.513 Y136.721 E.00916
G1 X109.779 Y136.787 E.00859
G1 X112.213 Y136.787 E.07632
G1 X112.213 Y138.213 E.04471
G1 X109.779 Y138.213 E.07632
G1 X109.513 Y138.279 E.00859
G1 X109.299 Y138.478 E.00916
G1 X109.213 Y138.779 E.00982
G1 X109.213 Y144.213 E.17038
G1 X107.787 Y144.213 E.04471
G1 X107.787 Y141.779 E.07632
G1 X107.674 Y141.439 E.01123
G1 X107.439 Y141.256 E.00934
G1 X107.221 Y141.213 E.00697
G1 X103.816 Y141.216 E.10676
M204 P1000
G1 X103.779 Y141.59 F9000
M204 P600
;TYPE:External perimeter
G1 F1200
G1 X103.66 Y141.632 E.00396
G1 X103.59 Y141.779 E.0051
G1 X103.59 Y144.59 E.08814
G1 X91.91 Y144.59 E.36622
G1 X91.91 Y141.779 E.08814
G1 X91.863 Y141.654 E.00419
G1 X91.721 Y141.59 E.00488
G1 X88.279 Y141.59 E.10792
G1 X88.16 Y141.632 E.00396
G1 X88.09 Y141.779 E.0051
G1 X88.09 Y144.59 E.08814
G1 X76.41 Y144.59 E.36622
G1 X76.41 Y141.779 E.08814
G1 X76.363 Y141.654 E.00419
G1 X76.221 Y141.59 E.00488
G1 X72.779 Y141.59 E.10792
G1 X72.628 Y141.665 E.00529
G1 X72.59 Y141.779 E.00377
G1 X72.59 Y144.59 E.08814
G1 X70.41 Y144.59 E.06835
G1 X70.41 Y138.779 E.1822
G1 X70.359 Y138.649 E.00438
G1 X70.221 Y138.59 E.00471
G1 X67.41 Y138.59 E.08814
G1 X67.41 Y136.41 E.06835
G1 X70.221 Y136.41 E.08814
G1 X70.359 Y136.351 E.00471
G1 X70.41 Y136.221 E.00438
G1 X70.41 Y107.112 E.91269
G1 X70.369 Y106.994 E.00392
G1 X70.221 Y106.923 E.00515
G1 X67.41 Y106.923 E.08814
G1 X67.41 Y104.743 E.06835
G1 X70.221 Y104.743 E.08814
G1 X70.369 Y104.673 E.00513
G1 X70.41 Y104.555 E.00392
G1 X70.41 Y75.445 E.91272
G1 X70.369 Y75.327 E.00392
G1 X70.221 Y75.257 E.00513
G1 X67.41 Y75.257 E.08814
G1 X67.41 Y73.077 E.06835
G1 X70.221 Y73.077 E.08814
G1 X70.369 Y73.006 E.00515
G1 X70.41 Y72.888 E.00392
G1 X70.41 Y43.779 E.91269
G1 X70.359 Y43.649 E.00438
G1 X70.221 Y43.59 E.00471
G1 X67.41 Y43.59 E.08814
G1 X67.41 Y41.41 E.06835
G1 X70.221 Y41.41 E.08814
G1 X70.359 Y41.351 E.00471
G1 X70.41 Y41.221 E.00438
G1 X70.41 Y35.41 E.1822
G1 X72.59 Y35.41 E.06835
G1 X72.59 Y38.221 E.08814
G1 X72.628 Y38.335 E.00377
G1 X72.779 Y38.41 E.00529
G1 X76.221 Y38.41 E.10792
G1 X76.349 Y38.36 E.00431
G1 X76.41 Y38.221 E.00476
G1 X76.41 Y35.41 E.08814
G1 X88.09 Y35.41 E.36622
G1 X88.09 Y38.221 E.08814
G1 X88.155 Y38.364 E.00493
G1 X88.279 Y38.41 E.00415
G1 X91.721 Y38.41 E.10792
G1 X91.864 Y38.344 E.00494
G1 X91.91 Y38.221 E.00412
G1 X91.91 Y35.41 E.08814
G1 X103.59 Y35.41 E.36622
G1 X103.59 Y38.221 E.08814
G1 X103.636 Y38.344 E.00412
G1 X103.779 Y38.41 E.00494
G1 X107.221 Y38.41 E.10792
G1 X107.364 Y38.344 E.00494
G1 X107.41 Y38.221 E.00412
G1 X107.41 Y35.41 E.08814
G1 X109.59 Y35.41 E.06835
G1 X109.59 Y41.221 E.1822
G1 X109.646 Y41.356 E.00458
G1 X109.779 Y41.41 E.0045
G1 X112.59 Y41.41 E.08814
G1 X112.59 Y43.59 E.06835
G1 X109.779 Y43.59 E.08814
G1 X109.646 Y43.644 E.0045
G1 X109.59 Y43.779 E.00458
G1 X109.59 Y72.888 E.91269
G1 X109.646 Y73.022 E.00455
G1 X109.779 Y73.077 E.00451
G1 X112.59 Y73.077 E.08814
G1 X112.59 Y75.257 E.06835
G1 X109.779 Y75.257 E.08814
G1 X109.646 Y75.311 E.0045
G1 X109.59 Y75.445 E.00455
G1 X109.59 Y104.555 E.91272
G1 X109.646 Y104.689 E.00455
M73 P3 R36
G1 X109.779 Y104.743 E.0045
G1 X112.59 Y104.743 E.08814
G1 X112.59 Y106.923 E.06835
G1 X109.779 Y106.923 E.08814
G1 X109.646 Y106.978 E.00451
G1 X109.59 Y107.112 E.00455
G1 X109.59 Y136.221 E.91269
G1 X109.641 Y136.351 E.00438
G1 X109.779 Y136.41 E.00471
G1 X112.59 Y136.41 E.08814
G1 X112.59 Y138.59 E.06835
G1 X109.779 Y138.59 E.08814
G1 X109.641 Y138.649 E.00471
G1 X109.59 Y138.779 E.00438
G1 X109.59 Y144.59 E.1822
G1 X107.41 Y144.59 E.06835
G1 X107.41 Y141.779 E.08814
G1 X107.372 Y141.665 E.00377
G1 X107.221 Y141.59 E.00529
G1 X103.839 Y141.59 E.10604
M204 P1000
G1 X103.694 Y141.498 F9000
G1 E-2.7 F4200
G1 Z.4 F720
G1 X107.265 Y112.308 F9000
G1 Z.2 F720
G1 E2.7 F2400
M204 P600
;TYPE:Perimeter
G1 F1200
G1 X107.221 Y112.488 E.00581
G1 X107.061 Y112.674 E.00769
G1 X106.88 Y112.764 E.00634
G1 X106.721 Y112.787 E.00504
G1 X86.279 Y112.787 E.64094
G1 X86.003 Y112.715 E.00894
G1 X85.803 Y112.527 E.00861
G1 X85.716 Y112.277 E.0083
G1 X85.713 Y41.779 E2.21041
G1 X85.752 Y41.572 E.0066
G1 X85.857 Y41.402 E.00626
G1 X86.047 Y41.262 E.0074
G1 X86.279 Y41.213 E.00743
G1 X106.721 Y41.213 E.64094
G1 X106.959 Y41.265 E.00764
G1 X107.251 Y41.579 E.01344
G1 X107.287 Y41.779 E.00637
G1 X107.28 Y112.25 E2.20957
M204 P1000
G1 X106.91 Y112.221 F9000
M204 P600
;TYPE:External perimeter
G1 F1200
G1 X106.835 Y112.372 E.00529
G1 X106.721 Y112.41 E.00377
G1 X86.279 Y112.41 E.64094
G1 X86.14 Y112.349 E.00476
G1 X86.09 Y112.221 E.00431
G1 X86.09 Y41.779 E2.20866
G1 X86.138 Y41.653 E.00423
G1 X86.279 Y41.59 E.00484
G1 X106.721 Y41.59 E.64094
G1 X106.824 Y41.62 E.00336
G1 X106.91 Y41.779 E.00567
G1 X106.91 Y112.161 E2.20677
M204 P1000
G1 X107.024 Y112.346 F9000
G1 E-2.7 F4200
G1 Z.4 F720
M73 P4 R36
G1 X112.043 Y42.389 F9000
G1 Z.2 F720
G1 E2.7 F2400
M204 P600
;TYPE:Solid infill
;WIDTH:0.42034
G1 F1200
G1 X111.781 Y42.126 E.01165
G1 X111.246 Y42.125 E.01679
G1 X111.874 Y42.753 E.02787
G1 X111.874 Y42.874 E.0038
G1 X111.461 Y42.874 E.01296
G1 X110.712 Y42.125 E.03324
G1 X110.178 Y42.124 E.01676
G1 X111.098 Y43.044 E.04083
M204 P1000
G1 E-2.7 F4200
G1 Z.4 F720
G1 X109.043 Y36.72 F9000
G1 Z.2 F720
G1 E2.7 F2400
M204 P600
G1 F1200
G1 X108.45 Y36.126 E.02634
G1 X108.126 Y36.126 E.01017
G1 X108.125 Y36.335 E.00656
G1 X108.874 Y37.084 E.03324
G1 X108.874 Y37.618 E.01676
G1 X108.122 Y36.866 E.03338
G1 X108.12 Y37.397 E.01666
G1 X108.874 Y38.151 E.03346
G1 X108.874 Y38.685 E.01676
G1 X108.117 Y37.929 E.03357
G1 X108.115 Y38.386 E.01434
G1 X108.091 Y38.436 E.00174
G1 X108.874 Y39.219 E.03475
G1 X108.874 Y39.753 E.01676
G1 X107.92 Y38.799 E.04234
G1 X107.604 Y39.017 E.01205
G1 X108.874 Y40.286 E.05634
G1 X108.874 Y40.82 E.01676
G1 X107.18 Y39.126 E.07518
G1 X106.646 Y39.126 E.01676
G1 X108.9 Y41.38 E.10004
G1 X108.93 Y41.544 E.00523
G1 X109.138 Y41.865 E.012
G1 X109.379 Y42.036 E.00927
G1 X109.624 Y42.105 E.00799
G1 X110.395 Y42.876 E.03422
G1 X109.862 Y42.876 E.01673
G1 X106.112 Y39.126 E.16643
G1 X105.579 Y39.126 E.01673
G1 X109.408 Y42.956 E.16996
G1 X109.14 Y43.134 E.0101
G1 X109.104 Y43.186 E.00198
G1 X107.614 Y41.696 E.06613
G1 X107.614 Y41.623 E.00229
G1 X107.564 Y41.442 E.00589
G1 X107.226 Y41.023 E.01689
G1 X106.972 Y40.907 E.00876
G1 X106.802 Y40.883 E.00539
G1 X105.045 Y39.126 E.07798
G1 X104.511 Y39.126 E.01676
G1 X106.258 Y40.874 E.07756
G1 X105.724 Y40.874 E.01676
G1 X103.808 Y38.957 E.08506
M204 P1000
G1 X103.044 Y36.592 F9000
M204 P600
G1 F1200
G1 X102.579 Y36.126 E.02066
G1 X102.045 Y36.126 E.01676
G1 X102.875 Y36.956 E.03684
G1 X102.875 Y37.491 E.01679
G1 X101.511 Y36.126 E.06056
G1 X100.977 Y36.126 E.01676
G1 X103.046 Y38.195 E.09183
M204 P1000
G1 E-2.7 F4200
G1 Z.4 F720
G1 X100.274 Y35.957 F9000
G1 Z.2 F720
G1 E2.7 F2400
M204 P600
G1 F1200
G1 X105.191 Y40.874 E.21822
G1 X104.657 Y40.874 E.01676
G1 X99.91 Y36.126 E.2107
G1 X99.376 Y36.126 E.01676
G1 X104.123 Y40.874 E.2107
G1 X103.589 Y40.874 E.01676
G1 X98.842 Y36.126 E.2107
G1 X98.309 Y36.126 E.01673
G1 X103.056 Y40.874 E.2107
G1 X102.522 Y40.874 E.01676
G1 X97.775 Y36.126 E.2107
G1 X97.241 Y36.126 E.01676
G1 X101.988 Y40.874 E.2107
G1 X101.454 Y40.874 E.01676
G1 X96.707 Y36.126 E.2107
G1 X96.174 Y36.126 E.01673
G1 X100.921 Y40.874 E.2107
G1 X100.387 Y40.874 E.01676
G1 X95.64 Y36.126 E.2107
G1 X95.106 Y36.126 E.01676
G1 X99.853 Y40.874 E.2107
G1 X99.319 Y40.874 E.01676
G1 X94.572 Y36.126 E.2107
G1 X94.039 Y36.126 E.01673
G1 X98.786 Y40.874 E.2107
G1 X98.252 Y40.874 E.01676
G1 X93.505 Y36.126 E.2107
G1 X92.971 Y36.126 E.01676
G1 X97.718 Y40.874 E.2107
G1 X97.184 Y40.874 E.01676
M73 P4 R35
G1 X92.626 Y36.316 E.20229
G1 X92.626 Y36.849 E.01673
G1 X96.651 Y40.874 E.17864
G1 X96.117 Y40.874 E.01676
G1 X92.626 Y37.383 E.15494
G1 X92.626 Y37.917 E.01676
G1 X95.583 Y40.874 E.13124
G1 X95.049 Y40.874 E.01676
G1 X92.593 Y38.417 E.10902
G1 X92.57 Y38.544 E.00405
G1 X92.426 Y38.784 E.00878
G1 X94.516 Y40.874 E.09276
G1 X93.982 Y40.874 E.01676
G1 X92.134 Y39.026 E.08202
G1 X91.882 Y39.113 E.00837
G1 X91.701 Y39.126 E.00569
G1 X93.448 Y40.874 E.07756
G1 X92.914 Y40.874 E.01676
G1 X91.167 Y39.126 E.07756
G1 X90.634 Y39.126 E.01673
G1 X92.381 Y40.874 E.07756
G1 X91.847 Y40.874 E.01676
G1 X90.1 Y39.126 E.07756
G1 X89.566 Y39.126 E.01676
G1 X91.313 Y40.874 E.07756
G1 X90.779 Y40.874 E.01676
G1 X89.032 Y39.126 E.07756
G1 X88.499 Y39.126 E.01673
G1 X90.415 Y41.043 E.08506
M204 P1000
G1 E-2.7 F4200
G1 Z.4 F720
G1 X87.545 Y36.571 F9000
G1 Z.2 F720
G1 E2.7 F2400
M204 P600
G1 F1200
G1 X87.1 Y36.126 E.01975
G1 X86.566 Y36.126 E.01676
G1 X87.376 Y36.936 E.03595
G1 X87.377 Y37.471 E.01679
G1 X86.032 Y36.126 E.05969
G1 X85.499 Y36.126 E.01673
G1 X87.549 Y38.177 E.091
M204 P1000
G1 E-2.7 F4200
G1 Z.4 F720
G1 X84.795 Y35.957 F9000
G1 Z.2 F720
G1 E2.7 F2400
M204 P600
G1 F1200
G1 X89.712 Y40.874 E.21822
G1 X89.178 Y40.874 E.01676
G1 X84.431 Y36.126 E.2107
G1 X83.897 Y36.126 E.01676
G1 X88.644 Y40.874 E.2107
G1 X88.111 Y40.874 E.01673
G1 X83.364 Y36.126 E.2107
G1 X82.83 Y36.126 E.01676
G1 X87.577 Y40.874 E.2107
G1 X87.043 Y40.874 E.01676
G1 X82.296 Y36.126 E.2107
G1 X81.762 Y36.126 E.01676
G1 X86.509 Y40.874 E.2107
G1 X86.269 Y40.874 E.00753
G1 X86.016 Y40.914 E.00804
G1 X81.229 Y36.126 E.21248
G1 X80.695 Y36.126 E.01676
G1 X85.676 Y41.108 E.22109
G1 X85.503 Y41.31 E.00835
G1 X85.451 Y41.416 E.00371
G1 X80.161 Y36.126 E.23478
G1 X79.627 Y36.126 E.01676
G1 X85.378 Y41.877 E.25524
G1 X85.378 Y42.411 E.01676
G1 X79.094 Y36.126 E.27892
G1 X78.56 Y36.126 E.01676
G1 X85.378 Y42.945 E.30262
G1 X85.378 Y43.479 E.01676
G1 X78.026 Y36.126 E.32632
G1 X77.492 Y36.126 E.01676
G1 X85.378 Y44.012 E.34999
G1 X85.378 Y44.546 E.01676
G1 X77.126 Y36.294 E.36624
G1 X77.126 Y36.828 E.01676
G1 X85.378 Y45.08 E.36624
G1 X85.378 Y45.614 E.01676
G1 X77.126 Y37.362 E.36624
G1 X77.126 Y37.896 E.01676
