; generated by PrusaSlicer 2.6.1+win64 on 2023-10-12 at 14:06:34 UTC


;
;

;
;

;
;
; 

; external perimeters extrusion width = 0.45mm
; perimeters extrusion width = 0.45mm
; infill extrusion width = 0.45mm
; solid infill extrusion width = 0.45mm
; top infill extrusion width = 0.40mm
; first layer extrusion width = 0.42mm

M73 P0 R28
M201 X2500 Y2500 Z400 E5000 ; sets maximum accelerations, mm/sec^2
M203 X180 Y180 Z12 E80 ; sets maximum feedrates, mm / sec
M204 P2000 R1250 T2500 ; sets acceleration (P, T) and retract acceleration (R), mm/sec^2
M205 X8.00 Y8.00 Z2.00 E10.00 ; sets the jerk limits, mm/sec
M205 S0 T0 ; sets the minimum extruding and travel feed rate, mm/sec
;TYPE:Custom
M862.3 P "MINI" ; printer model check
G90 ; use absolute coordinates
M83 ; extruder relative mode
M104 S170 ; set extruder temp for bed leveling
M140 S100 ; set bed temp
M109 R170 ; wait for bed leveling temp
M190 S100 ; wait for bed temp
M204 T1250 ; set travel acceleration
G28 ; home all without mesh bed level
G29 ; mesh bed leveling 
M204 T2500 ; restore travel acceleration
M104 S255 ; set extruder temp
G92 E0
G1 Y-2 X179 F2400
G1 Z3 F720
M109 S255 ; wait for extruder temp

; intro line
G1 X170 F1000
G1 Z0.2 F720
G1 X110 E8 F900
G1 X40 E10 F700
G92 E0

M221 S95 ; set flow
G21 ; set units to millimeters
G90 ; use absolute coordinates
M83 ; use relative distances for extrusion
M900 K0.2 ; Filament gcode

M107
;LAYER_CHANGE
;Z:0.2
;HEIGHT:0.2
;BEFORE_LAYER_CHANGE
G92 E0.0
;0.2


G1 E-2.7 F4200
G1 Z.2 F720
;AFTER_LAYER_CHANGE
;0.2
G1 Z.4
G1 X57.319 Y65.319 F9000
G1 Z.2 F720
G1 E2.7 F2400
M204 P600
;TYPE:Skirt/Brim
;WIDTH:0.42
G1 F1200
G1 X59 Y64.623 E.05705
G1 X121 Y64.623 E1.94397
M73 P0 R27
G1 X122.681 Y65.319 E.05705
M73 P1 R27
G1 X128.681 Y71.319 E.26605
G1 X129.377 Y73 E.05705
G1 X129.377 Y107 E1.06605
G1 X128.681 Y108.681 E.05705
G1 X122.681 Y114.681 E.26605
G1 X121 Y115.377 E.05705
G1 X59 Y115.377 E1.94397
G1 X57.319 Y114.681 E.05705
G1 X51.319 Y108.681 E.26605
G1 X50.623 Y107 E.05705
G1 X50.623 Y73 E1.06605
G1 X51.319 Y71.319 E.05705
G1 X57.277 Y65.362 E.26417
M204 P1000
; printing object side4.stl id:0 copy 0
G1 E-2.7 F4200
G1 Z.4 F720
G1 X98.766 Y89.676 F9000
G1 Z.2 F720
G1 E2.7 F2400
M204 P600
;TYPE:Perimeter
;WIDTH:0.419999
G1 F1200
G1 X98.692 Y89.464 E.00704
G1 X98.484 Y89.278 E.00875
G1 X98.221 Y89.213 E.00849
G1 X77.779 Y89.213 E.64094
G1 X77.688 Y89.22 E.00286
G1 X77.448 Y89.32 E.00815
G1 X77.272 Y89.526 E.0085
G1 X77.213 Y89.779 E.00815
G1 X77.213 Y109.213 E.60934
G1 X61.706 Y109.218 E.48621
G1 X61.488 Y109.293 E.00723
G1 X61.285 Y109.503 E.00916
G1 X61.213 Y109.779 E.00894
G1 X61.213 Y112.213 E.07632
G1 X59.787 Y112.213 E.04471
G1 X59.787 Y109.779 E.07632
G1 X59.715 Y109.503 E.00894
G1 X59.599 Y109.357 E.00585
G1 X59.453 Y109.262 E.00546
G1 X59.221 Y109.213 E.00743
G1 X56.787 Y109.213 E.07632
G1 X56.779 Y106.681 E.07939
G1 X56.707 Y106.488 E.00646
G1 X56.497 Y106.285 E.00916
G1 X56.221 Y106.213 E.00894
G1 X53.787 Y106.213 E.07632
G1 X53.787 Y104.787 E.04471
G1 X56.221 Y104.787 E.07632
G1 X56.497 Y104.715 E.00894
G1 X56.643 Y104.599 E.00585
G1 X56.738 Y104.453 E.00546
G1 X56.787 Y104.221 E.00743
G1 X56.787 Y91.279 E.40579
G1 X56.716 Y91.004 E.00891
G1 X56.512 Y90.794 E.00918
G1 X56.221 Y90.713 E.00947
G1 X53.787 Y90.713 E.07632
G1 X53.787 Y89.287 E.04471
G1 X56.221 Y89.287 E.07632
G1 X56.512 Y89.206 E.00947
M73 P2 R27
G1 X56.716 Y88.996 E.00918
G1 X56.787 Y88.721 E.00891
G1 X56.782 Y75.706 E.40808
G1 X56.707 Y75.488 E.00723
G1 X56.497 Y75.285 E.00916
G1 X56.221 Y75.213 E.00894
G1 X53.787 Y75.213 E.07632
G1 X53.787 Y73.787 E.04471
G1 X56.221 Y73.787 E.07632
G1 X56.497 Y73.715 E.00894
G1 X56.643 Y73.599 E.00585
G1 X56.738 Y73.453 E.00546
G1 X56.787 Y73.221 E.00743
G1 X56.787 Y70.787 E.07632
G1 X59.319 Y70.779 E.07939
G1 X59.512 Y70.707 E.00646
G1 X59.715 Y70.497 E.00916
G1 X59.787 Y70.221 E.00894
G1 X59.787 Y67.787 E.07632
G1 X61.213 Y67.787 E.04471
G1 X61.213 Y70.221 E.07632
G1 X61.285 Y70.497 E.00894
G1 X61.401 Y70.643 E.00585
G1 X61.547 Y70.738 E.00546
G1 X61.779 Y70.787 E.00743
G1 X88.721 Y70.787 E.84475
G1 X88.984 Y70.722 E.00849
G1 X89.199 Y70.525 E.00914
G1 X89.287 Y70.221 E.00992
G1 X89.287 Y67.787 E.07632
G1 X90.713 Y67.787 E.04471
G1 X90.713 Y70.221 E.07632
G1 X90.801 Y70.525 E.00992
G1 X91.016 Y70.722 E.00914
G1 X91.279 Y70.787 E.00849
G1 X118.221 Y70.787 E.84475
G1 X118.294 Y70.782 E.00229
G1 X118.512 Y70.707 E.00723
G1 X118.715 Y70.497 E.00916
G1 X118.787 Y70.221 E.00894
G1 X118.787 Y67.787 E.07632
G1 X120.213 Y67.787 E.04471
G1 X120.213 Y70.221 E.07632
G1 X120.285 Y70.497 E.00894
G1 X120.401 Y70.643 E.00585
G1 X120.547 Y70.738 E.00546
G1 X120.779 Y70.787 E.00743
G1 X123.213 Y70.787 E.07632
G1 X123.221 Y73.319 E.07939
G1 X123.293 Y73.512 E.00646
G1 X123.503 Y73.715 E.00916
G1 X123.779 Y73.787 E.00894
G1 X126.213 Y73.787 E.07632
G1 X126.213 Y75.213 E.04471
G1 X123.779 Y75.213 E.07632
G1 X123.503 Y75.285 E.00894
G1 X123.357 Y75.401 E.00585
G1 X123.262 Y75.547 E.00546
G1 X123.213 Y75.779 E.00743
G1 X123.213 Y88.721 E.40579
G1 X123.28 Y88.988 E.00863
G1 X123.479 Y89.202 E.00916
G1 X123.779 Y89.287 E.00978
G1 X126.213 Y89.287 E.07632
G1 X126.213 Y90.713 E.04471
G1 X123.779 Y90.713 E.07632
G1 X123.479 Y90.798 E.00978
G1 X123.28 Y91.012 E.00916
G1 X123.213 Y91.279 E.00863
G1 X123.218 Y104.294 E.40808
G1 X123.293 Y104.512 E.00723
G1 X123.503 Y104.715 E.00916
G1 X123.779 Y104.787 E.00894
G1 X126.213 Y104.787 E.07632
G1 X126.213 Y106.213 E.04471
G1 X123.779 Y106.213 E.07632
G1 X123.503 Y106.285 E.00894
G1 X123.357 Y106.401 E.00585
G1 X123.262 Y106.547 E.00546
G1 X123.213 Y106.779 E.00743
G1 X123.213 Y109.213 E.07632
G1 X120.681 Y109.221 E.07939
G1 X120.488 Y109.293 E.00646
G1 X120.285 Y109.503 E.00916
G1 X120.213 Y109.779 E.00894
G1 X120.213 Y112.213 E.07632
G1 X118.787 Y112.213 E.04471
G1 X118.787 Y109.779 E.07632
G1 X118.715 Y109.503 E.00894
G1 X118.599 Y109.357 E.00585
G1 X118.453 Y109.262 E.00546
G1 X118.221 Y109.213 E.00743
G1 X98.787 Y109.213 E.60934
G1 X98.785 Y89.733 E.61078
M204 P1000
G1 X98.41 Y89.779 F9000
M204 P600
;TYPE:External perimeter
G1 F1200
G1 X98.363 Y89.654 E.00419
G1 X98.221 Y89.59 E.00488
G1 X77.779 Y89.59 E.64094
G1 X77.657 Y89.634 E.00407
G1 X77.59 Y89.779 E.00501
G1 X77.59 Y109.59 E.62116
G1 X61.779 Y109.59 E.49574
G1 X61.653 Y109.638 E.00423
G1 X61.59 Y109.779 E.00484
G1 X61.59 Y112.59 E.08814
G1 X59.41 Y112.59 E.06835
G1 X59.41 Y109.779 E.08814
G1 X59.347 Y109.638 E.00484
G1 X59.221 Y109.59 E.00423
G1 X56.41 Y109.59 E.08814
G1 X56.41 Y106.779 E.08814
G1 X56.362 Y106.653 E.00423
G1 X56.221 Y106.59 E.00484
G1 X53.41 Y106.59 E.08814
G1 X53.41 Y104.41 E.06835
G1 X56.221 Y104.41 E.08814
G1 X56.362 Y104.347 E.00484
G1 X56.41 Y104.221 E.00423
G1 X56.41 Y91.279 E.40579
G1 X56.366 Y91.158 E.00404
G1 X56.221 Y91.09 E.00502
G1 X53.41 Y91.09 E.08814
G1 X53.41 Y88.91 E.06835
G1 X56.221 Y88.91 E.08814
G1 X56.366 Y88.842 E.00502
G1 X56.41 Y88.721 E.00404
G1 X56.41 Y75.779 E.40579
G1 X56.362 Y75.653 E.00423
G1 X56.221 Y75.59 E.00484
G1 X53.41 Y75.59 E.08814
G1 X53.41 Y73.41 E.06835
G1 X56.221 Y73.41 E.08814
G1 X56.362 Y73.347 E.00484
M73 P3 R27
G1 X56.41 Y73.221 E.00423
G1 X56.41 Y70.41 E.08814
G1 X59.221 Y70.41 E.08814
G1 X59.347 Y70.362 E.00423
G1 X59.41 Y70.221 E.00484
G1 X59.41 Y67.41 E.08814
G1 X61.59 Y67.41 E.06835
G1 X61.59 Y70.221 E.08814
G1 X61.653 Y70.362 E.00484
G1 X61.779 Y70.41 E.00423
G1 X88.721 Y70.41 E.84475
G1 X88.838 Y70.37 E.00388
G1 X88.91 Y70.221 E.00519
G1 X88.91 Y67.41 E.08814
G1 X91.09 Y67.41 E.06835
G1 X91.09 Y70.221 E.08814
G1 X91.162 Y70.37 E.00519
G1 X91.279 Y70.41 E.00388
G1 X118.221 Y70.41 E.84475
G1 X118.347 Y70.362 E.00423
G1 X118.41 Y70.221 E.00484
G1 X118.41 Y67.41 E.08814
G1 X120.59 Y67.41 E.06835
G1 X120.59 Y70.221 E.08814
G1 X120.653 Y70.362 E.00484
G1 X120.779 Y70.41 E.00423
G1 X123.59 Y70.41 E.08814
G1 X123.59 Y73.221 E.08814
G1 X123.638 Y73.347 E.00423
G1 X123.779 Y73.41 E.00484
G1 X126.59 Y73.41 E.08814
G1 X126.59 Y75.59 E.06835
G1 X123.779 Y75.59 E.08814
G1 X123.638 Y75.653 E.00484
G1 X123.59 Y75.779 E.00423
G1 X123.59 Y88.721 E.40579
G1 X123.631 Y88.839 E.00392
G1 X123.779 Y88.91 E.00515
G1 X126.59 Y88.91 E.08814
G1 X126.59 Y91.09 E.06835
G1 X123.779 Y91.09 E.08814
G1 X123.631 Y91.161 E.00515
G1 X123.59 Y91.279 E.00392
G1 X123.59 Y104.221 E.40579
G1 X123.638 Y104.347 E.00423
G1 X123.779 Y104.41 E.00484
G1 X126.59 Y104.41 E.08814
G1 X126.59 Y106.59 E.06835
G1 X123.779 Y106.59 E.08814
G1 X123.638 Y106.653 E.00484
G1 X123.59 Y106.779 E.00423
G1 X123.59 Y109.59 E.08814
G1 X120.779 Y109.59 E.08814
G1 X120.653 Y109.638 E.00423
G1 X120.59 Y109.779 E.00484
G1 X120.59 Y112.59 E.08814
G1 X118.41 Y112.59 E.06835
G1 X118.41 Y109.779 E.08814
G1 X118.347 Y109.638 E.00484
G1 X118.221 Y109.59 E.00423
G1 X98.41 Y109.59 E.62116
G1 X98.41 Y89.839 E.61928
M204 P1000
G1 X98.479 Y89.665 F9000
G1 E-2.7 F4200
G1 Z.4 F720
G1 X126.043 Y105.728 F9000
G1 Z.2 F720
G1 E2.7 F2400
M204 P600
;TYPE:Solid infill
;WIDTH:0.420944
G1 F1200
G1 X125.441 Y105.126 E.02676
G1 X124.905 Y105.125 E.01685
G1 X125.654 Y105.874 E.0333
G1 X125.12 Y105.875 E.01679
G1 X124.2 Y104.955 E.0409
M204 P1000
G1 E-2.7 F4200
G1 Z.4 F720
G1 X126.043 Y90.225 F9000
G1 Z.2 F720
G1 E2.7 F2400
M204 P600
G1 F1200
G1 X125.444 Y89.626 E.02663
G1 X124.909 Y89.625 E.01682
G1 X125.658 Y90.374 E.0333
G1 X125.124 Y90.375 E.01679
G1 X124.204 Y89.455 E.0409
M204 P1000
G1 E-2.7 F4200
G1 Z.4 F720
G1 X119.279 Y67.957 F9000
G1 Z.2 F720
G1 E2.7 F2400
M204 P600
G1 F1200
G1 X119.874 Y68.552 E.02645
G1 X119.875 Y69.087 E.01682
G1 X119.126 Y68.338 E.0333
G1 X119.125 Y68.872 E.01679
G1 X120.045 Y69.793 E.04092
M204 P1000
G1 X122.279 Y70.957 F9000
M204 P600
G1 F1200
G1 X122.876 Y71.554 E.02654
G1 X122.879 Y72.091 E.01688
G1 X121.914 Y71.126 E.0429
G1 X121.379 Y71.126 E.01682
G1 X123.052 Y72.799 E.07437
M204 P1000
G1 X125.279 Y73.957 F9000
M204 P600
G1 F1200
G1 X125.874 Y74.551 E.02643
G1 X125.874 Y74.874 E.01015
G1 X125.662 Y74.874 E.00666
G1 X124.914 Y74.126 E.03325
G1 X124.379 Y74.126 E.01682
G1 X125.128 Y74.875 E.0333
G1 X124.594 Y74.875 E.01679
G1 X123.845 Y74.126 E.0333
G1 X123.687 Y74.123 E.00497
G1 X123.339 Y74.016 E.01144
G1 X123.107 Y73.83 E.00935
G1 X122.997 Y73.681 E.00582
G1 X122.885 Y73.379 E.01012
G1 X122.884 Y73.166 E.0067
G1 X120.845 Y71.126 E.09066
G1 X120.478 Y71.076 E.01164
G1 X120.314 Y70.999 E.00569
G1 X120.17 Y70.893 E.00562
G1 X119.984 Y70.661 E.00935
G1 X119.876 Y70.31 E.01154
G1 X119.876 Y70.158 E.00478
G1 X119.125 Y69.406 E.03341
G1 X119.124 Y69.94 E.01679
G1 X124.06 Y74.876 E.21942
G1 X123.69 Y74.876 E.01163
G1 X123.564 Y74.915 E.00415
G1 X119.085 Y70.436 E.1991
G1 X119.016 Y70.661 E.0074
G1 X118.909 Y70.794 E.00537
G1 X123.206 Y75.091 E.19101
G1 X123.107 Y75.17 E.00398
G1 X122.967 Y75.387 E.00812
G1 X118.613 Y71.033 E.19355
G1 X118.522 Y71.076 E.00316
G1 X118.172 Y71.126 E.01111
G1 X122.874 Y75.828 E.20902
G1 X122.874 Y76.363 E.01682
G1 X117.637 Y71.126 E.2328
G1 X117.102 Y71.126 E.01682
G1 X122.874 Y76.897 E.25656
G1 X122.874 Y77.432 E.01682
G1 X116.568 Y71.126 E.28032
G1 X116.033 Y71.126 E.01682
G1 X122.874 Y77.967 E.3041
G1 X122.874 Y78.501 E.01679
M73 P4 R27
G1 X115.498 Y71.126 E.32786
G1 X114.963 Y71.126 E.01682
G1 X122.874 Y79.036 E.35164
G1 X122.874 Y79.57 E.01679
G1 X114.429 Y71.126 E.37538
G1 X113.894 Y71.125 E.01682
G1 X122.874 Y80.105 E.39919
G1 X122.874 Y80.64 E.01682
G1 X113.359 Y71.125 E.42297
G1 X112.824 Y71.125 E.01682
G1 X122.874 Y81.174 E.44673
G1 X122.874 Y81.709 E.01682
G1 X112.29 Y71.125 E.47049
G1 X111.755 Y71.125 E.01682
G1 X122.874 Y82.243 E.49425
G1 X122.874 Y82.778 E.01682
G1 X111.22 Y71.125 E.51803
G1 X110.686 Y71.125 E.01679
G1 X122.874 Y83.313 E.54179
G1 X122.874 Y83.847 E.01679
G1 X110.151 Y71.125 E.56555
G1 X109.616 Y71.124 E.01682
G1 X122.874 Y84.382 E.58935
G1 X122.874 Y84.917 E.01682
M73 P4 R26
G1 X109.081 Y71.124 E.61314
G1 X108.547 Y71.124 E.01679
G1 X122.874 Y85.451 E.63687
G1 X122.874 Y85.986 E.01682
G1 X108.012 Y71.124 E.66066
G1 X107.477 Y71.124 E.01682
G1 X122.874 Y86.52 E.68442
G1 X122.874 Y87.055 E.01682
G1 X106.942 Y71.124 E.7082
G1 X106.408 Y71.124 E.01679
G1 X122.874 Y87.59 E.73196
G1 X122.874 Y88.124 E.01679
G1 X105.873 Y71.124 E.75572
G1 X105.338 Y71.123 E.01682
M73 P5 R26
G1 X122.874 Y88.659 E.77952
G1 X122.896 Y88.925 E.00839
G1 X122.978 Y89.146 E.00741
G1 X123.075 Y89.293 E.00554
G1 X123.303 Y89.495 E.00957
G1 X123.688 Y89.624 E.01276
G1 X123.839 Y89.624 E.00475
G1 X124.59 Y90.375 E.03338
G1 X124.056 Y90.376 E.01679
G1 X104.803 Y71.123 E.85585
G1 X104.269 Y71.123 E.01679
G1 X123.564 Y90.418 E.85772
G1 X123.303 Y90.505 E.00865
G1 X123.204 Y90.593 E.00416
G1 X103.734 Y71.123 E.86549
G1 X103.199 Y71.123 E.01682
G1 X122.965 Y90.889 E.87865
G1 X122.891 Y91.097 E.00694
G1 X122.874 Y91.332 E.00741
G1 X102.665 Y71.123 E.89835
G1 X102.13 Y71.123 E.01682
G1 X122.874 Y91.867 E.92213
G1 X122.874 Y92.402 E.01682
G1 X101.595 Y71.123 E.94591
G1 X101.06 Y71.122 E.01682
G1 X122.874 Y92.936 E.96969
G1 X122.875 Y93.471 E.01682
G1 X100.526 Y71.122 E.99347
G1 X99.991 Y71.122 E.01682
G1 X122.875 Y94.006 E1.01726
G1 X122.875 Y94.541 E.01682
G1 X99.456 Y71.122 E1.04104
G1 X98.921 Y71.122 E.01682
M73 P6 R26
G1 X122.875 Y95.076 E1.06482
G1 X122.876 Y95.611 E.01682
G1 X98.387 Y71.122 E1.0886
G1 X97.852 Y71.122 E.01682
G1 X122.876 Y96.146 E1.11239
G1 X122.876 Y96.68 E.01679
G1 X97.317 Y71.121 E1.13617
G1 X96.782 Y71.121 E.01682
G1 X122.876 Y97.215 E1.15995
G1 X122.877 Y97.75 E.01682
G1 X96.248 Y71.121 E1.18373
G1 X95.713 Y71.121 E.01682
G1 X122.877 Y98.285 E1.20751
G1 X122.877 Y98.82 E.01682
G1 X95.178 Y71.121 E1.2313
G1 X94.644 Y71.121 E.01679
G1 X122.877 Y99.355 E1.25506
G1 X122.878 Y99.89 E.01682
M73 P7 R26
G1 X94.109 Y71.121 E1.27886
G1 X93.574 Y71.121 E.01682
G1 X122.878 Y100.425 E1.30264
G1 X122.878 Y100.959 E.01679
G1 X93.039 Y71.12 E1.32642
G1 X92.505 Y71.12 E.01679
G1 X122.878 Y101.494 E1.35018
G1 X122.879 Y102.029 E.01682
G1 X91.8 Y70.95 E1.38155
M204 P1000
G1 X90.544 Y68.625 F9000
M204 P600
G1 F1200
G1 X90.045 Y68.126 E.02218
G1 X89.626 Y68.126 E.01317
G1 X89.626 Y68.242 E.00365
G1 X90.375 Y68.991 E.0333
G1 X90.375 Y69.526 E.01682
G1 X89.625 Y68.776 E.03334
G1 X89.625 Y69.31 E.01679
G1 X90.376 Y70.061 E.03338
G1 X90.376 Y70.312 E.00789
G1 X90.509 Y70.703 E.01298
G1 X90.716 Y70.933 E.00973
G1 X90.945 Y71.064 E.00829
G1 X91.161 Y71.12 E.00701
G1 X91.435 Y71.12 E.00861
G1 X122.879 Y102.564 E1.39777
G1 X122.879 Y103.099 E.01682
G1 X89.624 Y69.844 E1.47828
G1 X89.624 Y70.312 E.01471
M73 P8 R26
G1 X89.607 Y70.361 E.00163
G1 X123.049 Y103.803 E1.48659
M204 P1000
G1 X124.756 Y106.045 F9000
M204 P600
M73 P8 R25
G1 F1200
G1 X123.835 Y105.124 E.04094
G1 X123.69 Y105.124 E.00456
G1 X123.339 Y105.016 E.01154
G1 X123.104 Y104.827 E.00948
G1 X122.951 Y104.593 E.00879
G1 X122.88 Y104.34 E.00826
G1 X122.88 Y104.169 E.00538
G1 X89.455 Y70.744 E1.48583
G1 X89.284 Y70.933 E.00801
G1 X89.173 Y70.996 E.00401
G1 X124.053 Y105.876 E1.55051
G1 X123.69 Y105.876 E.01141
G1 X123.559 Y105.917 E.00431
G1 X88.767 Y71.125 E1.5466
G1 X88.232 Y71.125 E.01682
G1 X123.202 Y106.094 E1.55449
G1 X123.107 Y106.17 E.00382
G1 X122.964 Y106.392 E.0083
G1 X87.698 Y71.125 E1.56769
G1 X87.163 Y71.125 E.01682
G1 X122.874 Y106.835 E1.58743
G1 X122.874 Y107.37 E.01682
M73 P9 R25
G1 X86.629 Y71.125 E1.61119
G1 X86.094 Y71.125 E.01682
G1 X122.874 Y107.905 E1.63497
G1 X122.874 Y108.439 E.01679
G1 X85.559 Y71.125 E1.65873
G1 X85.025 Y71.125 E.01679
G1 X122.774 Y108.875 E1.67807
G1 X122.242 Y108.877 E.01672
G1 X84.49 Y71.125 E1.67818
G1 X83.956 Y71.125 E.01679
G1 X121.71 Y108.88 E1.67829
G1 X121.178 Y108.882 E.01672
M73 P10 R25
G1 X83.421 Y71.125 E1.6784
G1 X82.887 Y71.125 E.01679
G1 X120.646 Y108.885 E1.67851
G1 X120.319 Y108.997 E.01086
G1 X120.264 Y109.038 E.00216
G1 X82.352 Y71.125 E1.68531
G1 X81.817 Y71.125 E.01682
G1 X120.005 Y109.313 E1.69756
G1 X119.982 Y109.342 E.00116
G1 X119.882 Y109.725 E.01244
G1 X81.283 Y71.125 E1.71585
G1 X80.748 Y71.125 E.01682
G1 X119.874 Y110.251 E1.73926
G1 X119.874 Y110.785 E.01679
G1 X119.126 Y110.038 E.03323
G1 X119.126 Y110.573 E.01682
M73 P11 R25
G1 X119.874 Y111.32 E.03323
