; generated by PrusaSlicer 2.6.1+win64 on 2023-10-12 at 15:46:52 UTC


;
;

;
;

;
;
; 

; external perimeters extrusion width = 0.45mm
; perimeters extrusion width = 0.45mm
; infill extrusion width = 0.45mm
; solid infill extrusion width = 0.45mm
; top infill extrusion width = 0.40mm
; first layer extrusion width = 0.42mm

M73 P0 R47
M201 X2500 Y2500 Z400 E5000 ; sets maximum accelerations, mm/sec^2
M203 X180 Y180 Z12 E80 ; sets maximum feedrates, mm / sec
M204 P2000 R1250 T2500 ; sets acceleration (P, T) and retract acceleration (R), mm/sec^2
M205 X8.00 Y8.00 Z2.00 E10.00 ; sets the jerk limits, mm/sec
M205 S0 T0 ; sets the minimum extruding and travel feed rate, mm/sec
;TYPE:Custom
M862.3 P "MINI" ; printer model check
G90 ; use absolute coordinates
M83 ; extruder relative mode
M104 S170 ; set extruder temp for bed leveling
M140 S100 ; set bed temp
M109 R170 ; wait for bed leveling temp
M190 S100 ; wait for bed temp
M204 T1250 ; set travel acceleration
G28 ; home all without mesh bed level
G29 ; mesh bed leveling 
M204 T2500 ; restore travel acceleration
M104 S255 ; set extruder temp
G92 E0
G1 Y-2 X179 F2400
G1 Z3 F720
M109 S255 ; wait for extruder temp

; intro line
G1 X170 F1000
G1 Z0.2 F720
G1 X110 E8 F900
G1 X40 E10 F700
G92 E0

M221 S95 ; set flow
G21 ; set units to millimeters
G90 ; use absolute coordinates
M83 ; use relative distances for extrusion
M900 K0.2 ; Filament gcode

M107
;LAYER_CHANGE
;Z:0.2
;HEIGHT:0.2
;BEFORE_LAYER_CHANGE
G92 E0.0
;0.2


G1 E-2.7 F4200
G1 Z.2 F720
;AFTER_LAYER_CHANGE
;0.2
G1 Z.4
G1 X67.874 Y33.937 F9000
G1 Z.2 F720
G1 E2.7 F2400
M204 P600
;TYPE:Skirt/Brim
;WIDTH:0.42
G1 F1200
G1 X68.809 Y32.943 E.04279
G1 X70 Y32.623 E.03867
G1 X110 Y32.623 E1.25417
G1 X111.307 Y33.015 E.04278
G1 X112.126 Y33.937 E.03867
G1 X115.126 Y39.937 E.21033
G1 X115.377 Y41 E.03425
G1 X115.377 Y139 E3.07272
G1 X115.126 Y140.063 E.03425
G1 X112.126 Y146.063 E.21033
G1 X111.191 Y147.057 E.04279
G1 X110 Y147.377 E.03867
G1 X70 Y147.377 E1.25417
G1 X68.693 Y146.985 E.04278
G1 X67.874 Y146.063 E.03867
G1 X64.874 Y140.063 E.21033
G1 X64.623 Y139 E.03425
G1 X64.623 Y41 E3.07272
G1 X64.874 Y39.937 E.03425
M73 P1 R46
G1 X67.847 Y33.991 E.20844
M204 P1000
; printing object Side Wall 1.stl id:0 copy 0
G1 E-2.7 F4200
G1 Z.4 F720
G1 X91.803 Y141.232 F9000
G1 Z.2 F720
G1 E2.7 F2400
M204 P600
;TYPE:Perimeter
;WIDTH:0.419999
G1 F1200
G1 X91.721 Y141.213 E.00264
G1 X88.279 Y141.213 E.10792
G1 X87.995 Y141.289 E.00922
G1 X87.792 Y141.49 E.00896
G1 X87.713 Y141.779 E.00939
G1 X87.713 Y144.213 E.07632
G1 X76.787 Y144.213 E.34258
G1 X76.787 Y141.779 E.07632
G1 X76.773 Y141.653 E.00397
G1 X76.673 Y141.437 E.00746
G1 X76.473 Y141.272 E.00813
G1 X76.221 Y141.213 E.00811
G1 X72.779 Y141.213 E.10792
G1 X72.561 Y141.256 E.00697
G1 X72.326 Y141.439 E.00934
G1 X72.213 Y141.779 E.01123
G1 X72.213 Y144.213 E.07632
G1 X70.787 Y144.213 E.04471
G1 X70.787 Y138.779 E.17038
G1 X70.701 Y138.478 E.00982
G1 X70.487 Y138.279 E.00916
G1 X70.221 Y138.213 E.00859
G1 X67.787 Y138.213 E.07632
G1 X67.787 Y136.787 E.04471
G1 X70.221 Y136.787 E.07632
G1 X70.487 Y136.721 E.00859
G1 X70.634 Y136.609 E.00579
G1 X70.733 Y136.462 E.00556
G1 X70.787 Y136.221 E.00774
G1 X70.787 Y107.112 E.91269
G1 X70.715 Y106.835 E.00897
G1 X70.511 Y106.626 E.00916
G1 X70.221 Y106.546 E.00943
G1 X67.787 Y106.546 E.07632
G1 X67.787 Y105.12 E.04471
G1 X70.221 Y105.12 E.07632
G1 X70.511 Y105.041 E.00942
G1 X70.715 Y104.831 E.00918
G1 X70.787 Y104.555 E.00894
G1 X70.787 Y75.445 E.91272
G1 X70.715 Y75.169 E.00894
G1 X70.511 Y74.959 E.00918
G1 X70.221 Y74.88 E.00942
G1 X67.787 Y74.88 E.07632
G1 X67.787 Y73.454 E.04471
G1 X70.221 Y73.454 E.07632
G1 X70.511 Y73.374 E.00943
G1 X70.715 Y73.165 E.00916
G1 X70.787 Y72.888 E.00897
G1 X70.781 Y43.699 E.9152
G1 X70.701 Y43.478 E.00737
G1 X70.487 Y43.279 E.00916
G1 X70.221 Y43.213 E.00859
G1 X67.787 Y43.213 E.07632
G1 X67.787 Y41.787 E.04471
G1 X70.221 Y41.787 E.07632
G1 X70.487 Y41.721 E.00859
G1 X70.701 Y41.522 E.00916
G1 X70.787 Y41.221 E.00982
G1 X70.787 Y35.787 E.17038
G1 X72.213 Y35.787 E.04471
G1 X72.213 Y38.221 E.07632
G1 X72.326 Y38.561 E.01123
G1 X72.561 Y38.744 E.00934
G1 X72.779 Y38.787 E.00697
G1 X76.287 Y38.783 E.10999
G1 X76.505 Y38.711 E.0072
G1 X76.708 Y38.51 E.00896
G1 X76.787 Y38.221 E.00939
G1 X76.787 Y35.787 E.07632
G1 X87.713 Y35.787 E.34258
G1 X87.713 Y38.221 E.07632
G1 X87.727 Y38.347 E.00397
G1 X87.827 Y38.563 E.00746
G1 X88.026 Y38.728 E.00811
G1 X88.279 Y38.787 E.00815
G1 X91.721 Y38.787 E.10792
G1 X92.005 Y38.711 E.00922
G1 X92.208 Y38.51 E.00896
G1 X92.287 Y38.221 E.00939
G1 X92.287 Y35.787 E.07632
G1 X103.213 Y35.787 E.34258
G1 X103.213 Y38.221 E.07632
G1 X103.227 Y38.347 E.00397
G1 X103.327 Y38.563 E.00746
G1 X103.527 Y38.728 E.00813
G1 X103.779 Y38.787 E.00811
G1 X107.221 Y38.787 E.10792
G1 X107.439 Y38.744 E.00697
G1 X107.674 Y38.561 E.00934
G1 X107.787 Y38.221 E.01123
G1 X107.787 Y35.787 E.07632
G1 X109.213 Y35.787 E.04471
G1 X109.213 Y41.221 E.17038
G1 X109.299 Y41.522 E.00982
G1 X109.513 Y41.721 E.00916
G1 X109.779 Y41.787 E.00859
G1 X112.213 Y41.787 E.07632
G1 X112.213 Y43.213 E.04471
G1 X109.779 Y43.213 E.07632
G1 X109.513 Y43.279 E.00859
G1 X109.366 Y43.391 E.00579
G1 X109.267 Y43.538 E.00556
G1 X109.213 Y43.779 E.00774
G1 X109.213 Y72.888 E.91269
G1 X109.285 Y73.165 E.00897
G1 X109.489 Y73.374 E.00916
G1 X109.779 Y73.454 E.00943
G1 X112.213 Y73.454 E.07632
G1 X112.213 Y74.88 E.04471
G1 X109.779 Y74.88 E.07632
G1 X109.489 Y74.959 E.00942
G1 X109.285 Y75.169 E.00918
G1 X109.213 Y75.445 E.00894
G1 X109.213 Y104.555 E.91272
G1 X109.285 Y104.831 E.00894
G1 X109.489 Y105.041 E.00918
G1 X109.779 Y105.12 E.00942
G1 X112.213 Y105.12 E.07632
G1 X112.213 Y106.546 E.04471
G1 X109.779 Y106.546 E.07632
G1 X109.489 Y106.626 E.00943
G1 X109.285 Y106.835 E.00916
G1 X109.213 Y107.112 E.00897
G1 X109.219 Y136.301 E.9152
G1 X109.299 Y136.522 E.00737
G1 X109.513 Y136.721 E.00916
G1 X109.779 Y136.787 E.00859
G1 X112.213 Y136.787 E.07632
G1 X112.213 Y138.213 E.04471
G1 X109.779 Y138.213 E.07632
G1 X109.513 Y138.279 E.00859
G1 X109.299 Y138.478 E.00916
G1 X109.213 Y138.779 E.00982
G1 X109.213 Y144.213 E.17038
G1 X107.787 Y144.213 E.04471
G1 X107.787 Y141.779 E.07632
G1 X107.674 Y141.439 E.01123
G1 X107.439 Y141.256 E.00934
G1 X107.221 Y141.213 E.00697
G1 X103.713 Y141.217 E.10999
G1 X103.495 Y141.289 E.0072
G1 X103.292 Y141.49 E.00896
G1 X103.213 Y141.779 E.00939
G1 X103.213 Y144.213 E.07632
G1 X92.287 Y144.213 E.34258
G1 X92.287 Y141.779 E.07632
G1 X92.273 Y141.653 E.00397
G1 X92.173 Y141.437 E.00746
G1 X91.974 Y141.272 E.00811
G1 X91.861 Y141.246 E.00364
M204 P1000
G1 X91.721 Y141.59 F9000
M204 P600
;TYPE:External perimeter
G1 F1200
G1 X88.279 Y141.59 E.10792
G1 X88.16 Y141.632 E.00396
G1 X88.09 Y141.779 E.0051
G1 X88.09 Y144.59 E.08814
G1 X76.41 Y144.59 E.36622
G1 X76.41 Y141.779 E.08814
G1 X76.363 Y141.654 E.00419
G1 X76.221 Y141.59 E.00488
G1 X72.779 Y141.59 E.10792
G1 X72.628 Y141.665 E.00529
G1 X72.59 Y141.779 E.00377
G1 X72.59 Y144.59 E.08814
G1 X70.41 Y144.59 E.06835
G1 X70.41 Y138.779 E.1822
G1 X70.359 Y138.649 E.00438
G1 X70.221 Y138.59 E.00471
G1 X67.41 Y138.59 E.08814
G1 X67.41 Y136.41 E.06835
G1 X70.221 Y136.41 E.08814
G1 X70.359 Y136.351 E.00471
G1 X70.41 Y136.221 E.00438
G1 X70.41 Y107.112 E.91269
G1 X70.366 Y106.991 E.00404
G1 X70.221 Y106.923 E.00502
G1 X67.41 Y106.923 E.08814
G1 X67.41 Y104.743 E.06835
G1 X70.221 Y104.743 E.08814
G1 X70.366 Y104.676 E.00501
G1 X70.41 Y104.555 E.00404
G1 X70.41 Y75.445 E.91272
G1 X70.366 Y75.324 E.00404
M73 P2 R46
G1 X70.221 Y75.257 E.00501
G1 X67.41 Y75.257 E.08814
G1 X67.41 Y73.077 E.06835
G1 X70.221 Y73.077 E.08814
G1 X70.366 Y73.009 E.00502
G1 X70.41 Y72.888 E.00404
G1 X70.41 Y43.779 E.91269
G1 X70.359 Y43.649 E.00438
G1 X70.221 Y43.59 E.00471
G1 X67.41 Y43.59 E.08814
G1 X67.41 Y41.41 E.06835
G1 X70.221 Y41.41 E.08814
G1 X70.359 Y41.351 E.00471
G1 X70.41 Y41.221 E.00438
G1 X70.41 Y35.41 E.1822
G1 X72.59 Y35.41 E.06835
G1 X72.59 Y38.221 E.08814
G1 X72.628 Y38.335 E.00377
G1 X72.779 Y38.41 E.00529
G1 X76.221 Y38.41 E.10792
G1 X76.34 Y38.368 E.00396
G1 X76.41 Y38.221 E.0051
G1 X76.41 Y35.41 E.08814
G1 X88.09 Y35.41 E.36622
G1 X88.09 Y38.221 E.08814
G1 X88.137 Y38.346 E.00419
G1 X88.279 Y38.41 E.00488
G1 X91.721 Y38.41 E.10792
G1 X91.84 Y38.368 E.00396
G1 X91.91 Y38.221 E.0051
G1 X91.91 Y35.41 E.08814
G1 X103.59 Y35.41 E.36622
G1 X103.59 Y38.221 E.08814
G1 X103.637 Y38.346 E.00419
G1 X103.779 Y38.41 E.00488
G1 X107.221 Y38.41 E.10792
G1 X107.372 Y38.335 E.00529
G1 X107.41 Y38.221 E.00377
G1 X107.41 Y35.41 E.08814
G1 X109.59 Y35.41 E.06835
G1 X109.59 Y41.221 E.1822
G1 X109.641 Y41.351 E.00438
G1 X109.779 Y41.41 E.00471
G1 X112.59 Y41.41 E.08814
G1 X112.59 Y43.59 E.06835
G1 X109.779 Y43.59 E.08814
G1 X109.641 Y43.649 E.00471
G1 X109.59 Y43.779 E.00438
G1 X109.59 Y72.888 E.91269
G1 X109.634 Y73.009 E.00404
G1 X109.779 Y73.077 E.00502
G1 X112.59 Y73.077 E.08814
G1 X112.59 Y75.257 E.06835
G1 X109.779 Y75.257 E.08814
G1 X109.634 Y75.324 E.00501
G1 X109.59 Y75.445 E.00404
G1 X109.59 Y104.555 E.91272
G1 X109.634 Y104.676 E.00404
G1 X109.779 Y104.743 E.00501
G1 X112.59 Y104.743 E.08814
G1 X112.59 Y106.923 E.06835
G1 X109.779 Y106.923 E.08814
G1 X109.634 Y106.991 E.00502
G1 X109.59 Y107.112 E.00404
G1 X109.59 Y136.221 E.91269
G1 X109.641 Y136.351 E.00438
G1 X109.779 Y136.41 E.00471
G1 X112.59 Y136.41 E.08814
G1 X112.59 Y138.59 E.06835
G1 X109.779 Y138.59 E.08814
G1 X109.641 Y138.649 E.00471
G1 X109.59 Y138.779 E.00438
G1 X109.59 Y144.59 E.1822
G1 X107.41 Y144.59 E.06835
G1 X107.41 Y141.779 E.08814
G1 X107.372 Y141.665 E.00377
G1 X107.221 Y141.59 E.00529
G1 X103.779 Y141.59 E.10792
G1 X103.66 Y141.632 E.00396
G1 X103.59 Y141.779 E.0051
G1 X103.59 Y144.59 E.08814
G1 X91.91 Y144.59 E.36622
G1 X91.91 Y141.779 E.08814
G1 X91.863 Y141.654 E.00419
G1 X91.776 Y141.615 E.00299
M204 P1000
G1 X91.618 Y141.204 F9000
G1 E-2.7 F4200
G1 Z.4 F720
G1 X103.043 Y36.591 F9000
G1 Z.2 F720
G1 E2.7 F2400
M204 P600
;TYPE:Solid infill
;WIDTH:0.42034
G1 F1200
G1 X102.579 Y36.126 E.02062
G1 X102.045 Y36.126 E.01676
G1 X102.874 Y36.955 E.03679
G1 X102.874 Y37.489 E.01676
G1 X101.511 Y36.126 E.06049
G1 X100.977 Y36.126 E.01676
G1 X103.043 Y38.192 E.09169
M204 P1000
G1 E-2.7 F4200
G1 Z.4 F720
G1 X108.28 Y35.957 F9000
G1 Z.2 F720
G1 E2.7 F2400
M204 P600
G1 F1200
G1 X108.874 Y36.55 E.02634
G1 X108.874 Y37.084 E.01676
G1 X108.125 Y36.335 E.03324
G1 X108.122 Y36.866 E.01666
G1 X108.874 Y37.618 E.03338
G1 X108.874 Y38.151 E.01673
G1 X108.12 Y37.397 E.03346
G1 X108.117 Y37.929 E.0167
G1 X108.874 Y38.685 E.03357
G1 X108.874 Y39.219 E.01676
G1 X108.092 Y38.437 E.03471
G1 X107.948 Y38.769 E.01136
G1 X107.915 Y38.795 E.00132
G1 X108.874 Y39.753 E.04254
G1 X108.874 Y40.286 E.01673
G1 X107.615 Y39.028 E.05585
G1 X107.576 Y39.059 E.00156
G1 X107.18 Y39.126 E.0126
G1 X109.043 Y40.99 E.08271
M204 P1000
G1 X111.611 Y41.956 F9000
M204 P600
G1 F1200
G1 X111.874 Y42.219 E.01167
G1 X111.874 Y42.753 E.01676
G1 X111.246 Y42.125 E.02787
G1 X110.712 Y42.125 E.01676
G1 X111.461 Y42.874 E.03324
G1 X110.928 Y42.875 E.01673
G1 X110.008 Y41.954 E.04085
M204 P1000
G1 X110.565 Y43.045 F9000
M204 P600
G1 F1200
G1 X109.623 Y42.104 E.04179
G1 X109.355 Y42.024 E.00878
G1 X109.118 Y41.843 E.00936
G1 X108.962 Y41.613 E.00872
G1 X108.912 Y41.486 E.00428
G1 X108.895 Y41.376 E.00349
G1 X106.646 Y39.126 E.09984
G1 X106.112 Y39.126 E.01676
G1 X109.862 Y42.876 E.16643
G1 X109.691 Y42.876 E.00537
G1 X109.411 Y42.959 E.00917
G1 X105.579 Y39.126 E.17009
G1 X105.045 Y39.126 E.01676
G1 X109.1 Y43.182 E.17999
G1 X109.011 Y43.298 E.00459
G1 X108.928 Y43.465 E.00585
G1 X108.916 Y43.531 E.00211
G1 X104.511 Y39.126 E.1955
G1 X103.977 Y39.126 E.01676
G1 X108.874 Y44.023 E.21734
G1 X108.874 Y44.556 E.01673
G1 X100.444 Y36.126 E.37414
G1 X99.91 Y36.126 E.01676
G1 X108.874 Y45.09 E.39784
G1 X108.874 Y45.624 E.01676
G1 X99.376 Y36.126 E.42154
G1 X98.842 Y36.126 E.01676
G1 X108.874 Y46.158 E.44524
G1 X108.874 Y46.692 E.01676
G1 X98.309 Y36.126 E.46891
G1 X97.775 Y36.126 E.01676
G1 X108.874 Y47.226 E.49261
G1 X108.874 Y47.759 E.01673
G1 X97.241 Y36.126 E.51629
G1 X96.707 Y36.126 E.01676
G1 X108.874 Y48.293 E.53999
G1 X108.874 Y48.827 E.01676
G1 X96.174 Y36.126 E.56367
G1 X95.64 Y36.126 E.01676
G1 X108.874 Y49.361 E.58737
G1 X108.874 Y49.895 E.01676
G1 X95.106 Y36.126 E.61107
G1 X94.572 Y36.126 E.01676
M73 P3 R46
G1 X108.874 Y50.428 E.63475
G1 X108.874 Y50.962 E.01676
G1 X94.039 Y36.126 E.65842
G1 X93.505 Y36.126 E.01676
G1 X108.875 Y51.496 E.68215
G1 X108.875 Y52.03 E.01676
G1 X92.971 Y36.126 E.70585
G1 X92.626 Y36.126 E.01083
M73 P3 R45
G1 X92.626 Y36.316 E.00596
G1 X108.875 Y52.564 E.72114
G1 X108.875 Y53.098 E.01676
G1 X92.626 Y36.849 E.72116
G1 X92.626 Y37.383 E.01676
G1 X108.875 Y53.631 E.72114
G1 X108.875 Y54.165 E.01676
G1 X92.626 Y37.917 E.72114
G1 X92.626 Y38.23 E.00982
G1 X92.604 Y38.428 E.00625
G1 X108.875 Y54.699 E.72213
G1 X108.875 Y55.233 E.01676
G1 X92.422 Y38.78 E.73021
G1 X92.325 Y38.898 E.00479
G1 X92.13 Y39.022 E.00725
G1 X108.875 Y55.767 E.74317
G1 X108.875 Y56.3 E.01673
G1 X91.698 Y39.124 E.76232
G1 X91.165 Y39.124 E.01673
G1 X108.875 Y56.834 E.786
G1 X108.875 Y57.368 E.01676
G1 X90.631 Y39.124 E.8097
G1 X90.098 Y39.125 E.01673
G1 X108.875 Y57.902 E.83336
G1 X108.875 Y58.436 E.01676
G1 X89.565 Y39.125 E.85703
G1 X89.031 Y39.125 E.01676
G1 X108.875 Y58.97 E.88073
G1 X108.876 Y59.503 E.01673
G1 X88.328 Y38.956 E.91193
M204 P1000
G1 X87.543 Y36.57 F9000
M204 P600
G1 F1200
G1 X87.1 Y36.126 E.01968
G1 X86.566 Y36.126 E.01676
G1 X87.374 Y36.934 E.03586
G1 X87.374 Y37.468 E.01676
G1 X86.032 Y36.126 E.05956
G1 X85.499 Y36.126 E.01673
G1 X87.543 Y38.171 E.09074
M204 P1000
G1 E-2.7 F4200
G1 Z.4 F720
G1 X84.795 Y35.957 F9000
G1 Z.2 F720
G1 E2.7 F2400
M204 P600
G1 F1200
G1 X108.876 Y60.037 E1.06873
G1 X108.876 Y60.571 E.01676
G1 X84.431 Y36.126 E1.08491
G1 X83.897 Y36.126 E.01676
G1 X108.876 Y61.105 E1.10861
G1 X108.876 Y61.639 E.01676
M73 P4 R45
G1 X83.364 Y36.126 E1.13229
G1 X82.83 Y36.126 E.01676
G1 X108.876 Y62.172 E1.15597
G1 X108.876 Y62.706 E.01676
G1 X82.296 Y36.126 E1.17967
G1 X81.762 Y36.126 E.01676
G1 X108.876 Y63.24 E1.20337
G1 X108.876 Y63.774 E.01676
G1 X81.229 Y36.126 E1.22704
G1 X80.695 Y36.126 E.01676
G1 X108.876 Y64.308 E1.25074
G1 X108.876 Y64.842 E.01676
G1 X80.161 Y36.126 E1.27444
G1 X79.627 Y36.126 E.01676
G1 X108.876 Y65.375 E1.29812
G1 X108.876 Y65.909 E.01676
G1 X79.094 Y36.126 E1.3218
G1 X78.56 Y36.126 E.01676
G1 X108.876 Y66.443 E1.3455
G1 X108.876 Y66.977 E.01676
G1 X78.026 Y36.126 E1.3692
G1 X77.492 Y36.126 E.01676
G1 X108.877 Y67.511 E1.39292
G1 X108.877 Y68.045 E.01676
G1 X77.126 Y36.294 E1.40916
G1 X77.126 Y36.828 E.01676
G1 X108.877 Y68.578 E1.40914
G1 X108.877 Y69.112 E.01676
M73 P5 R45
G1 X77.126 Y37.362 E1.40914
G1 X77.126 Y37.896 E.01676
G1 X108.877 Y69.646 E1.40914
G1 X108.877 Y70.18 E.01676
G1 X77.106 Y38.409 E1.41005
G1 X77.055 Y38.575 E.00545
M73 P5 R44
G1 X76.938 Y38.775 E.00727
G1 X108.877 Y70.714 E1.41751
G1 X108.877 Y71.247 E.01673
G1 X76.648 Y39.018 E1.43038
G1 X76.418 Y39.106 E.00773
G1 X76.222 Y39.126 E.00618
G1 X108.877 Y71.781 E1.44928
G1 X108.877 Y72.315 E.01676
G1 X75.519 Y38.957 E1.48048
M204 P1000
G1 E-2.7 F4200
G1 Z.4 F720
G1 X72.043 Y36.549 F9000
G1 Z.2 F720
G1 E2.7 F2400
M204 P600
G1 F1200
G1 X71.621 Y36.126 E.01875
G1 X71.126 Y36.126 E.01553
G1 X71.126 Y36.166 E.00126
G1 X71.874 Y36.913 E.03318
G1 X71.874 Y37.446 E.01673
G1 X71.126 Y36.699 E.03318
G1 X71.126 Y37.233 E.01676
G1 X72.043 Y38.15 E.0407
M204 P1000
G1 E-2.7 F4200
G1 Z.4 F720
G1 X111.252 Y73.622 F9000
G1 Z.2 F720
G1 E2.7 F2400
M204 P600
G1 F1200
G1 X111.874 Y74.244 E.02761
G1 X111.874 Y74.54 E.00929
G1 X111.637 Y74.541 E.00744
G1 X110.888 Y73.792 E.03324
G1 X110.353 Y73.791 E.01679
G1 X111.103 Y74.541 E.03329
G1 X110.57 Y74.542 E.01673
G1 X109.819 Y73.79 E.03335
G1 X109.689 Y73.79 E.00408
G1 X109.318 Y73.671 E.01223
G1 X109.085 Y73.473 E.0096
G1 X108.943 Y73.239 E.00859
G1 X108.877 Y72.981 E.00836
G1 X108.877 Y72.849 E.00414
G1 X75.155 Y39.126 E1.49666
G1 X74.621 Y39.126 E.01676
G1 X110.037 Y74.543 E1.57184
