; generated by PrusaSlicer 2.6.1+win64 on 2023-10-12 at 14:58:04 UTC


;
;

;
;

;
;
; 

; external perimeters extrusion width = 0.45mm
; perimeters extrusion width = 0.45mm
; infill extrusion width = 0.45mm
; solid infill extrusion width = 0.45mm
; top infill extrusion width = 0.40mm
; first layer extrusion width = 0.42mm

M73 P0 R23
M201 X2500 Y2500 Z400 E5000 ; sets maximum accelerations, mm/sec^2
M203 X180 Y180 Z12 E80 ; sets maximum feedrates, mm / sec
M204 P2000 R1250 T2500 ; sets acceleration (P, T) and retract acceleration (R), mm/sec^2
M205 X8.00 Y8.00 Z2.00 E10.00 ; sets the jerk limits, mm/sec
M205 S0 T0 ; sets the minimum extruding and travel feed rate, mm/sec
;TYPE:Custom
M862.3 P "MINI" ; printer model check
G90 ; use absolute coordinates
M83 ; extruder relative mode
M104 S170 ; set extruder temp for bed leveling
M140 S100 ; set bed temp
M109 R170 ; wait for bed leveling temp
M190 S100 ; wait for bed temp
M204 T1250 ; set travel acceleration
G28 ; home all without mesh bed level
G29 ; mesh bed leveling 
M204 T2500 ; restore travel acceleration
M104 S255 ; set extruder temp
G92 E0
G1 Y-2 X179 F2400
G1 Z3 F720
M109 S255 ; wait for extruder temp

; intro line
G1 X170 F1000
G1 Z0.2 F720
G1 X110 E8 F900
G1 X40 E10 F700
G92 E0

M221 S95 ; set flow
G21 ; set units to millimeters
G90 ; use absolute coordinates
M83 ; use relative distances for extrusion
M900 K0.2 ; Filament gcode

M107
;LAYER_CHANGE
;Z:0.2
;HEIGHT:0.2
;BEFORE_LAYER_CHANGE
G92 E0.0
;0.2


G1 E-2.7 F4200
M73 P1 R23
G1 Z.2 F720
;AFTER_LAYER_CHANGE
;0.2
G1 Z.4
G1 X57.319 Y65.319 F9000
G1 Z.2 F720
G1 E2.7 F2400
M204 P600
;TYPE:Skirt/Brim
;WIDTH:0.42
G1 F1200
G1 X59 Y64.623 E.05705
G1 X121 Y64.623 E1.94397
G1 X122.681 Y65.319 E.05705
G1 X128.681 Y71.319 E.26605
G1 X129.377 Y73 E.05705
G1 X129.377 Y107 E1.06605
G1 X128.681 Y108.681 E.05705
G1 X122.681 Y114.681 E.26605
G1 X121 Y115.377 E.05705
M73 P1 R22
G1 X59 Y115.377 E1.94397
G1 X57.319 Y114.681 E.05705
G1 X51.319 Y108.681 E.26605
G1 X50.623 Y107 E.05705
G1 X50.623 Y73 E1.06605
G1 X51.319 Y71.319 E.05705
G1 X57.277 Y65.362 E.26417
M204 P1000
; printing object Side Wall 2.stl id:0 copy 0
G1 E-2.7 F4200
M73 P2 R22
G1 Z.4 F720
G1 X120.696 Y109.235 F9000
G1 Z.2 F720
G1 E2.7 F2400
M204 P600
;TYPE:Perimeter
;WIDTH:0.419999
G1 F1200
G1 X120.5 Y109.286 E.00635
G1 X120.291 Y109.491 E.00918
G1 X120.213 Y109.779 E.00936
G1 X120.213 Y112.213 E.07632
G1 X118.787 Y112.213 E.04471
G1 X118.787 Y109.779 E.07632
G1 X118.709 Y109.491 E.00936
G1 X118.5 Y109.286 E.00918
G1 X118.221 Y109.213 E.00904
G1 X91.279 Y109.213 E.84475
G1 X91.052 Y109.26 E.00727
G1 X90.876 Y109.381 E.0067
G1 X90.771 Y109.528 E.00566
G1 X90.713 Y109.779 E.00808
G1 X90.713 Y112.213 E.07632
G1 X89.287 Y112.213 E.04471
G1 X89.287 Y109.779 E.07632
G1 X89.229 Y109.528 E.00808
G1 X89.124 Y109.381 E.00566
G1 X88.948 Y109.26 E.0067
G1 X88.721 Y109.213 E.00727
G1 X61.779 Y109.213 E.84475
G1 X61.552 Y109.26 E.00727
G1 X61.376 Y109.381 E.0067
G1 X61.271 Y109.528 E.00566
G1 X61.213 Y109.779 E.00808
G1 X61.213 Y112.213 E.07632
G1 X59.787 Y112.213 E.04471
G1 X59.787 Y109.779 E.07632
G1 X59.729 Y109.528 E.00808
G1 X59.624 Y109.381 E.00566
G1 X59.421 Y109.249 E.00759
G1 X59.221 Y109.213 E.00637
G1 X56.787 Y109.213 E.07632
G1 X56.787 Y107.031 E.06841
G1 X56.749 Y106.573 E.01441
G1 X56.658 Y106.418 E.00564
G1 X56.514 Y106.295 E.00594
G1 X56.221 Y106.213 E.00954
G1 X53.787 Y106.213 E.07632
G1 X53.787 Y104.787 E.04471
G1 X56.221 Y104.787 E.07632
G1 X56.514 Y104.705 E.00954
G1 X56.658 Y104.582 E.00594
G1 X56.752 Y104.418 E.00593
G1 X56.787 Y104.221 E.00627
G1 X56.787 Y91.279 E.40579
G1 X56.779 Y91.181 E.00308
G1 X56.658 Y90.918 E.00908
G1 X56.514 Y90.795 E.00594
G1 X56.221 Y90.713 E.00954
G1 X53.787 Y90.713 E.07632
G1 X53.787 Y89.287 E.04471
G1 X56.221 Y89.287 E.07632
G1 X56.514 Y89.205 E.00954
G1 X56.658 Y89.082 E.00594
G1 X56.752 Y88.918 E.00593
G1 X56.787 Y88.721 E.00627
G1 X56.782 Y75.706 E.40808
G1 X56.707 Y75.488 E.00723
G1 X56.497 Y75.285 E.00916
G1 X56.221 Y75.213 E.00894
G1 X53.787 Y75.213 E.07632
G1 X53.787 Y73.787 E.04471
G1 X56.221 Y73.787 E.07632
G1 X56.497 Y73.715 E.00894
G1 X56.643 Y73.599 E.00585
G1 X56.738 Y73.453 E.00546
G1 X56.787 Y73.221 E.00743
G1 X56.787 Y70.787 E.07632
G1 X59.319 Y70.779 E.07939
G1 X59.512 Y70.707 E.00646
G1 X59.715 Y70.497 E.00916
G1 X59.787 Y70.221 E.00894
G1 X59.787 Y67.787 E.07632
G1 X61.213 Y67.787 E.04471
G1 X61.213 Y70.221 E.07632
G1 X61.285 Y70.497 E.00894
G1 X61.401 Y70.643 E.00585
G1 X61.547 Y70.738 E.00546
G1 X61.779 Y70.787 E.00743
G1 X88.721 Y70.787 E.84475
G1 X88.988 Y70.72 E.00863
G1 X89.201 Y70.521 E.00914
G1 X89.287 Y70.221 E.00979
G1 X89.287 Y67.787 E.07632
G1 X90.713 Y67.787 E.04471
G1 X90.713 Y70.221 E.07632
G1 X90.799 Y70.521 E.00979
G1 X91.012 Y70.72 E.00914
G1 X91.279 Y70.787 E.00863
G1 X118.221 Y70.787 E.84475
G1 X118.294 Y70.782 E.00229
G1 X118.512 Y70.707 E.00723
G1 X118.715 Y70.497 E.00916
G1 X118.787 Y70.221 E.00894
G1 X118.787 Y67.787 E.07632
G1 X120.213 Y67.787 E.04471
G1 X120.213 Y70.221 E.07632
G1 X120.285 Y70.497 E.00894
G1 X120.401 Y70.643 E.00585
G1 X120.547 Y70.738 E.00546
G1 X120.779 Y70.787 E.00743
G1 X123.213 Y70.787 E.07632
G1 X123.221 Y73.319 E.07939
G1 X123.293 Y73.512 E.00646
G1 X123.503 Y73.715 E.00916
G1 X123.779 Y73.787 E.00894
G1 X126.213 Y73.787 E.07632
G1 X126.213 Y75.213 E.04471
G1 X123.779 Y75.213 E.07632
G1 X123.503 Y75.285 E.00894
G1 X123.357 Y75.401 E.00585
G1 X123.262 Y75.547 E.00546
G1 X123.213 Y75.779 E.00743
G1 X123.213 Y88.721 E.40579
G1 X123.221 Y88.816 E.00299
G1 X123.314 Y89.045 E.00775
G1 X123.534 Y89.232 E.00905
G1 X123.779 Y89.287 E.00787
G1 X126.213 Y89.287 E.07632
G1 X126.213 Y90.713 E.04471
G1 X123.779 Y90.713 E.07632
G1 X123.534 Y90.768 E.00787
G1 X123.387 Y90.87 E.00561
G1 X123.277 Y91.017 E.00576
G1 X123.213 Y91.279 E.00846
G1 X123.213 Y104.221 E.40579
G1 X123.221 Y104.316 E.00299
M73 P3 R22
G1 X123.314 Y104.545 E.00775
G1 X123.534 Y104.732 E.00905
G1 X123.779 Y104.787 E.00787
G1 X126.213 Y104.787 E.07632
G1 X126.213 Y106.213 E.04471
G1 X123.779 Y106.213 E.07632
G1 X123.534 Y106.268 E.00787
G1 X123.387 Y106.37 E.00561
G1 X123.277 Y106.517 E.00576
G1 X123.213 Y106.779 E.00846
G1 X123.213 Y109.213 E.07632
G1 X120.754 Y109.219 E.0771
M204 P1000
G1 X120.779 Y109.59 F9000
M204 P600
;TYPE:External perimeter
G1 F1200
G1 X120.657 Y109.635 E.00408
G1 X120.59 Y109.779 E.00498
G1 X120.59 Y112.59 E.08814
G1 X118.41 Y112.59 E.06835
G1 X118.41 Y109.779 E.08814
G1 X118.343 Y109.635 E.00498
G1 X118.221 Y109.59 E.00408
G1 X91.279 Y109.59 E.84475
G1 X91.144 Y109.646 E.00458
G1 X91.09 Y109.779 E.0045
G1 X91.09 Y112.59 E.08814
G1 X88.91 Y112.59 E.06835
G1 X88.91 Y109.779 E.08814
G1 X88.856 Y109.646 E.0045
G1 X88.721 Y109.59 E.00458
G1 X61.779 Y109.59 E.84475
G1 X61.644 Y109.646 E.00458
G1 X61.59 Y109.779 E.0045
G1 X61.59 Y112.59 E.08814
G1 X59.41 Y112.59 E.06835
G1 X59.41 Y109.779 E.08814
G1 X59.356 Y109.646 E.0045
G1 X59.221 Y109.59 E.00458
G1 X56.41 Y109.59 E.08814
G1 X56.41 Y106.779 E.08814
G1 X56.367 Y106.659 E.004
G1 X56.221 Y106.59 E.00506
G1 X53.41 Y106.59 E.08814
G1 X53.41 Y104.41 E.06835
G1 X56.221 Y104.41 E.08814
G1 X56.367 Y104.341 E.00506
G1 X56.41 Y104.221 E.004
G1 X56.41 Y91.279 E.40579
G1 X56.367 Y91.159 E.004
G1 X56.221 Y91.09 E.00506
G1 X53.41 Y91.09 E.08814
G1 X53.41 Y88.91 E.06835
G1 X56.221 Y88.91 E.08814
G1 X56.367 Y88.841 E.00506
G1 X56.41 Y88.721 E.004
G1 X56.41 Y75.779 E.40579
G1 X56.362 Y75.653 E.00423
G1 X56.221 Y75.59 E.00484
G1 X53.41 Y75.59 E.08814
G1 X53.41 Y73.41 E.06835
G1 X56.221 Y73.41 E.08814
G1 X56.362 Y73.347 E.00484
G1 X56.41 Y73.221 E.00423
G1 X56.41 Y70.41 E.08814
G1 X59.221 Y70.41 E.08814
G1 X59.347 Y70.362 E.00423
G1 X59.41 Y70.221 E.00484
G1 X59.41 Y67.41 E.08814
G1 X61.59 Y67.41 E.06835
G1 X61.59 Y70.221 E.08814
G1 X61.653 Y70.362 E.00484
G1 X61.779 Y70.41 E.00423
G1 X88.721 Y70.41 E.84475
G1 X88.839 Y70.369 E.00392
G1 X88.91 Y70.221 E.00515
G1 X88.91 Y67.41 E.08814
G1 X91.09 Y67.41 E.06835
G1 X91.09 Y70.221 E.08814
G1 X91.161 Y70.369 E.00515
G1 X91.279 Y70.41 E.00392
G1 X118.221 Y70.41 E.84475
G1 X118.347 Y70.362 E.00423
G1 X118.41 Y70.221 E.00484
G1 X118.41 Y67.41 E.08814
G1 X120.59 Y67.41 E.06835
G1 X120.59 Y70.221 E.08814
G1 X120.653 Y70.362 E.00484
G1 X120.779 Y70.41 E.00423
G1 X123.59 Y70.41 E.08814
G1 X123.59 Y73.221 E.08814
G1 X123.638 Y73.347 E.00423
G1 X123.779 Y73.41 E.00484
G1 X126.59 Y73.41 E.08814
G1 X126.59 Y75.59 E.06835
G1 X123.779 Y75.59 E.08814
G1 X123.638 Y75.653 E.00484
G1 X123.59 Y75.779 E.00423
G1 X123.59 Y88.721 E.40579
G1 X123.624 Y88.829 E.00355
G1 X123.779 Y88.91 E.00548
G1 X126.59 Y88.91 E.08814
G1 X126.59 Y91.09 E.06835
M73 P4 R22
G1 X123.779 Y91.09 E.08814
G1 X123.648 Y91.142 E.00442
G1 X123.59 Y91.279 E.00466
G1 X123.59 Y104.221 E.40579
G1 X123.624 Y104.329 E.00355
G1 X123.779 Y104.41 E.00548
G1 X126.59 Y104.41 E.08814
G1 X126.59 Y106.59 E.06835
G1 X123.779 Y106.59 E.08814
G1 X123.648 Y106.642 E.00442
G1 X123.59 Y106.779 E.00466
G1 X123.59 Y109.59 E.08814
G1 X120.839 Y109.59 E.08626
M204 P1000
G1 X120.668 Y109.522 F9000
G1 E-2.7 F4200
G1 Z.4 F720
G1 X116.316 Y107.256 F9000
G1 Z.2 F720
G1 E2.7 F2400
M204 P600
;TYPE:Perimeter
G1 F1200
G1 X116.221 Y107.287 E.00313
G1 X59.779 Y107.287 E1.7697
G1 X59.579 Y107.251 E.00637
G1 X59.313 Y107.042 E.01061
G1 X59.213 Y106.721 E.01054
G1 X59.213 Y86.279 E.64094
G1 X59.279 Y86.012 E.00862
G1 X59.439 Y85.826 E.00769
G1 X59.62 Y85.736 E.00634
G1 X59.779 Y85.713 E.00504
G1 X116.221 Y85.713 E1.7697
G1 X116.439 Y85.756 E.00697
G1 X116.674 Y85.939 E.00934
G1 X116.773 Y86.154 E.00742
G1 X116.787 Y86.279 E.00394
G1 X116.787 Y106.721 E.64094
G1 X116.74 Y106.948 E.00727
G1 X116.556 Y107.178 E.00924
G1 X116.373 Y107.237 E.00603
M204 P1000
G1 X116.221 Y106.91 F9000
M204 P600
;TYPE:External perimeter
G1 F1200
G1 X59.779 Y106.91 E1.7697
G1 X59.623 Y106.828 E.00553
G1 X59.59 Y106.721 E.00351
G1 X59.59 Y86.279 E.64094
G1 X59.665 Y86.128 E.00529
G1 X59.779 Y86.09 E.00377
G1 X116.221 Y86.09 E1.7697
G1 X116.348 Y86.139 E.00427
M73 P5 R22
G1 X116.41 Y86.279 E.0048
G1 X116.41 Y106.724 E.64104
G1 X116.333 Y106.874 E.00529
G1 X116.278 Y106.891 E.0018
M204 P1000
G1 X116.117 Y107.296 F9000
G1 E-2.7 F4200
G1 Z.4 F720
G1 X126.043 Y74.721 F9000
G1 Z.2 F720
G1 E2.7 F2400
M204 P600
;TYPE:Solid infill
;WIDTH:0.420944
G1 F1200
G1 X125.449 Y74.126 E.02643
G1 X124.914 Y74.126 E.01682
G1 X125.661 Y74.874 E.03323
G1 X125.127 Y74.874 E.01679
G1 X124.21 Y73.957 E.04076
M204 P1000
G1 X123.047 Y71.725 F9000
M204 P600
G1 F1200
G1 X122.449 Y71.126 E.0266
G1 X121.914 Y71.126 E.01682
G1 X122.879 Y72.091 E.0429
G1 X122.881 Y72.628 E.01688
G1 X121.21 Y70.957 E.07428
M204 P1000
G1 X120.044 Y68.722 F9000
M204 P600
G1 F1200
G1 X119.449 Y68.126 E.02647
G1 X119.126 Y68.126 E.01015
G1 X119.126 Y68.338 E.00666
G1 X119.875 Y69.087 E.0333
G1 X119.876 Y69.623 E.01685
G1 X119.125 Y68.872 E.03338
G1 X119.125 Y69.406 E.01679
G1 X119.876 Y70.158 E.03341
G1 X119.876 Y70.31 E.00478
G1 X119.984 Y70.661 E.01154
G1 X120.17 Y70.893 E.00935
G1 X120.314 Y70.999 E.00562
G1 X120.478 Y71.076 E.00569
G1 X120.845 Y71.126 E.01164
G1 X122.884 Y73.166 E.09066
G1 X122.885 Y73.379 E.0067
G1 X122.997 Y73.681 E.01012
G1 X123.107 Y73.83 E.00582
G1 X123.342 Y74.018 E.00946
G1 X123.759 Y74.126 E.01354
G1 X123.845 Y74.126 E.0027
G1 X124.592 Y74.874 E.03323
G1 X124.057 Y74.874 E.01682
G1 X119.124 Y69.94 E.21931
G1 X119.124 Y70.31 E.01163
G1 X119.085 Y70.436 E.00415
G1 X123.572 Y74.922 E.19944
G1 X123.342 Y74.982 E.00747
G1 X123.206 Y75.091 E.00548
G1 X118.909 Y70.794 E.19101
G1 X118.83 Y70.893 E.00398
G1 X118.613 Y71.033 E.00812
G1 X122.967 Y75.387 E.19355
G1 X122.924 Y75.478 E.00316
G1 X122.874 Y75.828 E.01111
G1 X118.172 Y71.126 E.20902
G1 X117.637 Y71.126 E.01682
G1 X122.874 Y76.363 E.2328
G1 X122.874 Y76.897 E.01679
G1 X117.102 Y71.126 E.25656
G1 X116.568 Y71.126 E.01679
G1 X122.874 Y77.432 E.28032
G1 X122.874 Y77.967 E.01682
G1 X116.033 Y71.126 E.3041
G1 X115.499 Y71.126 E.01679
G1 X122.874 Y78.501 E.32784
G1 X122.874 Y79.036 E.01682
G1 X114.964 Y71.126 E.35162
G1 X114.429 Y71.126 E.01682
G1 X122.874 Y79.57 E.37538
G1 X122.874 Y80.105 E.01682
G1 X113.895 Y71.126 E.39914
G1 X113.36 Y71.126 E.01682
G1 X122.874 Y80.64 E.42292
G1 X122.874 Y81.174 E.01679
M73 P5 R21
G1 X112.825 Y71.126 E.44668
G1 X112.291 Y71.126 E.01679
G1 X122.874 Y81.709 E.47044
G1 X122.874 Y82.243 E.01679
M73 P6 R21
G1 X111.756 Y71.126 E.4942
G1 X111.221 Y71.126 E.01682
G1 X122.874 Y82.778 E.51799
G1 X122.874 Y83.313 E.01682
G1 X110.687 Y71.126 E.54175
G1 X110.152 Y71.126 E.01682
G1 X122.874 Y83.847 E.56551
G1 X122.874 Y84.382 E.01682
G1 X109.617 Y71.126 E.58929
G1 X109.083 Y71.126 E.01679
G1 X122.874 Y84.917 E.61305
G1 X122.874 Y85.451 E.01679
G1 X108.548 Y71.126 E.63681
G1 X108.013 Y71.126 E.01682
G1 X122.874 Y85.986 E.66059
G1 X122.874 Y86.52 E.01679
G1 X107.479 Y71.126 E.68433
G1 X106.944 Y71.125 E.01682
G1 X122.874 Y87.055 E.70813
G1 X122.874 Y87.59 E.01682
G1 X106.409 Y71.125 E.73191
G1 X105.875 Y71.125 E.01679
G1 X123.043 Y88.294 E.76319
M204 P1000
G1 X125.275 Y89.457 F9000
M204 P600
G1 F1200
G1 X125.874 Y90.055 E.0266
G1 X125.874 Y90.374 E.01003
G1 X125.658 Y90.374 E.00679
G1 X124.91 Y89.626 E.03325
G1 X124.376 Y89.626 E.01679
G1 X125.123 Y90.374 E.03323
G1 X124.588 Y90.374 E.01682
G1 X123.841 Y89.626 E.03323
G1 X123.762 Y89.626 E.00248
G1 X123.391 Y89.542 E.01196
G1 X123.155 Y89.379 E.00902
G1 X123.035 Y89.239 E.0058
G1 X122.943 Y89.07 E.00605
G1 X122.887 Y88.88 E.00623
G1 X122.874 Y88.659 E.00696
G1 X105.34 Y71.125 E.77943
G1 X104.805 Y71.125 E.01682
M73 P7 R21
G1 X124.054 Y90.374 E.85567
G1 X123.762 Y90.374 E.00918
G1 X123.564 Y90.418 E.00638
G1 X104.271 Y71.125 E.85763
G1 X103.736 Y71.125 E.01682
G1 X123.2 Y90.589 E.86523
G1 X123.151 Y90.623 E.00187
G1 X122.965 Y90.888 E.01018
G1 X103.201 Y71.125 E.87854
G1 X102.667 Y71.125 E.01679
G1 X122.885 Y91.343 E.89875
G1 X122.885 Y91.878 E.01682
G1 X102.132 Y71.125 E.92253
G1 X101.598 Y71.125 E.01679
G1 X115.846 Y85.374 E.63338
G1 X115.311 Y85.374 E.01682
G1 X101.063 Y71.125 E.63338
G1 X100.528 Y71.125 E.01682
G1 X114.777 Y85.374 E.63341
G1 X114.242 Y85.374 E.01682
G1 X99.994 Y71.125 E.63338
G1 X99.459 Y71.125 E.01682
G1 X113.708 Y85.374 E.63341
G1 X113.173 Y85.374 E.01682
M73 P8 R21
G1 X98.924 Y71.125 E.63341
G1 X98.39 Y71.125 E.01679
G1 X112.638 Y85.374 E.63338
G1 X112.104 Y85.374 E.01679
G1 X97.855 Y71.125 E.63341
G1 X97.32 Y71.125 E.01682
G1 X111.569 Y85.374 E.63341
G1 X111.035 Y85.374 E.01679
G1 X96.786 Y71.125 E.63341
G1 X96.251 Y71.125 E.01682
G1 X110.5 Y85.374 E.63341
G1 X109.965 Y85.374 E.01682
G1 X95.716 Y71.124 E.63343
G1 X95.182 Y71.124 E.01679
G1 X109.431 Y85.374 E.63343
G1 X108.896 Y85.374 E.01682
G1 X94.647 Y71.124 E.63343
G1 X94.112 Y71.124 E.01682
G1 X108.362 Y85.374 E.63345
G1 X107.827 Y85.374 E.01682
G1 X93.578 Y71.124 E.63343
G1 X93.043 Y71.124 E.01682
G1 X107.292 Y85.374 E.63343
G1 X106.758 Y85.374 E.01679
G1 X92.508 Y71.124 E.63345
G1 X91.974 Y71.124 E.01679
G1 X106.393 Y85.543 E.64096
M204 P1000
G1 E-2.7 F4200
M73 P9 R21
G1 Z.4 F720
G1 X116.957 Y86.484 F9000
G1 Z.2 F720
G1 E2.7 F2400
M204 P600
G1 F1200
G1 X122.885 Y92.412 E.26352
G1 X122.885 Y92.947 E.01682
G1 X117.126 Y87.189 E.25598
G1 X117.126 Y87.723 E.01679
G1 X122.885 Y93.481 E.25598
G1 X122.885 Y94.016 E.01682
G1 X117.126 Y88.258 E.25598
G1 X117.126 Y88.792 E.01679
G1 X122.885 Y94.551 E.256
G1 X122.885 Y95.085 E.01679
G1 X117.126 Y89.327 E.25598
G1 X117.126 Y89.862 E.01682
G1 X122.885 Y95.62 E.25598
G1 X122.885 Y96.154 E.01679
G1 X117.126 Y90.396 E.25598
G1 X117.126 Y90.931 E.01682
G1 X122.885 Y96.689 E.25598
G1 X122.885 Y97.224 E.01682
G1 X117.126 Y91.465 E.256
G1 X117.126 Y92 E.01682
G1 X122.885 Y97.758 E.25598
G1 X122.885 Y98.293 E.01682
G1 X117.126 Y92.535 E.25598
G1 X117.126 Y93.069 E.01679
G1 X122.885 Y98.827 E.25598
G1 X122.885 Y99.362 E.01682
G1 X117.126 Y93.604 E.25598
G1 X117.126 Y94.138 E.01679
G1 X122.884 Y99.896 E.25596
G1 X122.884 Y100.431 E.01682
G1 X117.126 Y94.673 E.25596
G1 X117.126 Y95.208 E.01682
G1 X122.884 Y100.966 E.25596
G1 X122.884 Y101.5 E.01679
G1 X117.126 Y95.742 E.25596
