; generated by PrusaSlicer 2.6.1+win64 on 2023-10-17 at 15:10:11 UTC


;
;

;
;

;
;
; 

; external perimeters extrusion width = 0.45mm
; perimeters extrusion width = 0.45mm
; infill extrusion width = 0.45mm
; solid infill extrusion width = 0.45mm
; top infill extrusion width = 0.40mm
; first layer extrusion width = 0.42mm

M73 P0 R14
M201 X2500 Y2500 Z400 E5000 ; sets maximum accelerations, mm/sec^2
M203 X180 Y180 Z12 E80 ; sets maximum feedrates, mm / sec
M204 P2000 R1250 T2500 ; sets acceleration (P, T) and retract acceleration (R), mm/sec^2
M205 X8.00 Y8.00 Z2.00 E10.00 ; sets the jerk limits, mm/sec
M205 S0 T0 ; sets the minimum extruding and travel feed rate, mm/sec
;TYPE:Custom
M862.3 P "MINI" ; printer model check
G90 ; use absolute coordinates
M83 ; extruder relative mode
M104 S170 ; set extruder temp for bed leveling
M140 S100 ; set bed temp
M109 R170 ; wait for bed leveling temp
M190 S100 ; wait for bed temp
M204 T1250 ; set travel acceleration
G28 ; home all without mesh bed level
G29 ; mesh bed leveling 
M204 T2500 ; restore travel acceleration
M104 S255 ; set extruder temp
G92 E0
G1 Y-2 X179 F2400
G1 Z3 F720
M109 S255 ; wait for extruder temp

; intro line
G1 X170 F1000
G1 Z0.2 F720
G1 X110 E8 F900
G1 X40 E10 F700
G92 E0

M221 S95 ; set flow
G21 ; set units to millimeters
G90 ; use absolute coordinates
M83 ; use relative distances for extrusion
M900 K0.2 ; Filament gcode

M107
;LAYER_CHANGE
;Z:0.2
;HEIGHT:0.2
;BEFORE_LAYER_CHANGE
G92 E0.0
;0.2


M73 P1 R14
G1 E-2.7 F4200
G1 Z.2 F720
;AFTER_LAYER_CHANGE
;0.2
G1 Z.4
G1 X69.015 Y67.693 F9000
G1 Z.2 F720
G1 E2.7 F2400
M204 P600
;TYPE:Skirt/Brim
;WIDTH:0.42
G1 F1200
G1 X70.06 Y66.817 E.04275
G1 X71 Y66.623 E.03009
G1 X109 Y66.623 E1.19146
G1 X110.307 Y67.015 E.04278
M73 P2 R14
G1 X111.183 Y68.06 E.04275
G1 X111.377 Y69 E.03009
G1 X111.377 Y111 E1.31688
G1 X110.985 Y112.307 E.04278
G1 X109.94 Y113.183 E.04275
G1 X109 Y113.377 E.03009
G1 X71 Y113.377 E1.19146
G1 X69.693 Y112.985 E.04278
G1 X68.817 Y111.94 E.04275
G1 X68.623 Y111 E.03009
G1 X68.623 Y69 E1.31688
G1 X68.997 Y67.75 E.04091
M204 P1000
; printing object slidelid.stl id:0 copy 0
G1 E-2.7 F4200
G1 Z.4 F720
G1 X108.213 Y110.213 F9000
G1 Z.2 F720
G1 E2.7 F2400
M204 P600
;TYPE:Perimeter
;WIDTH:0.419999
G1 F1200
G1 X71.787 Y110.213 E1.14211
G1 X71.787 Y69.787 E1.26753
M73 P3 R14
G1 X108.213 Y69.787 E1.14211
G1 X108.213 Y110.153 E1.26565
M204 P1000
G1 X108.59 Y110.59 F9000
M204 P600
;TYPE:External perimeter
G1 F1200
G1 X71.41 Y110.59 E1.16575
G1 X71.41 Y69.41 E1.29117
G1 X108.59 Y69.41 E1.16575
M73 P4 R14
G1 X108.59 Y110.53 E1.28929
M204 P1000
G1 X108.205 Y110.48 F9000
G1 E-2.7 F4200
G1 Z.4 F720
G1 X100.274 Y105.783 F9000
G1 Z.2 F720
G1 E2.7 F2400
M204 P600
;TYPE:Perimeter
G1 F1200
G1 X79.779 Y105.787 E.64261
G1 X79.465 Y105.693 E.01028
G1 X79.278 Y105.485 E.00877
G1 X79.213 Y105.221 E.00852
G1 X79.213 Y83.779 E.6723
G1 X79.251 Y83.573 E.00657
G1 X79.417 Y83.344 E.00887
G1 X79.684 Y83.221 E.00922
G1 X79.779 Y83.213 E.00299
G1 X100.221 Y83.213 E.64094
G1 X100.446 Y83.259 E.0072
M73 P5 R14
G1 X100.647 Y83.406 E.00781
G1 X100.777 Y83.673 E.00931
G1 X100.787 Y83.779 E.00334
G1 X100.787 Y105.221 E.6723
G1 X100.722 Y105.485 E.00852
G1 X100.535 Y105.693 E.00877
G1 X100.333 Y105.773 E.00681
M204 P1000
G1 X100.221 Y105.41 F9000
M204 P600
;TYPE:External perimeter
G1 F1200
G1 X79.779 Y105.41 E.64094
G1 X79.637 Y105.346 E.00488
M73 P5 R13
G1 X79.59 Y105.221 E.00419
G1 X79.59 Y83.779 E.6723
G1 X79.658 Y83.634 E.00502
G1 X79.779 Y83.59 E.00404
G1 X100.221 Y83.59 E.64094
G1 X100.363 Y83.654 E.00488
G1 X100.41 Y83.779 E.00419
G1 X100.41 Y105.221 E.6723
G1 X100.363 Y105.346 E.00419
G1 X100.276 Y105.385 E.00299
M204 P1000
G1 X100.118 Y105.796 F9000
G1 E-2.7 F4200
G1 Z.4 F720
G1 X107.275 Y69.957 F9000
G1 Z.2 F720
G1 E2.7 F2400
M204 P600
;TYPE:Solid infill
;WIDTH:0.422608
G1 F1200
G1 X107.874 Y70.555 E.02672
G1 X107.874 Y71.092 E.01695
G1 X106.908 Y70.126 E.04313
G1 X106.371 Y70.126 E.01695
G1 X107.874 Y71.629 E.06711
G1 X107.874 Y72.166 E.01695
G1 X105.834 Y70.126 E.09108
G1 X105.297 Y70.126 E.01695
G1 X107.874 Y72.703 E.11506
G1 X107.874 Y73.24 E.01695
G1 X104.76 Y70.126 E.13904
G1 X104.223 Y70.126 E.01695
G1 X107.874 Y73.777 E.16301
G1 X107.874 Y74.314 E.01695
G1 X103.686 Y70.126 E.18699
G1 X103.149 Y70.126 E.01695
G1 X107.874 Y74.851 E.21096
G1 X107.874 Y75.388 E.01695
G1 X102.612 Y70.126 E.23494
G1 X102.076 Y70.126 E.01692
M73 P6 R13
G1 X107.874 Y75.924 E.25887
G1 X107.874 Y76.461 E.01695
G1 X101.539 Y70.126 E.28285
G1 X101.002 Y70.126 E.01695
G1 X107.874 Y76.998 E.30682
G1 X107.874 Y77.535 E.01695
G1 X100.465 Y70.126 E.3308
G1 X99.928 Y70.126 E.01695
G1 X107.874 Y78.072 E.35478
G1 X107.874 Y78.609 E.01695
G1 X99.391 Y70.126 E.37875
G1 X98.854 Y70.126 E.01695
G1 X107.874 Y79.146 E.40273
G1 X107.874 Y79.683 E.01695
G1 X98.317 Y70.126 E.4267
G1 X97.78 Y70.126 E.01695
G1 X107.874 Y80.22 E.45068
G1 X107.874 Y80.757 E.01695
G1 X97.243 Y70.126 E.47466
G1 X96.706 Y70.126 E.01695
G1 X107.874 Y81.294 E.49863
G1 X107.874 Y81.831 E.01695
G1 X96.169 Y70.126 E.52261
G1 X95.632 Y70.126 E.01695
G1 X107.874 Y82.368 E.54659
G1 X107.874 Y82.905 E.01695
M73 P7 R13
G1 X95.095 Y70.126 E.57056
G1 X94.558 Y70.126 E.01695
G1 X107.874 Y83.442 E.59454
G1 X107.874 Y83.979 E.01695
G1 X94.021 Y70.126 E.61851
G1 X93.484 Y70.126 E.01695
G1 X107.874 Y84.516 E.64249
G1 X107.874 Y85.053 E.01695
G1 X92.947 Y70.126 E.66647
G1 X92.41 Y70.126 E.01695
G1 X107.874 Y85.59 E.69044
G1 X107.874 Y86.127 E.01695
G1 X91.873 Y70.126 E.71442
G1 X91.336 Y70.126 E.01695
G1 X107.874 Y86.664 E.7384
G1 X107.874 Y87.201 E.01695
M73 P8 R13
G1 X90.799 Y70.126 E.76237
G1 X90.262 Y70.126 E.01695
G1 X107.874 Y87.738 E.78635
G1 X107.874 Y88.275 E.01695
G1 X89.725 Y70.126 E.81032
G1 X89.188 Y70.126 E.01695
G1 X107.874 Y88.812 E.8343
G1 X107.874 Y89.348 E.01692
G1 X88.652 Y70.126 E.85823
G1 X88.115 Y70.126 E.01695
G1 X107.874 Y89.885 E.88221
G1 X107.874 Y90.422 E.01695
G1 X101.116 Y83.665 E.30171
G1 X101.064 Y83.444 E.00717
G1 X100.908 Y83.188 E.00946
G1 X100.797 Y83.079 E.00491
G1 X100.583 Y82.947 E.00794
G1 X100.334 Y82.882 E.00812
G1 X87.578 Y70.126 E.56953
G1 X87.041 Y70.126 E.01695
M73 P9 R13
G1 X99.788 Y82.874 E.56916
G1 X99.251 Y82.874 E.01695
G1 X86.504 Y70.126 E.56916
G1 X85.967 Y70.126 E.01695
G1 X98.714 Y82.874 E.56916
G1 X98.177 Y82.874 E.01695
G1 X85.43 Y70.126 E.56916
G1 X84.893 Y70.126 E.01695
G1 X97.64 Y82.874 E.56916
G1 X97.103 Y82.874 E.01695
G1 X84.356 Y70.126 E.56916
G1 X83.819 Y70.126 E.01695
G1 X96.566 Y82.874 E.56916
G1 X96.029 Y82.874 E.01695
G1 X83.282 Y70.126 E.56916
G1 X82.745 Y70.126 E.01695
G1 X95.492 Y82.874 E.56916
G1 X94.955 Y82.874 E.01695
M73 P10 R13
G1 X82.208 Y70.126 E.56916
G1 X81.671 Y70.126 E.01695
G1 X94.418 Y82.874 E.56916
G1 X93.881 Y82.874 E.01695
G1 X81.134 Y70.126 E.56916
G1 X80.597 Y70.126 E.01695
G1 X93.344 Y82.874 E.56916
G1 X92.807 Y82.874 E.01695
G1 X80.06 Y70.126 E.56916
G1 X79.523 Y70.126 E.01695
G1 X92.27 Y82.874 E.56916
G1 X91.733 Y82.874 E.01695
G1 X78.986 Y70.126 E.56916
G1 X78.449 Y70.126 E.01695
G1 X91.196 Y82.874 E.56916
G1 X90.659 Y82.874 E.01695
G1 X77.912 Y70.126 E.56916
G1 X77.375 Y70.126 E.01695
M73 P11 R13
G1 X90.122 Y82.874 E.56916
G1 X89.586 Y82.874 E.01692
G1 X76.838 Y70.126 E.56918
G1 X76.301 Y70.126 E.01695
G1 X89.049 Y82.874 E.56918
G1 X88.512 Y82.874 E.01695
G1 X75.764 Y70.126 E.56918
G1 X75.228 Y70.126 E.01692
G1 X87.975 Y82.874 E.56916
G1 X87.438 Y82.874 E.01695
G1 X74.691 Y70.126 E.56916
G1 X74.154 Y70.126 E.01695
G1 X86.901 Y82.874 E.56916
G1 X86.364 Y82.874 E.01695
G1 X73.617 Y70.126 E.56916
G1 X73.08 Y70.126 E.01695
G1 X85.827 Y82.874 E.56916
G1 X85.29 Y82.874 E.01695
G1 X72.543 Y70.126 E.56916
G1 X72.126 Y70.126 E.01317
M73 P12 R12
G1 X72.126 Y70.247 E.00382
G1 X84.753 Y82.874 E.56378
G1 X84.216 Y82.874 E.01695
G1 X72.126 Y70.784 E.5398
G1 X72.126 Y71.321 E.01695
G1 X83.679 Y82.874 E.51582
G1 X83.142 Y82.874 E.01695
G1 X72.126 Y71.858 E.49185
G1 X72.126 Y72.395 E.01695
G1 X82.605 Y82.874 E.46787
G1 X82.068 Y82.874 E.01695
G1 X72.126 Y72.932 E.44389
G1 X72.126 Y73.469 E.01695
G1 X81.531 Y82.874 E.41992
G1 X80.994 Y82.874 E.01695
G1 X72.126 Y74.006 E.39594
G1 X72.126 Y74.543 E.01695
G1 X80.457 Y82.874 E.37197
G1 X79.92 Y82.874 E.01695
G1 X72.126 Y75.08 E.34799
G1 X72.126 Y75.617 E.01695
G1 X79.448 Y82.938 E.32689
G1 X79.203 Y83.079 E.00892
M73 P13 R12
G1 X79.126 Y83.154 E.00339
G1 X72.126 Y76.154 E.31254
G1 X72.126 Y76.691 E.01695
G1 X78.924 Y83.488 E.3035
G1 X78.889 Y83.61 E.00401
G1 X78.874 Y83.975 E.01153
G1 X72.126 Y77.228 E.30127
G1 X72.126 Y77.765 E.01695
G1 X78.874 Y84.512 E.30127
G1 X78.874 Y85.049 E.01695
G1 X72.126 Y78.302 E.30127
G1 X72.126 Y78.838 E.01692
G1 X78.874 Y85.586 E.30129
G1 X78.874 Y86.123 E.01695
G1 X72.126 Y79.375 E.30129
G1 X72.126 Y79.912 E.01695
G1 X78.874 Y86.66 E.30129
G1 X78.874 Y87.196 E.01692
G1 X72.126 Y80.449 E.30127
G1 X72.126 Y80.986 E.01695
G1 X78.874 Y87.733 E.30127
G1 X78.874 Y88.27 E.01695
G1 X72.126 Y81.523 E.30127
G1 X72.126 Y82.06 E.01695
G1 X78.874 Y88.807 E.30127
G1 X78.874 Y89.344 E.01695
G1 X72.126 Y82.597 E.30127
G1 X72.126 Y83.134 E.01695
G1 X78.874 Y89.881 E.30127
G1 X78.874 Y90.418 E.01695
G1 X72.126 Y83.671 E.30127
G1 X72.126 Y84.208 E.01695
G1 X78.874 Y90.955 E.30127
G1 X78.874 Y91.492 E.01695
G1 X72.126 Y84.745 E.30127
G1 X72.126 Y85.282 E.01695
M73 P14 R12
G1 X78.874 Y92.029 E.30127
G1 X78.874 Y92.566 E.01695
G1 X72.126 Y85.819 E.30127
G1 X72.126 Y86.356 E.01695
G1 X78.874 Y93.103 E.30127
G1 X78.874 Y93.64 E.01695
G1 X72.126 Y86.893 E.30127
G1 X72.126 Y87.43 E.01695
G1 X78.874 Y94.177 E.30127
G1 X78.874 Y94.714 E.01695
G1 X72.126 Y87.967 E.30127
G1 X72.126 Y88.504 E.01695
G1 X78.874 Y95.251 E.30127
G1 X78.874 Y95.788 E.01695
G1 X72.126 Y89.041 E.30127
G1 X72.126 Y89.578 E.01695
G1 X78.874 Y96.325 E.30127
G1 X78.874 Y96.862 E.01695
G1 X72.126 Y90.115 E.30127
G1 X72.126 Y90.652 E.01695
G1 X78.874 Y97.399 E.30127
G1 X78.874 Y97.936 E.01695
G1 X72.126 Y91.189 E.30127
G1 X72.126 Y91.726 E.01695
G1 X78.874 Y98.473 E.30127
G1 X78.874 Y99.01 E.01695
G1 X72.126 Y92.262 E.30129
G1 X72.126 Y92.799 E.01695
G1 X78.874 Y99.547 E.30129
G1 X78.874 Y100.084 E.01695
G1 X72.126 Y93.336 E.30129
G1 X72.126 Y93.873 E.01695
G1 X78.874 Y100.62 E.30127
G1 X78.874 Y101.157 E.01695
M73 P15 R12
G1 X72.126 Y94.41 E.30127
G1 X72.126 Y94.947 E.01695
G1 X78.874 Y101.694 E.30127
G1 X78.874 Y102.231 E.01695
G1 X72.126 Y95.484 E.30127
G1 X72.126 Y96.021 E.01695
G1 X78.874 Y102.768 E.30127
G1 X78.874 Y103.305 E.01695
G1 X72.126 Y96.558 E.30127
G1 X72.126 Y97.095 E.01695
G1 X78.874 Y103.842 E.30127
G1 X78.874 Y104.379 E.01695
G1 X72.126 Y97.632 E.30127
G1 X72.126 Y98.169 E.01695
G1 X79.043 Y105.086 E.30883
M204 P1000
G1 E-2.7 F4200
G1 Z.4 F720
G1 X100.957 Y84.043 F9000
G1 Z.2 F720
G1 E2.7 F2400
M204 P600
G1 F1200
G1 X107.874 Y90.959 E.30881
G1 X107.874 Y91.496 E.01695
G1 X101.126 Y84.749 E.30127
G1 X101.126 Y85.286 E.01695
G1 X107.874 Y92.033 E.30127
G1 X107.874 Y92.57 E.01695
G1 X101.126 Y85.823 E.30127
G1 X101.126 Y86.36 E.01695
G1 X107.874 Y93.107 E.30127
G1 X107.874 Y93.644 E.01695
G1 X101.126 Y86.897 E.30127
G1 X101.126 Y87.434 E.01695
G1 X107.874 Y94.181 E.30127
G1 X107.874 Y94.718 E.01695
G1 X101.126 Y87.971 E.30127
G1 X101.126 Y88.508 E.01695
M73 P16 R12
G1 X107.874 Y95.255 E.30127
G1 X107.874 Y95.792 E.01695
G1 X101.126 Y89.045 E.30127
G1 X101.126 Y89.582 E.01695
G1 X107.874 Y96.329 E.30127
G1 X107.874 Y96.866 E.01695
G1 X101.126 Y90.119 E.30127
G1 X101.126 Y90.656 E.01695
G1 X107.874 Y97.403 E.30127
G1 X107.874 Y97.94 E.01695
G1 X101.126 Y91.193 E.30127
G1 X101.126 Y91.73 E.01695
G1 X107.874 Y98.477 E.30127
G1 X107.874 Y99.014 E.01695
G1 X101.126 Y92.267 E.30127
G1 X101.126 Y92.804 E.01695
G1 X107.874 Y99.551 E.30127
G1 X107.874 Y100.088 E.01695
G1 X101.126 Y93.341 E.30127
G1 X101.126 Y93.878 E.01695
G1 X107.874 Y100.625 E.30127
G1 X107.874 Y101.162 E.01695
G1 X101.126 Y94.414 E.30129
G1 X101.126 Y94.951 E.01695
G1 X107.874 Y101.699 E.30129
G1 X107.874 Y102.236 E.01695
G1 X101.126 Y95.488 E.30129
G1 X101.126 Y96.025 E.01695
G1 X107.874 Y102.772 E.30127
G1 X107.874 Y103.309 E.01695
G1 X101.126 Y96.562 E.30127
G1 X101.126 Y97.099 E.01695
G1 X107.874 Y103.846 E.30127
G1 X107.874 Y104.383 E.01695
M73 P17 R12
G1 X101.126 Y97.636 E.30127
G1 X101.126 Y98.173 E.01695
G1 X107.874 Y104.92 E.30127
G1 X107.874 Y105.457 E.01695
G1 X101.126 Y98.71 E.30127
G1 X101.126 Y99.247 E.01695
G1 X107.874 Y105.994 E.30127
G1 X107.874 Y106.531 E.01695
G1 X101.126 Y99.784 E.30127
G1 X101.126 Y100.321 E.01695
G1 X107.874 Y107.068 E.30127
G1 X107.874 Y107.605 E.01695
G1 X101.126 Y100.858 E.30127
G1 X101.126 Y101.395 E.01695
G1 X107.874 Y108.142 E.30127
G1 X107.874 Y108.679 E.01695
G1 X101.126 Y101.932 E.30127
G1 X101.126 Y102.469 E.01695
G1 X107.874 Y109.216 E.30127
G1 X107.874 Y109.753 E.01695
G1 X101.126 Y103.006 E.30127
G1 X101.126 Y103.543 E.01695
G1 X107.457 Y109.874 E.28267
G1 X106.92 Y109.874 E.01695
G1 X101.126 Y104.08 E.25869
G1 X101.126 Y104.617 E.01695
G1 X106.383 Y109.874 E.23472
G1 X105.846 Y109.874 E.01695
G1 X101.126 Y105.154 E.21074
G1 X101.094 Y105.467 E.00993
G1 X101.039 Y105.603 E.00463
G1 X105.309 Y109.874 E.19067
G1 X104.772 Y109.874 E.01695
G1 X100.804 Y105.905 E.17719
G1 X100.722 Y105.977 E.00345
G1 X100.455 Y106.093 E.00919
G1 X104.235 Y109.874 E.16879
G1 X103.698 Y109.874 E.01695
G1 X99.951 Y106.126 E.16732
G1 X99.414 Y106.126 E.01695
G1 X103.162 Y109.874 E.16734
M73 P18 R12
G1 X102.625 Y109.874 E.01695
G1 X98.877 Y106.126 E.16734
G1 X98.34 Y106.126 E.01695
G1 X102.088 Y109.874 E.16734
G1 X101.551 Y109.874 E.01695
G1 X97.804 Y106.126 E.16732
G1 X97.267 Y106.126 E.01695
G1 X101.014 Y109.874 E.16732
G1 X100.477 Y109.874 E.01695
G1 X96.73 Y106.126 E.16732
G1 X96.193 Y106.126 E.01695
G1 X99.94 Y109.874 E.16732
G1 X99.403 Y109.874 E.01695
G1 X95.656 Y106.126 E.16732
G1 X95.119 Y106.126 E.01695
G1 X98.866 Y109.874 E.16732
G1 X98.329 Y109.874 E.01695
G1 X94.582 Y106.126 E.16732
G1 X94.045 Y106.126 E.01695
G1 X97.792 Y109.874 E.16732
G1 X97.255 Y109.874 E.01695
G1 X93.508 Y106.126 E.16732
G1 X92.971 Y106.126 E.01695
G1 X96.718 Y109.874 E.16732
G1 X96.181 Y109.874 E.01695
G1 X92.434 Y106.126 E.16732
G1 X91.897 Y106.126 E.01695
G1 X95.644 Y109.874 E.16732
G1 X95.107 Y109.874 E.01695
G1 X91.36 Y106.126 E.16732
G1 X90.823 Y106.126 E.01695
G1 X94.57 Y109.874 E.16732
G1 X94.033 Y109.874 E.01695
G1 X90.286 Y106.126 E.16732
G1 X89.749 Y106.126 E.01695
G1 X93.496 Y109.874 E.16732
G1 X92.959 Y109.874 E.01695
G1 X89.212 Y106.126 E.16732
G1 X88.675 Y106.126 E.01695
G1 X92.422 Y109.874 E.16732
G1 X91.885 Y109.874 E.01695
G1 X88.138 Y106.126 E.16732
G1 X87.601 Y106.126 E.01695
G1 X91.348 Y109.874 E.16732
G1 X90.811 Y109.874 E.01695
M73 P18 R11
G1 X87.064 Y106.126 E.16732
G1 X86.527 Y106.126 E.01695
G1 X90.274 Y109.874 E.16732
G1 X89.738 Y109.874 E.01692
G1 X85.99 Y106.126 E.16734
G1 X85.453 Y106.126 E.01695
G1 X89.201 Y109.874 E.16734
G1 X88.664 Y109.874 E.01695
G1 X84.916 Y106.126 E.16734
G1 X84.38 Y106.126 E.01692
G1 X88.127 Y109.874 E.16732
G1 X87.59 Y109.874 E.01695
M73 P19 R11
G1 X83.843 Y106.126 E.16732
G1 X83.306 Y106.126 E.01695
G1 X87.053 Y109.874 E.16732
G1 X86.516 Y109.874 E.01695
G1 X82.769 Y106.126 E.16732
G1 X82.232 Y106.126 E.01695
G1 X85.979 Y109.874 E.16732
G1 X85.442 Y109.874 E.01695
G1 X81.695 Y106.126 E.16732
G1 X81.158 Y106.126 E.01695
G1 X84.905 Y109.874 E.16732
G1 X84.368 Y109.874 E.01695
G1 X80.621 Y106.126 E.16732
G1 X80.084 Y106.126 E.01695
G1 X83.831 Y109.874 E.16732
G1 X83.294 Y109.874 E.01695
G1 X72.126 Y98.706 E.49863
G1 X72.126 Y99.243 E.01695
G1 X82.757 Y109.874 E.47466
G1 X82.22 Y109.874 E.01695
G1 X72.126 Y99.78 E.45068
G1 X72.126 Y100.317 E.01695
G1 X81.683 Y109.874 E.4267
G1 X81.146 Y109.874 E.01695
G1 X72.126 Y100.854 E.40273
G1 X72.126 Y101.391 E.01695
G1 X80.609 Y109.874 E.37875
G1 X80.072 Y109.874 E.01695
G1 X72.126 Y101.928 E.35478
G1 X72.126 Y102.465 E.01695
G1 X79.535 Y109.874 E.3308
G1 X78.998 Y109.874 E.01695
G1 X72.126 Y103.002 E.30682
G1 X72.126 Y103.539 E.01695
G1 X78.461 Y109.874 E.28285
G1 X77.924 Y109.874 E.01695
M73 P20 R11
