; generated by PrusaSlicer 2.6.1+win64 on 2023-10-12 at 11:43:13 UTC


;
;

;
;

;
;
; 

; external perimeters extrusion width = 0.45mm
; perimeters extrusion width = 0.45mm
; infill extrusion width = 0.45mm
; solid infill extrusion width = 0.45mm
; top infill extrusion width = 0.40mm
; first layer extrusion width = 0.42mm

M73 P0 R83
M201 X2500 Y2500 Z400 E5000 ; sets maximum accelerations, mm/sec^2
M203 X180 Y180 Z12 E80 ; sets maximum feedrates, mm / sec
M204 P2000 R1250 T2500 ; sets acceleration (P, T) and retract acceleration (R), mm/sec^2
M205 X8.00 Y8.00 Z2.00 E10.00 ; sets the jerk limits, mm/sec
M205 S0 T0 ; sets the minimum extruding and travel feed rate, mm/sec
;TYPE:Custom
M862.3 P "MINI" ; printer model check
G90 ; use absolute coordinates
M83 ; extruder relative mode
M104 S170 ; set extruder temp for bed leveling
M140 S100 ; set bed temp
M109 R170 ; wait for bed leveling temp
M190 S100 ; wait for bed temp
M204 T1250 ; set travel acceleration
G28 ; home all without mesh bed level
G29 ; mesh bed leveling 
M204 T2500 ; restore travel acceleration
M104 S255 ; set extruder temp
G92 E0
G1 Y-2 X179 F2400
G1 Z3 F720
M109 S255 ; wait for extruder temp

; intro line
G1 X170 F1000
G1 Z0.2 F720
G1 X110 E8 F900
G1 X40 E10 F700
G92 E0

M221 S95 ; set flow
G21 ; set units to millimeters
G90 ; use absolute coordinates
M83 ; use relative distances for extrusion
M900 K0.2 ; Filament gcode

M107
;LAYER_CHANGE
;Z:0.2
;HEIGHT:0.2
;BEFORE_LAYER_CHANGE
G92 E0.0
;0.2


G1 E-2.7 F4200
G1 Z.2 F720
;AFTER_LAYER_CHANGE
;0.2
G1 Z.4
G1 X51.015 Y33.693 F9000
G1 Z.2 F720
G1 E2.7 F2400
M204 P600
;TYPE:Skirt/Brim
;WIDTH:0.42
G1 F1200
G1 X52.06 Y32.817 E.04275
G1 X53 Y32.623 E.03009
G1 X127 Y32.623 E2.32022
G1 X128.307 Y33.015 E.04278
G1 X129.183 Y34.06 E.04275
G1 X129.377 Y35 E.03009
G1 X129.377 Y145 E3.44897
G1 X128.985 Y146.307 E.04278
G1 X127.94 Y147.183 E.04275
G1 X127 Y147.377 E.03009
G1 X53 Y147.377 E2.32022
G1 X51.693 Y146.985 E.04278
G1 X50.817 Y145.94 E.04275
G1 X50.623 Y145 E.03009
G1 X50.623 Y35 E3.44897
G1 X50.997 Y33.75 E.04091
M204 P1000
; printing object top.stl id:0 copy 0
M73 P0 R82
G1 E-2.7 F4200
G1 Z.4 F720
G1 X123.728 Y135.219 F9000
G1 Z.2 F720
G1 E2.7 F2400
M204 P600
;TYPE:Perimeter
;WIDTH:0.419999
G1 F1200
G1 X123.646 Y135.229 E.00259
G1 X123.477 Y135.3 E.00575
G1 X123.283 Y135.505 E.00885
G1 X123.213 Y135.779 E.00887
G1 X123.224 Y139.332 E.1114
G1 X123.345 Y139.585 E.00879
G1 X123.526 Y139.727 E.00721
G1 X123.779 Y139.787 E.00815
G1 X126.213 Y139.787 E.07632
G1 X126.213 Y144.213 E.13877
G1 X121.787 Y144.213 E.13877
G1 X121.776 Y141.668 E.0798
G1 X121.655 Y141.415 E.00879
G1 X121.474 Y141.273 E.00721
G1 X121.221 Y141.213 E.00815
G1 X117.779 Y141.213 E.10792
G1 X117.689 Y141.22 E.00283
G1 X117.43 Y141.333 E.00886
G1 X117.262 Y141.548 E.00856
G1 X117.213 Y141.779 E.0074
G1 X117.213 Y144.213 E.07632
G1 X92.287 Y144.213 E.78154
G1 X92.287 Y141.779 E.07632
G1 X92.271 Y141.645 E.00423
G1 X92.2 Y141.477 E.00572
G1 X91.99 Y141.281 E.00901
G1 X91.721 Y141.213 E.0087
G1 X88.186 Y141.221 E.11084
G1 X87.93 Y141.333 E.00876
G1 X87.762 Y141.548 E.00856
G1 X87.713 Y141.779 E.0074
G1 X87.713 Y144.213 E.07632
G1 X62.787 Y144.213 E.78154
G1 X62.787 Y141.779 E.07632
G1 X62.771 Y141.646 E.0042
G1 X62.7 Y141.477 E.00575
G1 X62.502 Y141.287 E.0086
G1 X62.221 Y141.213 E.00911
G1 X58.779 Y141.213 E.10792
G1 X58.668 Y141.224 E.0035
G1 X58.415 Y141.345 E.00879
G1 X58.273 Y141.526 E.00721
G1 X58.213 Y141.779 E.00815
G1 X58.213 Y144.213 E.07632
G1 X53.787 Y144.213 E.13877
G1 X53.787 Y139.787 E.13877
G1 X56.332 Y139.776 E.0798
G1 X56.585 Y139.655 E.00879
G1 X56.727 Y139.474 E.00721
G1 X56.787 Y139.221 E.00815
G1 X56.787 Y135.779 E.10792
G1 X56.78 Y135.689 E.00283
G1 X56.666 Y135.429 E.0089
G1 X56.452 Y135.262 E.00851
G1 X56.221 Y135.213 E.0074
G1 X53.787 Y135.213 E.07632
G1 X53.787 Y108.12 E.84948
G1 X56.221 Y108.12 E.07632
G1 X56.361 Y108.103 E.00442
G1 X56.534 Y108.026 E.00594
G1 X56.715 Y107.831 E.00834
G1 X56.787 Y107.555 E.00894
G1 X56.774 Y103.989 E.11181
G1 X56.649 Y103.742 E.00868
G1 X56.465 Y103.601 E.00727
G1 X56.221 Y103.546 E.00784
G1 X53.787 Y103.546 E.07632
G1 X53.787 Y76.454 E.84945
G1 X56.221 Y76.454 E.07632
G1 X56.363 Y76.436 E.00449
G1 X56.595 Y76.313 E.00823
G1 X56.738 Y76.118 E.00758
G1 X56.787 Y75.888 E.00737
G1 X56.777 Y72.336 E.11137
G1 X56.68 Y72.114 E.0076
G1 X56.462 Y71.933 E.00888
G1 X56.221 Y71.88 E.00774
G1 X53.787 Y71.88 E.07632
G1 X53.787 Y44.787 E.84948
G1 X56.221 Y44.787 E.07632
G1 X56.354 Y44.771 E.0042
G1 X56.523 Y44.7 E.00575
G1 X56.713 Y44.502 E.0086
G1 X56.787 Y44.221 E.00911
G1 X56.787 Y40.779 E.10792
G1 X56.776 Y40.668 E.0035
G1 X56.655 Y40.415 E.00879
G1 X56.474 Y40.273 E.00721
G1 X56.221 Y40.213 E.00815
G1 X53.787 Y40.213 E.07632
G1 X53.787 Y35.787 E.13877
G1 X58.213 Y35.787 E.13877
G1 X58.224 Y38.332 E.0798
G1 X58.345 Y38.585 E.00879
G1 X58.526 Y38.727 E.00721
G1 X58.779 Y38.787 E.00815
G1 X62.221 Y38.787 E.10792
G1 X62.311 Y38.78 E.00283
G1 X62.57 Y38.667 E.00886
G1 X62.738 Y38.452 E.00856
G1 X62.787 Y38.221 E.0074
G1 X62.787 Y35.787 E.07632
G1 X87.713 Y35.787 E.78154
G1 X87.713 Y38.221 E.07632
G1 X87.729 Y38.355 E.00423
M73 P1 R82
G1 X87.8 Y38.523 E.00572
G1 X88.014 Y38.721 E.00914
G1 X88.279 Y38.787 E.00856
G1 X91.806 Y38.781 E.11059
G1 X92.07 Y38.667 E.00902
G1 X92.238 Y38.452 E.00856
G1 X92.287 Y38.221 E.0074
G1 X92.287 Y35.787 E.07632
G1 X117.213 Y35.787 E.78154
G1 X117.213 Y38.221 E.07632
G1 X117.229 Y38.355 E.00423
G1 X117.3 Y38.523 E.00572
G1 X117.505 Y38.717 E.00885
G1 X117.779 Y38.787 E.00887
G1 X121.221 Y38.787 E.10792
G1 X121.332 Y38.776 E.0035
G1 X121.585 Y38.655 E.00879
G1 X121.727 Y38.474 E.00721
G1 X121.787 Y38.221 E.00815
G1 X121.787 Y35.787 E.07632
G1 X126.213 Y35.787 E.13877
G1 X126.213 Y40.213 E.13877
G1 X123.668 Y40.224 E.0798
G1 X123.415 Y40.345 E.00879
G1 X123.273 Y40.526 E.00721
G1 X123.213 Y40.779 E.00815
G1 X123.213 Y44.221 E.10792
G1 X123.22 Y44.311 E.00283
G1 X123.334 Y44.571 E.0089
G1 X123.548 Y44.738 E.00851
G1 X123.779 Y44.787 E.0074
G1 X126.213 Y44.787 E.07632
G1 X126.213 Y71.88 E.84948
G1 X123.779 Y71.88 E.07632
G1 X123.639 Y71.897 E.00442
G1 X123.466 Y71.974 E.00594
G1 X123.285 Y72.17 E.00837
G1 X123.213 Y72.445 E.00891
G1 X123.226 Y76.011 E.11181
G1 X123.351 Y76.258 E.00868
G1 X123.535 Y76.399 E.00727
G1 X123.779 Y76.454 E.00784
G1 X126.213 Y76.454 E.07632
G1 X126.213 Y103.546 E.84945
G1 X123.779 Y103.546 E.07632
G1 X123.637 Y103.564 E.00449
G1 X123.405 Y103.687 E.00823
G1 X123.262 Y103.882 E.00758
G1 X123.213 Y104.112 E.00737
G1 X123.223 Y107.663 E.11134
G1 X123.319 Y107.885 E.00758
G1 X123.538 Y108.067 E.00893
G1 X123.779 Y108.12 E.00774
G1 X126.213 Y108.12 E.07632
G1 X126.213 Y135.213 E.84948
G1 X123.788 Y135.213 E.07603
M204 P1000
G1 X123.779 Y135.59 F9000
M204 P600
;TYPE:External perimeter
G1 F1200
G1 X123.661 Y135.631 E.00392
G1 X123.59 Y135.779 E.00515
G1 X123.59 Y139.221 E.10792
G1 X123.634 Y139.343 E.00407
G1 X123.779 Y139.41 E.00501
G1 X126.59 Y139.41 E.08814
G1 X126.59 Y144.59 E.16241
G1 X121.41 Y144.59 E.16241
G1 X121.41 Y141.779 E.08814
G1 X121.366 Y141.657 E.00407
G1 X121.221 Y141.59 E.00501
G1 X117.779 Y141.59 E.10792
G1 X117.662 Y141.63 E.00388
G1 X117.59 Y141.779 E.00519
G1 X117.59 Y144.59 E.08814
G1 X91.91 Y144.59 E.80518
G1 X91.91 Y141.779 E.08814
G1 X91.869 Y141.661 E.00392
G1 X91.721 Y141.59 E.00515
G1 X88.279 Y141.59 E.10792
G1 X88.162 Y141.63 E.00388
G1 X88.09 Y141.779 E.00519
G1 X88.09 Y144.59 E.08814
G1 X62.41 Y144.59 E.80518
G1 X62.41 Y141.779 E.08814
G1 X62.369 Y141.661 E.00392
G1 X62.221 Y141.59 E.00515
G1 X58.779 Y141.59 E.10792
G1 X58.657 Y141.634 E.00407
G1 X58.59 Y141.779 E.00501
G1 X58.59 Y144.59 E.08814
G1 X53.41 Y144.59 E.16241
G1 X53.41 Y139.41 E.16241
G1 X56.221 Y139.41 E.08814
G1 X56.343 Y139.366 E.00407
G1 X56.41 Y139.221 E.00501
G1 X56.41 Y135.779 E.10792
G1 X56.37 Y135.662 E.00388
G1 X56.221 Y135.59 E.00519
G1 X53.41 Y135.59 E.08814
G1 X53.41 Y107.743 E.87312
G1 X56.221 Y107.743 E.08814
G1 X56.343 Y107.699 E.00407
G1 X56.41 Y107.555 E.00498
G1 X56.41 Y104.112 E.10795
G1 X56.364 Y103.989 E.00412
G1 X56.221 Y103.923 E.00494
G1 X53.41 Y103.923 E.08814
G1 X53.41 Y76.077 E.87309
G1 X56.221 Y76.077 E.08814
G1 X56.346 Y76.03 E.00419
G1 X56.41 Y75.888 E.00488
G1 X56.41 Y72.445 E.10795
G1 X56.37 Y72.329 E.00385
G1 X56.221 Y72.257 E.00519
G1 X53.41 Y72.257 E.08814
G1 X53.41 Y44.41 E.87312
G1 X56.221 Y44.41 E.08814
G1 X56.339 Y44.369 E.00392
G1 X56.41 Y44.221 E.00515
G1 X56.41 Y40.779 E.10792
G1 X56.366 Y40.657 E.00407
G1 X56.221 Y40.59 E.00501
G1 X53.41 Y40.59 E.08814
G1 X53.41 Y35.41 E.16241
G1 X58.59 Y35.41 E.16241
G1 X58.59 Y38.221 E.08814
G1 X58.634 Y38.343 E.00407
G1 X58.779 Y38.41 E.00501
G1 X62.221 Y38.41 E.10792
G1 X62.338 Y38.37 E.00388
G1 X62.41 Y38.221 E.00519
G1 X62.41 Y35.41 E.08814
G1 X88.09 Y35.41 E.80518
G1 X88.09 Y38.221 E.08814
G1 X88.132 Y38.34 E.00396
G1 X88.279 Y38.41 E.0051
G1 X91.721 Y38.41 E.10792
G1 X91.838 Y38.37 E.00388
G1 X91.91 Y38.221 E.00519
G1 X91.91 Y35.41 E.08814
G1 X117.59 Y35.41 E.80518
G1 X117.59 Y38.221 E.08814
G1 X117.631 Y38.339 E.00392
G1 X117.779 Y38.41 E.00515
G1 X121.221 Y38.41 E.10792
G1 X121.343 Y38.366 E.00407
G1 X121.41 Y38.221 E.00501
G1 X121.41 Y35.41 E.08814
G1 X126.59 Y35.41 E.16241
G1 X126.59 Y40.59 E.16241
G1 X123.779 Y40.59 E.08814
G1 X123.657 Y40.634 E.00407
G1 X123.59 Y40.779 E.00501
G1 X123.59 Y44.221 E.10792
G1 X123.63 Y44.338 E.00388
G1 X123.779 Y44.41 E.00519
G1 X126.59 Y44.41 E.08814
G1 X126.59 Y72.257 E.87312
G1 X123.779 Y72.257 E.08814
G1 X123.657 Y72.301 E.00407
G1 X123.59 Y72.445 E.00498
G1 X123.59 Y75.888 E.10795
G1 X123.636 Y76.011 E.00412
G1 X123.779 Y76.077 E.00494
G1 X126.59 Y76.077 E.08814
G1 X126.59 Y103.923 E.87309
G1 X123.779 Y103.923 E.08814
G1 X123.654 Y103.97 E.00419
G1 X123.59 Y104.112 E.00488
G1 X123.59 Y107.555 E.10795
G1 X123.63 Y107.671 E.00385
G1 X123.779 Y107.743 E.00519
G1 X126.59 Y107.743 E.08814
G1 X126.59 Y135.59 E.87312
G1 X123.839 Y135.59 E.08626
M204 P1000
G1 X123.66 Y135.549 F9000
G1 E-2.7 F4200
G1 Z.4 F720
G1 X103.239 Y106.017 F9000
G1 Z.2 F720
G1 E2.7 F2400
M204 P600
;TYPE:Perimeter
G1 F1200
G1 X103.172 Y105.911 E.00393
G1 X102.973 Y105.135 E.02512
G1 X102.973 Y104.865 E.00847
G1 X103.142 Y104.178 E.02218
G1 X103.268 Y103.938 E.0085
G1 X103.737 Y103.408 E.02219
G1 X103.96 Y103.255 E.00848
G1 X104.621 Y103.004 E.02217
G1 X104.89 Y102.971 E.0085
G1 X105.592 Y103.056 E.02217
G1 X105.845 Y103.152 E.00848
G1 X106.428 Y103.554 E.0222
G1 X106.607 Y103.757 E.00849
G1 X106.936 Y104.383 E.02217
G1 X107.001 Y104.646 E.00849
G1 X107.001 Y105.354 E.0222
G1 X106.936 Y105.617 E.00849
G1 X106.607 Y106.243 E.02217
G1 X106.428 Y106.446 E.00849
G1 X105.845 Y106.848 E.0222
G1 X105.592 Y106.944 E.00848
G1 X104.89 Y107.029 E.02217
G1 X104.621 Y106.996 E.0085
G1 X103.96 Y106.745 E.02217
G1 X103.737 Y106.592 E.00848
G1 X103.272 Y106.067 E.02199
M204 P1000
G1 X103.562 Y105.824 F9000
M204 P600
;TYPE:External perimeter
G1 F1200
G1 X103.518 Y105.762 E.00238
G1 X103.339 Y105.045 E.02317
G1 X103.508 Y104.268 E.02493
G1 X104.019 Y103.659 E.02493
G1 X104.755 Y103.356 E.02496
G1 X105.547 Y103.431 E.02494
G1 X106.213 Y103.865 E.02492
G1 X106.532 Y104.425 E.02021
G1 X106.624 Y104.646 E.00751
G1 X106.624 Y105.354 E.0222
G1 X106.273 Y106.068 E.02495
G1 X105.631 Y106.537 E.02493
G1 X104.845 Y106.654 E.02492
G1 X104.093 Y106.393 E.02496
G1 X103.603 Y105.868 E.02252
M204 P1000
G1 X103.487 Y105.84 F9000
G1 E-2.7 F4200
G1 Z.4 F720
G1 X76.55 Y106.308 F9000
G1 Z.2 F720
G1 E2.7 F2400
M204 P600
;TYPE:Perimeter
G1 F1200
G1 X76.428 Y106.446 E.00578
G1 X75.845 Y106.848 E.0222
G1 X75.592 Y106.944 E.00848
G1 X74.89 Y107.029 E.02217
G1 X74.621 Y106.996 E.0085
G1 X73.96 Y106.745 E.02217
G1 X73.737 Y106.592 E.00848
G1 X73.268 Y106.062 E.02219
G1 X73.142 Y105.822 E.0085
G1 X72.973 Y105.135 E.02218
G1 X72.973 Y104.865 E.00847
G1 X73.142 Y104.178 E.02218
G1 X73.268 Y103.938 E.0085
G1 X73.737 Y103.408 E.02219
G1 X73.96 Y103.255 E.00848
G1 X74.621 Y103.004 E.02217
G1 X74.89 Y102.971 E.0085
G1 X75.592 Y103.056 E.02217
G1 X75.845 Y103.152 E.00848
G1 X76.428 Y103.554 E.0222
G1 X76.607 Y103.757 E.00849
G1 X76.936 Y104.383 E.02217
G1 X77.001 Y104.646 E.00849
G1 X76.993 Y105.445 E.02505
G1 X76.589 Y106.263 E.02861
M204 P1000
G1 X76.289 Y106.036 F9000
M204 P600
;TYPE:External perimeter
G1 F1200
G1 X76.273 Y106.068 E.00112
G1 X75.631 Y106.537 E.02493
G1 X74.845 Y106.654 E.02492
G1 X74.093 Y106.393 E.02496
G1 X73.55 Y105.812 E.02493
G1 X73.339 Y105.045 E.02494
G1 X73.508 Y104.268 E.02493
G1 X74.019 Y103.659 E.02493
G1 X74.755 Y103.356 E.02496
G1 X75.547 Y103.431 E.02494
G1 X76.213 Y103.865 E.02492
G1 X76.602 Y104.559 E.02494
G1 X76.621 Y105.384 E.02587
G1 X76.317 Y105.983 E.02106
M204 P1000
G1 X76.311 Y106.064 F9000
G1 E-2.7 F4200
G1 Z.4 F720
G1 X66.753 Y76.723 F9000
G1 Z.2 F720
G1 E2.7 F2400
M204 P600
;TYPE:Perimeter
G1 F1200
G1 X69.906 Y76.713 E.09886
G1 X70.4 Y76.742 E.01552
G1 X70.543 Y76.813 E.00501
G1 X70.713 Y76.999 E.0079
G1 X70.787 Y77.279 E.00908
G1 X70.787 Y102.721 E.79771
G1 X70.713 Y103.001 E.00908
G1 X70.543 Y103.187 E.0079
G1 X70.29 Y103.283 E.00848
G1 X66.779 Y103.287 E.11008
G1 X66.498 Y103.213 E.00911
G1 X66.303 Y103.028 E.00843
G1 X66.213 Y102.746 E.00928
G1 X66.213 Y77.279 E.7985
G1 X66.262 Y77.048 E.0074
G1 X66.409 Y76.85 E.00773
G1 X66.693 Y76.724 E.00974
M204 P1000
G1 X66.779 Y77.09 F9000
M204 P600
;TYPE:External perimeter
G1 F1200
G1 X70.281 Y77.1 E.1098
G1 X70.399 Y77.215 E.00517
G1 X70.41 Y102.721 E.79972
G1 X70.375 Y102.831 E.00362
G1 X70.244 Y102.909 E.00478
G1 X66.779 Y102.91 E.10864
G1 X66.637 Y102.846 E.00488
G1 X66.59 Y102.721 E.00419
G1 X66.59 Y77.279 E.79771
G1 X66.655 Y77.136 E.00493
G1 X66.722 Y77.111 E.00224
M204 P1000
G1 X66.883 Y76.704 F9000
G1 E-2.7 F4200
G1 Z.4 F720
G1 X73.182 Y74.102 F9000
G1 Z.2 F720
G1 E2.7 F2400
M204 P600
;TYPE:Perimeter
G1 F1200
G1 X73.268 Y73.938 E.00581
G1 X73.737 Y73.408 E.02219
G1 X73.96 Y73.255 E.00848
G1 X74.621 Y73.004 E.02217
G1 X74.89 Y72.971 E.0085
G1 X75.595 Y73.057 E.02227
G1 X75.845 Y73.152 E.00839
G1 X76.428 Y73.554 E.0222
G1 X76.607 Y73.757 E.00849
G1 X76.936 Y74.383 E.02217
G1 X77.001 Y74.646 E.00849
G1 X76.999 Y75.396 E.02352
G1 X76.936 Y75.617 E.00721
G1 X76.607 Y76.243 E.02217
G1 X76.428 Y76.446 E.00849
G1 X75.845 Y76.848 E.0222
G1 X75.592 Y76.944 E.00848
G1 X74.89 Y77.029 E.02217
G1 X74.621 Y76.996 E.0085
G1 X73.96 Y76.745 E.02217
G1 X73.737 Y76.592 E.00848
G1 X73.268 Y76.062 E.02219
G1 X73.142 Y75.822 E.0085
G1 X72.973 Y75.135 E.02218
G1 X72.973 Y74.865 E.00847
G1 X73.154 Y74.155 E.02297
M204 P1000
G1 X73.565 Y74.2 F9000
M204 P600
;TYPE:External perimeter
G1 F1200
G1 X74.019 Y73.659 E.02214
G1 X74.755 Y73.356 E.02496
G1 X75.547 Y73.431 E.02494
G1 X76.213 Y73.865 E.02492
G1 X76.602 Y74.559 E.02494
G1 X76.623 Y75.368 E.02537
G1 X76.273 Y76.068 E.02454
G1 X75.631 Y76.537 E.02493
G1 X74.845 Y76.654 E.02492
G1 X74.093 Y76.393 E.02496
G1 X73.733 Y76.018 E.0163
G1 X73.508 Y75.732 E.01141
G1 X73.339 Y75.045 E.02218
G1 X73.508 Y74.268 E.02493
G1 X73.527 Y74.246 E.00091
M204 P1000
G1 X73.375 Y73.848 F9000
G1 E-2.7 F4200
G1 Z.4 F720
G1 X104.705 Y72.994 F9000
G1 Z.2 F720
M73 P1 R81
G1 E2.7 F2400
M204 P600
;TYPE:Perimeter
G1 F1200
G1 X104.89 Y72.971 E.00585
G1 X105.592 Y73.056 E.02217
G1 X105.845 Y73.152 E.00848
G1 X106.428 Y73.554 E.0222
G1 X106.607 Y73.757 E.00849
G1 X106.936 Y74.383 E.02217
G1 X107.001 Y74.646 E.00849
G1 X107.001 Y75.354 E.0222
G1 X106.936 Y75.617 E.00849
G1 X106.607 Y76.243 E.02217
G1 X106.428 Y76.446 E.00849
G1 X105.845 Y76.848 E.0222
G1 X105.592 Y76.944 E.00848
G1 X104.89 Y77.029 E.02217
G1 X104.621 Y76.996 E.0085
G1 X103.96 Y76.745 E.02217
G1 X103.737 Y76.592 E.00848
G1 X103.268 Y76.062 E.02219
G1 X103.142 Y75.822 E.0085
G1 X102.973 Y75.135 E.02218
G1 X102.973 Y74.865 E.00847
G1 X103.142 Y74.178 E.02218
G1 X103.268 Y73.938 E.0085
G1 X103.737 Y73.408 E.02219
G1 X103.96 Y73.255 E.00848
G1 X104.646 Y73.001 E.02294
M204 P1000
G1 X104.721 Y73.371 F9000
M204 P600
;TYPE:External perimeter
G1 F1200
G1 X104.755 Y73.356 E.00117
G1 X105.287 Y73.399 E.01673
G1 X105.631 Y73.463 E.01097
