; generated by PrusaSlicer 2.6.1+win64 on 2023-10-12 at 16:54:11 UTC


;
;

;
;

;
;
; 

; external perimeters extrusion width = 0.45mm
; perimeters extrusion width = 0.45mm
; infill extrusion width = 0.45mm
; solid infill extrusion width = 0.45mm
; top infill extrusion width = 0.40mm
; first layer extrusion width = 0.42mm

M73 P0 R18
M201 X2500 Y2500 Z400 E5000 ; sets maximum accelerations, mm/sec^2
M203 X180 Y180 Z12 E80 ; sets maximum feedrates, mm / sec
M204 P2000 R1250 T2500 ; sets acceleration (P, T) and retract acceleration (R), mm/sec^2
M205 X8.00 Y8.00 Z2.00 E10.00 ; sets the jerk limits, mm/sec
M205 S0 T0 ; sets the minimum extruding and travel feed rate, mm/sec
;TYPE:Custom
M862.3 P "MINI" ; printer model check
G90 ; use absolute coordinates
M83 ; extruder relative mode
M104 S170 ; set extruder temp for bed leveling
M140 S100 ; set bed temp
M109 R170 ; wait for bed leveling temp
M190 S100 ; wait for bed temp
M204 T1250 ; set travel acceleration
G28 ; home all without mesh bed level
G29 ; mesh bed leveling 
M204 T2500 ; restore travel acceleration
M104 S255 ; set extruder temp
G92 E0
G1 Y-2 X179 F2400
G1 Z3 F720
M109 S255 ; wait for extruder temp

; intro line
G1 X170 F1000
G1 Z0.2 F720
G1 X110 E8 F900
G1 X40 E10 F700
G92 E0

M221 S95 ; set flow
G21 ; set units to millimeters
G90 ; use absolute coordinates
M83 ; use relative distances for extrusion
M900 K0.2 ; Filament gcode

M107
;LAYER_CHANGE
;Z:0.2
;HEIGHT:0.2
;BEFORE_LAYER_CHANGE
G92 E0.0
;0.2


G1 E-2.7 F4200
M73 P1 R18
G1 Z.2 F720
;AFTER_LAYER_CHANGE
;0.2
G1 Z.4
G1 X76.716 Y55.929 F9000
G1 Z.2 F720
G1 E2.7 F2400
M204 P600
;TYPE:Skirt/Brim
;WIDTH:0.42
G1 F1200
G1 X83.45 Y48.286 E.31939
G1 X83.994 Y47.787 E.02315
G1 X84.495 Y47.48 E.01842
G1 X85.211 Y47.219 E.02389
G1 X86 Y47.123 E.02492
G1 X94.207 Y47.132 E.25732
G1 X94.789 Y47.219 E.01845
G1 X95.505 Y47.48 E.02389
G1 X96.006 Y47.787 E.01842
G1 X96.55 Y48.286 E.02315
G1 X103.284 Y55.929 E.31939
G1 X103.877 Y57.5 E.05265
G1 X103.877 Y130.5 E2.28886
G1 X103.485 Y131.807 E.04278
G1 X102.44 Y132.683 E.04275
G1 X101.5 Y132.877 E.03009
G1 X78.5 Y132.877 E.72115
G1 X77.193 Y132.485 E.04278
M73 P2 R18
G1 X76.317 Y131.44 E.04275
G1 X76.123 Y130.5 E.03009
G1 X76.123 Y57.5 E2.28886
G1 X76.695 Y55.985 E.05077
M204 P1000
; printing object Tray.stl id:0 copy 0
G1 E-2.7 F4200
G1 Z.4 F720
G1 X94.724 Y58.279 F9000
G1 Z.2 F720
G1 E2.7 F2400
M204 P600
;TYPE:Perimeter
;WIDTH:0.419999
G1 F1200
G1 X100.713 Y58.287 E.18778
G1 X100.713 Y106.713 E1.51836
G1 X92.084 Y106.713 E.27056
G1 X92.287 Y106.471 E.0099
G1 X92.287 Y57.029 E1.55022
G1 X92.221 Y56.762 E.00862
G1 X92.061 Y56.576 E.00769
G1 X91.88 Y56.486 E.00634
G1 X91.721 Y56.463 E.00504
G1 X88.875 Y56.463 E.08923
G1 X88.12 Y56.486 E.02368
G1 X87.939 Y56.576 E.00634
G1 X87.779 Y56.762 E.00769
G1 X87.713 Y57.029 E.00862
G1 X87.713 Y106.471 E1.55022
G1 X87.954 Y106.713 E.01071
M73 P3 R18
G1 X79.287 Y106.713 E.27175
G1 X79.287 Y58.287 E1.51836
G1 X85.221 Y58.287 E.18606
G1 X85.38 Y58.264 E.00504
G1 X85.561 Y58.174 E.00634
G1 X85.721 Y57.988 E.00769
G1 X85.787 Y57.721 E.00862
G1 X85.787 Y50.583 E.22381
G1 X85.869 Y50.369 E.00719
G1 X86.083 Y50.287 E.00719
G1 X93.873 Y50.287 E.24425
G1 X94.113 Y50.339 E.0077
G1 X94.213 Y50.534 E.00687
G1 X94.213 Y57.721 E.22534
G1 X94.279 Y57.988 E.00862
G1 X94.439 Y58.174 E.00769
G1 X94.664 Y58.271 E.00768
M204 P1000
G1 X94.779 Y57.91 F9000
M204 P600
;TYPE:External perimeter
G1 F1200
G1 X101.09 Y57.91 E.19788
G1 X101.09 Y62.5 E.14392
G1 X101.09 Y107.09 E1.39809
G1 X92.529 Y107.09 E.26842
;WIDTH:0.44646
G1 X91.721 Y107.077 E.02712
G1 X87.471 Y107.09 E.14261
;WIDTH:0.419999
G1 X78.91 Y107.09 E.26842
G1 X78.91 Y57.91 E1.542
G1 X85.221 Y57.91 E.19788
M73 P4 R18
G1 X85.335 Y57.872 E.00377
M73 P4 R17
G1 X85.41 Y57.721 E.00529
G1 X85.41 Y50.627 E.22243
G1 X85.496 Y50.208 E.01341
G1 X85.709 Y49.996 E.00942
G1 X86.034 Y49.91 E.01054
G1 X93.873 Y49.91 E.24579
G1 X94.209 Y49.974 E.01072
G1 X94.371 Y50.058 E.00572
G1 X94.482 Y50.202 E.0057
G1 X94.59 Y50.518 E.01047
G1 X94.59 Y57.721 E.22584
G1 X94.665 Y57.872 E.00529
G1 X94.722 Y57.891 E.00188
M204 P1000
G1 X94.882 Y58.296 F9000
G1 E-2.7 F4200
G1 Z.4 F720
G1 X91.721 Y106.673 F9000
G1 Z.2 F720
G1 E2.7 F2400
M204 P600
;WIDTH:0.44646
G1 F1200
G1 X88.279 Y106.673 E.11549
G1 X88.09 Y106.471 E.00928
;WIDTH:0.419999
G1 X88.09 Y57.029 E1.55022
G1 X88.165 Y56.878 E.00529
G1 X88.279 Y56.84 E.00377
G1 X91.774 Y56.848 E.10958
G1 X91.888 Y56.94 E.00459
G1 X91.91 Y57.721 E.0245
G1 X91.91 Y106.471 E1.52852
;WIDTH:0.44646
G1 X91.762 Y106.629 E.00726
M204 P1000
G1 E-2.7 F4200
G1 Z.4 F720
G1 X93.238 Y50.461 F9000
G1 Z.2 F720
G1 E2.7 F2400
M204 P600
;TYPE:Solid infill
;WIDTH:0.421676
G1 F1200
G1 X93.874 Y51.096 E.0283
G1 X93.874 Y51.632 E.01688
G1 X92.872 Y50.631 E.04461
G1 X92.336 Y50.63 E.01688
G1 X93.874 Y52.168 E.0685
G1 X93.874 Y52.703 E.01685
G1 X91.8 Y50.63 E.09235
G1 X91.264 Y50.63 E.01688
G1 X93.874 Y53.239 E.11622
G1 X93.874 Y53.775 E.01688
G1 X90.728 Y50.629 E.14012
G1 X90.192 Y50.629 E.01688
G1 X93.874 Y54.31 E.16397
G1 X93.874 Y54.846 E.01688
G1 X89.656 Y50.629 E.18784
G1 X89.12 Y50.628 E.01688
M73 P5 R17
G1 X93.874 Y55.382 E.21174
G1 X93.874 Y55.917 E.01685
G1 X88.584 Y50.628 E.23559
G1 X88.048 Y50.628 E.01688
G1 X93.874 Y56.453 E.25946
G1 X93.874 Y56.989 E.01688
G1 X87.512 Y50.627 E.28336
G1 X86.976 Y50.627 E.01688
G1 X94.043 Y57.694 E.31476
M204 P1000
G1 E-2.7 F4200
G1 Z.4 F720
G1 X100.163 Y58.457 F9000
G1 Z.2 F720
G1 E2.7 F2400
M204 P600
G1 F1200
G1 X100.374 Y58.668 E.0094
G1 X100.374 Y59.203 E.01685
G1 X99.797 Y58.626 E.0257
G1 X99.261 Y58.626 E.01688
G1 X100.374 Y59.739 E.04957
G1 X100.374 Y60.275 E.01688
G1 X98.725 Y58.626 E.07344
G1 X98.19 Y58.626 E.01685
G1 X100.374 Y60.81 E.09727
G1 X100.374 Y61.346 E.01688
G1 X97.654 Y58.626 E.12115
G1 X97.118 Y58.626 E.01688
G1 X100.374 Y61.882 E.14502
G1 X100.374 Y62.417 E.01685
G1 X96.583 Y58.626 E.16885
G1 X96.047 Y58.626 E.01688
G1 X100.374 Y62.953 E.19272
G1 X100.374 Y63.489 E.01688
G1 X95.511 Y58.626 E.21659
G1 X94.976 Y58.626 E.01685
G1 X100.374 Y64.024 E.24042
G1 X100.374 Y64.56 E.01688
G1 X86.44 Y50.627 E.62058
G1 X86.127 Y50.626 E.00986
G1 X86.126 Y50.848 E.00699
G1 X91.402 Y56.124 E.23499
G1 X90.866 Y56.124 E.01688
G1 X86.126 Y51.384 E.21111
G1 X86.126 Y51.92 E.01688
G1 X90.33 Y56.124 E.18724
G1 X89.795 Y56.124 E.01685
G1 X86.126 Y52.455 E.16341
G1 X86.126 Y52.991 E.01688
G1 X89.259 Y56.124 E.13954
G1 X88.723 Y56.124 E.01688
G1 X86.126 Y53.527 E.11567
G1 X86.126 Y54.062 E.01685
G1 X88.198 Y56.134 E.09228
G1 X88.022 Y56.159 E.0056
G1 X87.799 Y56.27 E.00785
G1 X86.126 Y54.598 E.07449
G1 X86.126 Y55.133 E.01685
G1 X87.531 Y56.538 E.06258
G1 X87.475 Y56.603 E.0027
G1 X87.392 Y56.935 E.01078
G1 X86.126 Y55.669 E.05639
G1 X86.126 Y56.205 E.01688
G1 X87.374 Y57.452 E.05556
G1 X87.374 Y57.987 E.01685
G1 X86.126 Y56.74 E.05556
G1 X86.126 Y57.276 E.01688
G1 X87.374 Y58.523 E.05556
G1 X87.374 Y59.059 E.01688
G1 X86.12 Y57.805 E.05585
G1 X86.113 Y57.883 E.00247
G1 X86.02 Y58.153 E.00899
G1 X85.979 Y58.2 E.00196
G1 X87.374 Y59.594 E.06211
G1 X87.374 Y60.13 E.01688
G1 X85.716 Y58.472 E.07385
G1 X85.478 Y58.591 E.00838
G1 X85.322 Y58.614 E.00497
G1 X87.374 Y60.666 E.09139
G1 X87.374 Y61.201 E.01685
G1 X84.799 Y58.626 E.11469
G1 X84.263 Y58.626 E.01688
G1 X87.374 Y61.737 E.13856
G1 X87.374 Y62.273 E.01688
G1 X83.727 Y58.626 E.16243
G1 X83.192 Y58.626 E.01685
G1 X87.374 Y62.808 E.18626
G1 X87.374 Y63.344 E.01688
G1 X82.656 Y58.626 E.21013
G1 X82.12 Y58.626 E.01688
M73 P6 R17
G1 X87.374 Y63.88 E.23401
G1 X87.374 Y64.415 E.01685
G1 X81.585 Y58.626 E.25784
G1 X81.049 Y58.626 E.01688
G1 X87.374 Y64.951 E.28171
G1 X87.374 Y65.486 E.01685
G1 X80.514 Y58.626 E.30554
G1 X79.978 Y58.626 E.01688
G1 X87.374 Y66.022 E.32941
G1 X87.374 Y66.558 E.01688
G1 X79.626 Y58.811 E.34506
G1 X79.626 Y59.346 E.01685
G1 X87.374 Y67.093 E.34506
G1 X87.374 Y67.629 E.01688
G1 X79.626 Y59.882 E.34506
G1 X79.626 Y60.418 E.01688
G1 X87.374 Y68.165 E.34506
G1 X87.374 Y68.7 E.01685
G1 X79.626 Y60.953 E.34506
G1 X79.626 Y61.489 E.01688
G1 X87.374 Y69.236 E.34506
G1 X87.374 Y69.772 E.01688
G1 X79.626 Y62.025 E.34506
G1 X79.626 Y62.56 E.01685
G1 X87.374 Y70.307 E.34506
G1 X87.374 Y70.843 E.01688
G1 X79.626 Y63.096 E.34506
G1 X79.626 Y63.631 E.01685
G1 X87.374 Y71.379 E.34509
G1 X87.374 Y71.914 E.01685
G1 X79.626 Y64.167 E.34506
G1 X79.626 Y64.703 E.01688
G1 X87.374 Y72.45 E.34506
G1 X87.374 Y72.985 E.01685
G1 X79.626 Y65.238 E.34506
G1 X79.626 Y65.774 E.01688
G1 X87.374 Y73.521 E.34506
G1 X87.374 Y74.057 E.01688
G1 X79.626 Y66.31 E.34506
G1 X79.626 Y66.845 E.01685
M73 P7 R17
G1 X87.374 Y74.592 E.34506
G1 X87.374 Y75.128 E.01688
G1 X79.626 Y67.381 E.34506
G1 X79.626 Y67.917 E.01688
G1 X87.374 Y75.664 E.34506
G1 X87.374 Y76.199 E.01685
G1 X79.626 Y68.452 E.34506
G1 X79.626 Y68.988 E.01688
G1 X87.374 Y76.735 E.34506
G1 X87.374 Y77.271 E.01688
G1 X79.626 Y69.523 E.34509
G1 X79.626 Y70.059 E.01688
G1 X87.374 Y77.806 E.34506
G1 X87.374 Y78.342 E.01688
G1 X79.626 Y70.595 E.34506
G1 X79.626 Y71.13 E.01685
G1 X87.374 Y78.878 E.34509
G1 X87.374 Y79.413 E.01685
G1 X79.626 Y71.666 E.34506
G1 X79.626 Y72.202 E.01688
G1 X87.374 Y79.949 E.34506
G1 X87.374 Y80.484 E.01685
G1 X79.626 Y72.737 E.34506
G1 X79.626 Y73.273 E.01688
G1 X87.374 Y81.02 E.34506
G1 X87.374 Y81.556 E.01688
G1 X79.626 Y73.809 E.34506
G1 X79.626 Y74.344 E.01685
G1 X87.374 Y82.091 E.34506
G1 X87.374 Y82.627 E.01688
G1 X79.626 Y74.88 E.34506
G1 X79.626 Y75.416 E.01688
G1 X87.374 Y83.163 E.34506
G1 X87.374 Y83.698 E.01685
G1 X79.626 Y75.951 E.34506
G1 X79.626 Y76.487 E.01688
G1 X87.374 Y84.234 E.34506
G1 X87.374 Y84.77 E.01688
M73 P8 R17
G1 X79.626 Y77.022 E.34509
G1 X79.626 Y77.558 E.01688
G1 X87.374 Y85.305 E.34506
G1 X87.374 Y85.841 E.01688
G1 X79.626 Y78.094 E.34506
G1 X79.626 Y78.629 E.01685
G1 X87.374 Y86.377 E.34509
G1 X87.374 Y86.912 E.01685
G1 X79.626 Y79.165 E.34506
G1 X79.626 Y79.701 E.01688
G1 X87.374 Y87.448 E.34506
G1 X87.374 Y87.983 E.01685
G1 X79.626 Y80.236 E.34506
G1 X79.626 Y80.772 E.01688
G1 X87.374 Y88.519 E.34506
G1 X87.374 Y89.055 E.01688
G1 X79.626 Y81.308 E.34506
G1 X79.626 Y81.843 E.01685
G1 X87.374 Y89.59 E.34506
G1 X87.374 Y90.126 E.01688
G1 X79.626 Y82.379 E.34506
G1 X79.626 Y82.915 E.01688
G1 X87.374 Y90.662 E.34506
G1 X87.374 Y91.197 E.01685
G1 X79.626 Y83.45 E.34506
G1 X79.626 Y83.986 E.01688
G1 X87.374 Y91.733 E.34506
G1 X87.374 Y92.269 E.01688
G1 X79.626 Y84.521 E.34509
G1 X79.626 Y85.057 E.01688
G1 X87.374 Y92.804 E.34506
G1 X87.374 Y93.34 E.01688
G1 X79.626 Y85.593 E.34506
G1 X79.626 Y86.128 E.01685
G1 X87.374 Y93.875 E.34506
G1 X87.374 Y94.411 E.01688
G1 X79.626 Y86.664 E.34506
G1 X79.626 Y87.2 E.01688
M73 P9 R17
G1 X87.374 Y94.947 E.34506
G1 X87.374 Y95.482 E.01685
G1 X79.626 Y87.735 E.34506
G1 X79.626 Y88.271 E.01688
G1 X87.374 Y96.018 E.34506
G1 X87.374 Y96.554 E.01688
G1 X79.626 Y88.807 E.34506
G1 X79.626 Y89.342 E.01685
G1 X87.374 Y97.089 E.34506
G1 X87.374 Y97.625 E.01688
G1 X79.626 Y89.878 E.34506
G1 X79.626 Y90.414 E.01688
G1 X87.374 Y98.161 E.34506
G1 X87.374 Y98.696 E.01685
G1 X79.626 Y90.949 E.34506
G1 X79.626 Y91.485 E.01688
G1 X87.374 Y99.232 E.34506
G1 X87.374 Y99.768 E.01688
M73 P9 R16
G1 X79.626 Y92.02 E.34509
G1 X79.626 Y92.556 E.01688
G1 X87.374 Y100.303 E.34506
G1 X87.374 Y100.839 E.01688
G1 X79.626 Y93.092 E.34506
G1 X79.626 Y93.627 E.01685
G1 X87.374 Y101.374 E.34506
G1 X87.374 Y101.91 E.01688
G1 X79.626 Y94.163 E.34506
G1 X79.626 Y94.699 E.01688
G1 X87.374 Y102.446 E.34506
G1 X87.374 Y102.981 E.01685
G1 X79.626 Y95.234 E.34506
G1 X79.626 Y95.77 E.01688
G1 X87.374 Y103.517 E.34506
G1 X87.374 Y104.053 E.01688
G1 X79.626 Y96.306 E.34506
G1 X79.626 Y96.841 E.01685
G1 X87.374 Y104.588 E.34506
G1 X87.374 Y105.124 E.01688
M73 P10 R16
G1 X79.626 Y97.377 E.34506
G1 X79.626 Y97.913 E.01688
G1 X87.374 Y105.66 E.34506
G1 X87.374 Y106.195 E.01685
G1 X79.626 Y98.448 E.34506
G1 X79.626 Y98.984 E.01688
G1 X87.016 Y106.374 E.32914
G1 X86.481 Y106.374 E.01685
G1 X79.626 Y99.519 E.30531
G1 X79.626 Y100.055 E.01688
G1 X85.945 Y106.374 E.28144
G1 X85.409 Y106.374 E.01688
G1 X79.626 Y100.591 E.25757
G1 X79.626 Y101.126 E.01685
G1 X84.874 Y106.374 E.23374
G1 X84.338 Y106.374 E.01688
G1 X79.626 Y101.662 E.20987
G1 X79.626 Y102.198 E.01688
G1 X83.802 Y106.374 E.18599
G1 X83.267 Y106.374 E.01685
G1 X79.626 Y102.733 E.16217
G1 X79.626 Y103.269 E.01688
G1 X82.731 Y106.374 E.13829
G1 X82.195 Y106.374 E.01688
G1 X79.626 Y103.805 E.11442
G1 X79.626 Y104.34 E.01685
G1 X81.66 Y106.374 E.09059
G1 X81.124 Y106.374 E.01688
G1 X79.626 Y104.876 E.06672
G1 X79.626 Y105.411 E.01685
G1 X80.589 Y106.374 E.04289
G1 X80.053 Y106.374 E.01688
G1 X79.457 Y105.777 E.02657
M204 P1000
G1 E-2.7 F4200
G1 Z.4 F720
G1 X100.543 Y65.265 F9000
G1 Z.2 F720
G1 E2.7 F2400
M204 P600
G1 F1200
G1 X92.626 Y57.348 E.35261
G1 X92.626 Y57.884 E.01688
G1 X100.374 Y65.631 E.34506
G1 X100.374 Y66.167 E.01688
G1 X92.626 Y58.42 E.34506
G1 X92.626 Y58.955 E.01685
G1 X100.374 Y66.702 E.34506
G1 X100.374 Y67.238 E.01688
G1 X92.626 Y59.491 E.34506
G1 X92.626 Y60.027 E.01688
G1 X100.374 Y67.774 E.34506
G1 X100.374 Y68.309 E.01685
G1 X92.626 Y60.562 E.34506
G1 X92.626 Y61.098 E.01688
M73 P11 R16
G1 X100.374 Y68.845 E.34506
G1 X100.374 Y69.381 E.01688
G1 X92.626 Y61.633 E.34509
G1 X92.626 Y62.169 E.01688
G1 X100.374 Y69.916 E.34506
G1 X100.374 Y70.452 E.01688
G1 X92.626 Y62.705 E.34506
G1 X92.626 Y63.24 E.01685
G1 X100.374 Y70.987 E.34506
G1 X100.374 Y71.523 E.01688
G1 X92.626 Y63.776 E.34506
G1 X92.626 Y64.312 E.01688
G1 X100.374 Y72.059 E.34506
G1 X100.374 Y72.594 E.01685
G1 X92.626 Y64.847 E.34506
G1 X92.626 Y65.383 E.01688
G1 X100.374 Y73.13 E.34506
G1 X100.374 Y73.666 E.01688
G1 X92.626 Y65.919 E.34506
G1 X92.626 Y66.454 E.01685
G1 X100.374 Y74.201 E.34506
G1 X100.374 Y74.737 E.01688
G1 X92.626 Y66.99 E.34506
G1 X92.626 Y67.526 E.01688
G1 X100.374 Y75.273 E.34506
G1 X100.374 Y75.808 E.01685
G1 X92.626 Y68.061 E.34506
G1 X92.626 Y68.597 E.01688
G1 X100.374 Y76.344 E.34506
G1 X100.374 Y76.88 E.01688
G1 X92.626 Y69.132 E.34509
G1 X92.626 Y69.668 E.01688
G1 X100.374 Y77.415 E.34506
G1 X100.374 Y77.951 E.01688
G1 X92.626 Y70.204 E.34506
G1 X92.626 Y70.739 E.01685
G1 X100.374 Y78.486 E.34506
G1 X100.374 Y79.022 E.01688
M73 P12 R16
G1 X92.626 Y71.275 E.34506
G1 X92.626 Y71.811 E.01688
G1 X100.374 Y79.558 E.34506
G1 X100.374 Y80.093 E.01685
G1 X92.626 Y72.346 E.34506
G1 X92.626 Y72.882 E.01688
G1 X100.374 Y80.629 E.34506
G1 X100.374 Y81.165 E.01688
G1 X92.626 Y73.418 E.34506
G1 X92.626 Y73.953 E.01685
G1 X100.374 Y81.7 E.34506
G1 X100.374 Y82.236 E.01688
G1 X92.626 Y74.489 E.34506
G1 X92.626 Y75.025 E.01688
G1 X100.374 Y82.772 E.34506
G1 X100.374 Y83.307 E.01685
G1 X92.626 Y75.56 E.34506
G1 X92.626 Y76.096 E.01688
G1 X100.374 Y83.843 E.34506
G1 X100.374 Y84.379 E.01688
G1 X92.626 Y76.631 E.34509
G1 X92.626 Y77.167 E.01688
G1 X100.374 Y84.914 E.34506
G1 X100.374 Y85.45 E.01688
G1 X92.626 Y77.703 E.34506
G1 X92.626 Y78.238 E.01685
G1 X100.374 Y85.985 E.34506
G1 X100.374 Y86.521 E.01688
G1 X92.626 Y78.774 E.34506
G1 X92.626 Y79.31 E.01688
G1 X100.374 Y87.057 E.34506
G1 X100.374 Y87.592 E.01685
G1 X92.626 Y79.845 E.34506
G1 X92.626 Y80.381 E.01688
G1 X100.374 Y88.128 E.34506
G1 X100.374 Y88.664 E.01688
G1 X92.626 Y80.917 E.34506
G1 X92.626 Y81.452 E.01685
M73 P13 R16
G1 X100.374 Y89.199 E.34506
G1 X100.374 Y89.735 E.01688
G1 X92.626 Y81.988 E.34506
G1 X92.626 Y82.523 E.01685
G1 X100.374 Y90.271 E.34509
G1 X100.374 Y90.806 E.01685
G1 X92.626 Y83.059 E.34506
G1 X92.626 Y83.595 E.01688
G1 X100.374 Y91.342 E.34506
G1 X100.374 Y91.878 E.01688
G1 X92.626 Y84.13 E.34509
G1 X92.626 Y84.666 E.01688
G1 X100.374 Y92.413 E.34506
G1 X100.374 Y92.949 E.01688
G1 X92.626 Y85.202 E.34506
G1 X92.626 Y85.737 E.01685
G1 X100.374 Y93.484 E.34506
G1 X100.374 Y94.02 E.01688
G1 X92.626 Y86.273 E.34506
G1 X92.626 Y86.809 E.01688
G1 X100.374 Y94.556 E.34506
G1 X100.374 Y95.091 E.01685
G1 X92.626 Y87.344 E.34506
G1 X92.626 Y87.88 E.01688
G1 X100.374 Y95.627 E.34506
G1 X100.374 Y96.163 E.01688
G1 X92.626 Y88.416 E.34506
G1 X92.626 Y88.951 E.01685
G1 X100.374 Y96.698 E.34506
